public/luts/dji-dlog-rec709.cube
TITLE "Generated by Resolve"
LUT_3D_SIZE 33
0 0 0
0 0 0
0 0 0
0 0 0
0.0272526 0 0
0.066331 0 0
0.112184 0 0
0.15758 0 0
0.204013 0 0
0.252598 0 0
0.304051 0 0
0.358862 0 0
0.417288 0 0
0.479393 0 0
0.545037 0 0
0.616861 0 0
0.693141 0 0
0.769192 0 0
0.84332 0 0
0.913558 0 0.0345769
0.97792 0 0.103029
1 0 0.173617
1 0.0665904 0.243351
1 0.173495 0.313954
1 0.264042 0.385412
1 0.348852 0.456977
1 0.430198 0.527504
1 0.508049 0.59556
1 0.581689 0.659709
1 0.65005 0.718654
1 0.712139 0.771466
1 0.767269 0.817594
1 0.815106 0.857008
0 0 0
0 0 0
0 0 0
0 0 0
0.0305028 0 0
0.0694743 0 0
0.114672 0 0
0.159487 0 0
0.205509 0 0
0.253788 0 0
0.305013 0 0
0.35964 0 0
0.417899 0 0
0.479896 0 0
0.548226 0 0
0.620859 0 0
0.695384 0 0
0.77026 0 0
0.843595 0 0
0.913298 0 0.0305486
0.977295 0 0.099794
1 0 0.171588
1 0.0932479 0.241978
1 0.188067 0.312963
1 0.273503 0.38468
1 0.355383 0.456458
1 0.434775 0.527123
1 0.511269 0.59527
1 0.583917 0.659495
1 0.651576 0.718502
1 0.713176 0.771359
1 0.767926 0.817533
1 0.815534 0.856962
0 0 0
0 0 0
0 0 0
0 0 0
0.0337377 0 0
0.0726177 0 0
0.117128 0 0
0.161364 0 0
0.206989 0 0
0.254963 0 0
0.305974 0 0
0.360418 0 0
0.419547 0 0
0.483467 0 0
0.551476 0 0
0.623041 0 0
0.696666 0 0
0.77084 0 0
0.84361 0 0
0.912902 0 0.0264591
0.976608 0 0.0964828
1 0.0264744 0.169528
1 0.116197 0.240574
1 0.201678 0.311955
1 0.282628 0.383963
1 0.361746 0.455924
1 0.439246 0.526711
1 0.514443 0.59498
1 0.58613 0.659281
1 0.653086 0.718349
1 0.714168 0.771252
1 0.768597 0.817456
1 0.815961 0.856901
0 0 0
0 0 0
0 0 0
0 0 0
0.0369573 0 0
0.0755169 0 0
0.118715 0 0
0.162081 0 0
0.207279 0 0
0.255283 0 0
0.306767 0 0
0.362142 0 0
0.421683 0 0
0.485405 0 0
0.553094 0 0
0.624186 0 0
0.697353 0 0
0.771069 0 0
0.843442 0 0
0.912398 0 0.0223697
0.975875 0 0.0930648
1 0.0543679 0.167452
1 0.136294 0.23917
1 0.21445 0.310948
1 0.291371 0.383215
1 0.367941 0.45539
1 0.443656 0.526314
1 0.517555 0.594675
1 0.588327 0.659083
1 0.654582 0.718212
1 0.715175 0.771145
1 0.769253 0.817395
1 0.816388 0.85687
0 0.0234684 0
0 0.0251926 0
0 0.0269322 0
0 0.0284886 0
0.0272221 0.0275578 0
0.0660563 0.0264897 0
0.111986 0.0249638 0
0.157717 0.0229496 0
0.204623 0.0203861 0
0.25388 0.0172122 0
0.306249 0.0134127 0
0.362264 0.00900282 0
0.422187 0.00415045 0
0.486107 0 0
0.553796 0 0
0.624704 0 0
0.697627 0 0
0.771038 0 0
0.843137 0 0
0.911833 0 0.018265
0.975097 0.0231022 0.0895857
1 0.0822461 0.165347
1 0.154345 0.237766
1 0.226535 0.309972
1 0.299855 0.382513
1 0.373999 0.454856
1 0.448005 0.525933
1 0.520653 0.594415
1 0.590494 0.658869
1 0.656077 0.718059
1 0.716182 0.771054
1 0.769909 0.817319
1 0.8168 0.856809
0 0.056733 0
0 0.0584421 0
0 0.0601511 0
0 0.0614939 0
0.0158541 0.0606851 0
0.0554513 0.0597391 0
0.1037 0.0583505 0
0.151919 0.0564431 0
0.20058 0.0539254 0
0.251164 0.0507668 0
0.30454 0.0469062 0
0.361303 0.0424201 0
0.421759 0.0374304 0
0.486015 0.0323491 0
0.553872 0.0255283 0
0.624765 0.0152743 0
0.697551 0.00654612 0
0.770794 0.00183108 0
0.842664 0.00468452 0
0.911162 0.0198062 0.013962
0.974258 0.0529488 0.0858473
1 0.108385 0.163134
1 0.171511 0.236271
1 0.238483 0.308919
1 0.3084 0.38175
1 0.380163 0.454307
1 0.452461 0.525521
1 0.523842 0.59411
1 0.592706 0.65864
1 0.657618 0.717906
1 0.71722 0.770932
1 0.770581 0.817243
1 0.817243 0.856764
0 0.0983597 0
0 0.099855 0
0 0.10132 0
0 0.102281 0
0.000427253 0.101762 0
0.0408026 0.10103 0
0.0912795 0.0999313 0
0.143175 0.0983291 0
0.194247 0.0961471 0
0.246571 0.0932631 0
0.301289 0.0896468 0
0.359075 0.0852674 0
0.420294 0.0799573 0
0.485069 0.0746777 0
0.553246 0.067277 0
0.624277 0.0567636 0
0.697032 0.0476844 0
0.770123 0.0425116 0
0.841825 0.0447395 0
0.91014 0.0589914 0.0083772
0.973068 0.0909133 0.0805676
1 0.136767 0.160174
1 0.191592 0.234287
1 0.252979 0.307515
1 0.318944 0.380713
1 0.387869 0.453529
1 0.458045 0.524941
1 0.52784 0.593683
1 0.595544 0.658351
1 0.659556 0.717693
1 0.718547 0.770794
1 0.771466 0.817151
1 0.817823 0.856718
0 0.141726 0
0 0.142855 0
0 0.143984 0
0 0.144625 0
0 0.144381 0
0.0208743 0.143923 0
0.0722667 0.14316 0
0.130144 0.142 0
0.184756 0.140383 0
0.239521 0.138201 0
0.296056 0.135424 0
0.35523 0.132036 0
0.417533 0.12813 0
0.483101 0.123934 0
0.551827 0.117556 0
0.623133 0.108629 0
0.69601 0.10042 0
0.76907 0.0952316 0
0.84062 0.0965133 0
0.908751 0.108019 0.00111391
0.971496 0.132036 0.0739452
1 0.168505 0.156298
1 0.215595 0.231769
1 0.270939 0.305745
1 0.332357 0.379446
1 0.397787 0.452583
1 0.465324 0.524254
1 0.533089 0.593164
1 0.599283 0.657984
1 0.66215 0.717433
1 0.720287 0.770611
1 0.772625 0.817029
1 0.818555 0.856626
0 0.18645 0
0 0.187335 0
0 0.18822 0
0 0.188724 0
0 0.188678 0
0 0.188418 0
0.0465553 0.187915 0
0.110643 0.187076 0
0.170779 0.185855 0
0.229068 0.184161 0
0.288106 0.181964 0
0.349172 0.179232 0
0.412924 0.176043 0
0.479576 0.172595 0
0.549126 0.167056 0
0.620951 0.15993 0
0.694087 0.153353 0
0.767224 0.148959 0
0.838727 0.149187 0
0.906722 0.156939 0
0.969329 0.174777 0.0652476
1 0.203861 0.15111
1 0.243717 0.228382
1 0.29279 0.30341
1 0.349035 0.377752
1 0.41033 0.451347
1 0.474601 0.523339
1 0.539849 0.592493
1 0.604089 0.657496
1 0.665492 0.717083
1 0.72256 0.770367
1 0.774121 0.816861
1 0.819532 0.856519
0 0.23357 0
0 0.234272 0
0 0.234974 0
0 0.235492 0
0 0.235599 0
0 0.235492 0
0.0127413 0.235172 0
0.080354 0.234577 0
0.150362 0.233661 0
0.213977 0.232349 0
0.276555 0.230564 0
0.3402 0.228336 0
0.405905 0.225666 0
0.474052 0.222736 0
0.544732 0.21767 0
0.617334 0.211719 0
0.690959 0.206119 0
0.764355 0.202121 0
0.83592 0.201572 0
0.903868 0.206775 0
0.966384 0.220081 0.0539864
1 0.243107 0.144152
1 0.276326 0.223941
1 0.31899 0.300343
1 0.369543 0.375555
1 0.426062 0.44976
1 0.486412 0.522164
1 0.548516 0.591638
1 0.610315 0.65687
1 0.669856 0.71664
1 0.725521 0.770062
1 0.776089 0.816648
1 0.820798 0.856382
0 0.283757 0
0 0.284321 0
0 0.284947 0
0 0.285542 0
0 0.28574 0
0 0.285756 0
0 0.285588 0
0.0375372 0.285191 0
0.119921 0.284504 0
0.19234 0.283467 0
0.260166 0.282032 0
0.327413 0.280171 0
0.395758 0.277897 0
0.465919 0.275181 0
0.538109 0.270573 0
0.611811 0.265446 0
0.686168 0.260471 0
0.760021 0.256672 0
0.831815 0.255467 0
0.89984 0.258717 0
0.962356 0.268482 0.0394446
1 0.286427 0.134768
1 0.313588 0.218082
1 0.349905 0.296361
1 0.3944 0.372732
1 0.445487 0.4477
1 0.501228 0.520668
1 0.559518 0.590539
1 0.61828 0.656077
1 0.675471 0.71606
1 0.729381 0.769665
1 0.778653 0.816373
1 0.822461 0.856199
0 0.337392 0
0 0.337835 0
0 0.338674 0
0 0.339223 0
0 0.339483 0
0 0.339574 0
0 0.339513 0
0 0.339254 0
0.0711376 0.338766 0
0.161028 0.337957 0
0.237201 0.336782 0
0.309636 0.33521 0
0.381613 0.333257 0
0.45449 0.330495 0
0.528679 0.326406 0
0.603845 0.321843 0
0.679286 0.317327 0
0.753841 0.313603 0
0.826078 0.311818 0
0.894347 0.313497 0
0.95697 0.320317 0.0209812
1 0.333974 0.122133
1 0.355612 0.210391
1 0.385733 0.291188
1 0.423926 0.369085
1 0.469062 0.44506
1 0.519524 0.518746
1 0.573312 0.589136
1 0.628351 0.655039
1 0.682643 0.715343
1 0.73434 0.769146
1 0.781979 0.816007
1 0.824628 0.855955
0 0.394644 0
0 0.3953 0
0 0.396231 0
0 0.396735 0
0 0.396948 0
0 0.39707 0
0 0.39707 0
0 0.396933 0
0.00415045 0.396567 0
0.113436 0.395926 0
0.204883 0.394965 0
0.285267 0.393637 0
0.362371 0.391943 0
0.438865 0.389013 0
0.515694 0.385351 0
0.592828 0.381231 0
0.669734 0.377005 0
0.745327 0.373312 0
0.818235 0.371008 0
0.886931 0.371328 0
0.949828 0.375692 0
1 0.385626 0.104936
1 0.402319 0.200412
1 0.426551 0.28455
1 0.458381 0.364431
1 0.4972 0.441718
1 0.541741 0.516274
1 0.590311 0.587335
1 0.64097 0.653727
1 0.691691 0.714366
1 0.740642 0.768475
1 0.786236 0.815549
1 0.82742 0.855634
0 0.45565 0
0 0.456825 0
0 0.457496 0
0 0.457893 0
0 0.458122 0
0 0.458228 0
0 0.458259 0
0 0.458152 0
0 0.457893 0
0.0358892 0.457374 0
0.15819 0.456565 0
0.25214 0.455406 0
0.336767 0.453468 0
0.418219 0.450767 0
0.498558 0.44744 0
0.578286 0.443626 0
0.657069 0.439612 0
0.734051 0.435859 0
0.807935 0.433082 0
0.877287 0.432227 0
0.940658 0.434516 0
0.996735 0.441199 0.0812543
1 0.453468 0.18764
1 0.472206 0.276249
1 0.497826 0.358694
1 0.530114 0.437583
1 0.568276 0.513283
1 0.610986 0.585107
1 0.656535 0.652094
1 0.703029 0.713207
1 0.748608 0.767636
1 0.791669 0.814969
1 0.831022 0.855253
0 0.520821 0
0 0.521569 0
0 0.522011 0
0 0.522301 0
0 0.522454 0
0 0.52253 0
0 0.52256 0
0 0.522499 0
0 0.522255 0
0 0.521813 0
0.0834821 0.521035 0
0.206455 0.519707 0
0.303059 0.5178 0
0.391546 0.515312 0
0.47657 0.512215 0
0.55964 0.508629 0
0.640864 0.504738 0
0.7196 0.500893 0
0.794781 0.497658 0
0.865049 0.495796 0
0.929091 0.496284 0
0.985718 0.500175 0.0508431
1 0.508522 0.171511
1 0.52224 0.266072
1 0.541924 0.35169
1 0.567697 0.432578
1 0.599222 0.509621
1 0.635569 0.582422
1 0.675364 0.650126
1 0.716945 0.711757
1 0.758526 0.766583
1 0.79852 0.814237
1 0.835584 0.854749
0 0.588281 0
0 0.588693 0
0 0.588968 0
0 0.589136 0
0 0.589227 0
0 0.589258 0
0 0.589212 0
0 0.589059 0
0 0.588739 0
0 0.588159 0
0 0.587274 0
0.140261 0.585962 0
0.258976 0.584176 0
0.357855 0.581842 0
0.449195 0.578927 0
0.536538 0.575479 0
0.620813 0.571649 0
0.701747 0.567681 0
0.778531 0.564034 0
0.849989 0.561303 0
0.914931 0.56025 0
0.972274 0.561715 0.0167544
1 0.566644 0.151644
1 0.575875 0.253971
1 0.590051 0.343481
1 0.609583 0.426734
1 0.63444 0.505348
1 0.664149 0.579278
1 0.697688 0.647776
1 0.733745 0.710033
1 0.770733 0.765347
1 0.807034 0.813352
1 0.841337 0.854139
0 0.656641 0
0 0.656794 0
0 0.656855 0
0 0.65687 0
0 0.65684 0
0 0.656764 0
0 0.656626 0
0 0.656382 0
0 0.656001 0
0 0.65539 0
0 0.654505 0
0.032105 0.653239 0
0.201007 0.651499 0
0.316396 0.649256 0
0.416327 0.646448 0
0.509041 0.643076 0
0.596979 0.639246 0
0.680537 0.635157 0
0.759228 0.631144 0
0.832105 0.627649 0
0.898131 0.625284 0
0.956359 0.62472 0
1 0.626703 0.127871
1 0.632013 0.240299
1 0.64126 0.334295
1 0.654994 0.420218
1 0.673442 0.500587
1 0.696452 0.575708
1 0.723491 0.645106
1 0.753552 0.708034
1 0.785367 0.763867
1 0.817441 0.812284
1 0.848478 0.853376
0 0.724269 0
0 0.724239 0
0 0.724178 0
0 0.724086 0
0 0.723949 0
0 0.723812 0
0 0.723613 0
0 0.723308 0
0 0.72285 0
0 0.72221 0
0 0.721294 0
0 0.720012 0
0.121111 0.718318 0
0.266773 0.716106 0
0.37847 0.713344 0
0.477775 0.710002 0
0.56997 0.706172 0
0.656474 0.701961 0
0.73727 0.697612 0
0.811704 0.693477 0
0.87892 0.690013 0
0.938155 0.687755 0
0.988846 0.687312 0.100877
1 0.689281 0.22591
1 0.694255 0.324788
1 0.702815 0.413458
1 0.715312 0.495567
1 0.731929 0.571923
1 0.752453 0.642222
1 0.776303 0.705821
1 0.802533 0.762203
1 0.829908 0.811048
1 0.857176 0.852491
0 0.789609 0
0 0.789487 0
0 0.789303 0
0 0.789136 0
0 0.788952 0
0 0.788754 0
0 0.788464 0
0 0.788098 0
0 0.787594 0
0 0.786892 0
0 0.785931 0
0 0.784634 0
0.00759899 0.782925 0
0.209445 0.780728 0
0.337316 0.777996 0
0.444312 0.774685 0
0.541054 0.770809 0
0.630564 0.766476 0
0.713481 0.761868 0
0.789471 0.757214 0
0.857908 0.752895 0
0.918151 0.749294 0
0.969787 0.746868 0.0731365
1 0.746105 0.212573
1 0.747524 0.316045
1 0.751629 0.407156
1 0.758877 0.490822
1 0.769619 0.568246
1 0.783963 0.639323
1 0.801648 0.703532
1 0.822126 0.760418
1 0.84445 0.809689
1 0.867536 0.851484
0 0.850889 0
0 0.850675 0
0 0.850462 0
0 0.850233 0
0 0.849989 0
0 0.84976 0
0 0.849439 0
0 0.849012 0
0 0.848447 0
0 0.847684 0
0 0.846677 0
0 0.84535 0
0 0.843641 0
0.147082 0.841443 0
0.296513 0.838712 0
0.41146 0.835416 0
0.512444 0.831525 0
0.604593 0.827115 0
0.689265 0.822309 0
0.766552 0.817304 0
0.835996 0.812314 0
0.897124 0.807675 0
0.949599 0.803723 0.0540475
0.993347 0.800824 0.203067
1 0.799374 0.309712
1 0.799847 0.402441
1 0.802686 0.487083
1 0.808331 0.565179
1 0.817075 0.636774
1 0.828962 0.701396
1 0.843793 0.758648
1 0.860945 0.80827
1 0.879591 0.850385
0 0.906447 0
0 0.906203 0
0 0.905943 0
0 0.905669 0
0 0.905409 0
0 0.90515 0
0 0.904799 0
0 0.904341 0
0 0.903731 0
0 0.902937 0
0 0.901915 0
0 0.900572 0
0 0.898848 0
0.0890669 0.896666 0
0.262623 0.893965 0
0.383581 0.890684 0
0.487297 0.886824 0
0.580926 0.882414 0
0.666514 0.877485 0
0.744472 0.872236 0
0.814466 0.866819 0
0.876127 0.861433 0
0.929198 0.856367 0.0512703
0.973648 0.851865 0.201114
1 0.848264 0.307973
1 0.845914 0.400732
1 0.845228 0.485359
1 0.846647 0.563409
1 0.850599 0.635004
1 0.857343 0.699718
1 0.866911 0.757107
1 0.879042 0.806912
1 0.893156 0.849271
0 0.954955 0
0 0.954681 0
0 0.954406 0
0 0.954131 0
0 0.953872 0
0 0.953582 0
0 0.953231 0
0 0.952743 0
0 0.952148 0
0 0.951354 0
0 0.950301 0
0 0.948974 0
0 0.94728 0
0.0642405 0.945144 0
0.24509 0.942489 0
0.366293 0.9393 0
0.469429 0.9355 0
0.562432 0.931136 0
0.647456 0.926223 0
0.724987 0.920867 0
0.794751 0.91519 0
0.856382 0.909377 0
0.909636 0.903563 0.0720531
0.954467 0.897978 0.210407
0.991165 0.892836 0.313115
1 0.888411 0.403601
1 0.885084 0.486763
1 0.883238 0.563806
1 0.88333 0.634684
1 0.88574 0.698955
1 0.890715 0.756115
1 0.898207 0.805875
1 0.907988 0.84828
0 0.995605 0
0 0.995331 0
0 0.995071 0
0 0.994797 0
0 0.994537 0
0 0.994247 0
0 0.993896 0
0 0.993439 0
0 0.992844 0
0 0.992065 0
0 0.991073 0
0 0.989776 0
0 0.988144 0
0.100328 0.986099 0
0.253117 0.983566 0
0.365194 0.980484 0
0.462943 0.976822 0
0.552148 0.97258 0
0.634455 0.967773 0
0.709987 0.962448 0
0.778408 0.956725 0
0.83917 0.950698 0
0.891966 0.944488 0.119295
0.936736 0.938231 0.233234
0.973663 0.932113 0.327214
1 0.926314 0.412726
1 0.921111 0.492561
1 0.916899 0.567269
1 0.914076 0.6365
1 0.913085 0.699626
1 0.914244 0.756024
1 0.917754 0.805341
1 0.923568 0.847578
0 1 0
0 1 0
0 1 0
0 1 0
0 1 0
0 1 0
0 1 0
0 1 0
0 1 0
0 1 0
0 1 0
0 1 0
0.0174105 1 0
0.177798 1 0
0.288594 1 0
0.383398 1 0
0.470573 1 0
0.552468 1 0
0.62945 1 0
0.701137 0.996643 0
0.766735 0.991028 0
0.825589 0.985016 0.0693065
0.877165 0.978683 0.180087
0.921248 0.972137 0.269352
0.957961 0.965484 0.351263
0.987701 0.958877 0.429191
1 0.952529 0.503777
1 0.946746 0.574701
1 0.941894 0.641138
1 0.938384 0.702251
1 0.936629 0.757259
1 0.936904 0.805676
1 0.93933 0.847364
0 1 0
0 1 0
0 1 0
0 1 0
0 1 0
0 1 0
0 1 0
0 1 0
0 1 0
0 1 0
0 1 0
0.0893263 1 0
0.186786 1 0
0.268696 1 0
0.345403 1 0
0.419898 1 0
0.493034 1 0
0.564569 1 0
0.633753 1 0
0.699535 1 0.031754
0.7608 1 0.107408
0.81651 1 0.179599
0.865934 1 0.248386
0.90866 0.999573 0.31667
0.94464 0.992782 0.385153
0.974105 0.98584 0.453574
0.997543 0.978897 0.521111
1 0.972213 0.586725
1 0.966094 0.649195
1 0.960922 0.707347
1 0.957076 0.76022
1 0.954894 0.807157
1 0.954635 0.847913
0 1 0.060502
0 1 0.0609903
0.0188602 1 0.0614633
0.0378119 1 0.0619669
0.0566415 1 0.0624857
0.0761883 1 0.0630198
0.100282 1 0.0637522
0.127031 1 0.0646983
0.156985 1 0.0660258
0.190387 1 0.0678264
0.227497 1 0.0703441
0.268437 1 0.0737163
0.31342 1 0.0785534
0.362264 1 0.0854047
0.414771 1 0.0942855
0.470466 1 0.106111
0.528557 1 0.121553
0.588006 1 0.14136
0.647517 1 0.166125
0.705684 1 0.196353
0.761105 1 0.232334
0.812467 1 0.273915
0.858778 1 0.320806
0.899397 1 0.372381
0.934035 1 0.427665
0.962783 1 0.485634
0.985977 1 0.544823
1 0.993103 0.60383
1 0.986358 0.661128
1 0.980209 0.715343
1 0.975021 0.765286
1 0.97116 0.810132
1 0.968887 0.849439
0.283757 1 0.245548
0.289799 1 0.245762
0.29572 1 0.246006
0.301488 1 0.246235
0.307118 1 0.246479
0.312871 1 0.246723
0.320104 1 0.247074
0.329366 1 0.247532
0.3411 1 0.248127
0.355779 1 0.248951
0.373953 1 0.25005
0.396078 1 0.25156
0.422583 1 0.253605
0.453696 1 0.256397
0.489479 1 0.260227
0.529717 1 0.265522
0.573831 1 0.272709
0.620966 1 0.28249
0.669932 1 0.295567
0.719341 1 0.312749
0.767712 1 0.334768
0.813626 1 0.362142
0.855879 1 0.395148
0.893629 1 0.433646
0.92636 1 0.477058
0.953918 1 0.524453
0.976501 1 0.574624
0.994461 1 0.626062
1 1 0.677211
1 0.996063 0.726543
1 0.990173 0.772763
1 0.985275 0.814847
1 0.981643 0.852186
0.440177 1 0.36968
0.443229 1 0.369818
0.446235 1 0.36997
0.449271 1 0.370138
0.452201 1 0.370275
0.455283 1 0.370459
0.459159 1 0.370657
0.46424 1 0.370977
0.470771 1 0.371359
