public/luts/dji-dlog-rec709.cube
TITLE "Generated by Resolve"
LUT_3D_SIZE 5
0 0 0
0.204013 0 0
0.693141 0 0
1 0.264042 0.385412
1 0.815106 0.857008
0 0.18645 0
0.170779 0.185855 0
0.694087 0.153353 0
1 0.349035 0.377752
1 0.819532 0.856519
0 0.656641 0
0 0.656001 0
0.596979 0.639246 0
1 0.64126 0.334295
1 0.848478 0.853376
0 1 0
0 1 0
0.493034 1 0
0.94464 0.992782 0.385153
1 0.954635 0.847913
0.842145 1 0.776242
0.844556 1 0.776516
0.861219 1 0.778683
0.936919 1 0.799969
1 1 0.902113
0 0 0.165042
0.201434 0 0.170214
0.69369 0 0.185657
1 0.250324 0.439185
1 0.814649 0.859983
0 0.166842 0.159869
0.162219 0.162219 0.162219
0.69192 0.114549 0.167285
1 0.338293 0.432715
1 0.819059 0.85948
0 0.647456 0
0 0.646067 0
0.593896 0.628733 0
1 0.634897 0.395453
1 0.848005 0.856336
0 1 0.0965744
0 1 0.0996872
0.490379 1 0.139284
0.943358 0.989059 0.429419
1 0.954162 0.850538
0.841856 1 0.781857
0.844266 1 0.782101
0.860945 1 0.784161
0.936675 1 0.804334
1 1 0.903243
0 0 0.583291
0.169848 0 0.592523
0.687312 0 0.602853
1 0.169345 0.661234
1 0.81149 0.879988
0 0 0.601526
0.0859083 0 0.606317
0.677577 0 0.605142
1 0.278431 0.657252
1 0.815869 0.879469
0 0.595666 0.58117
0 0.593225 0.580987
0.575372 0.575372 0.575372
1 0.600183 0.633143
1 0.844709 0.876127
0 1 0.555215
0 1 0.554635
0.476829 1 0.554696
0.93611 0.967819 0.62211
1 0.950912 0.868406
0.840101 1 0.817472
0.842512 1 0.817624
0.85919 1 0.818875
0.935119 1 0.832715
1 1 0.911131
0 0 1
0.0442206 0 1
0.649683 0 1
1 0.216526 0.985672
1 0.804059 0.962676
0 0.0402686 1
0 0.0281834 1
0.634775 0 1
1 0.293873 0.98233
1 0.808103 0.962112
0 0.547021 1
0 0.543908 1
0.544671 0.527642 0.988678
1 0.564675 0.962646
1 0.834897 0.958358
0 0.954559 0.941405
0 0.952605 0.940047
0.47512 0.941665 0.932601
0.9196 0.9196 0.9196
1 0.937224 0.944625
0.836194 1 0.933639
0.838544 1 0.933577
0.854826 1 0.933196
0.929778 1 0.932967
1 1 0.951629
0.481544 0.749905 1
0.513954 0.74873 1
0.675853 0.742412 1
0.980392 0.744656 1
1 0.864164 1
0.47953 0.757031 1
0.511894 0.75584 1
0.673671 0.749493 1
0.978332 0.750744 1
1 0.865965 1
0.469062 0.801831 1
0.500893 0.800656 1
0.660517 0.794202 1
0.964767 0.789914 1
1 0.878401 1
0.530388 0.942779 1
0.55021 0.941909 1
0.660838 0.936675 1
0.917449 0.923003 1
1 0.938231 1
0.858656 1 1
0.860365 1 1
0.872435 1 1
0.932555 1 1
1 1 1
