public/luts/dji-dlog-rec709.cube
TITLE "Generated by Resolve"
LUT_3D_SIZE 9
0 0 0
0.0272526 0 0
0.204013 0 0
0.417288 0 0
0.693141 0 0
0.97792 0 0.103029
1 0.264042 0.385412
1 0.581689 0.659709
1 0.815106 0.857008
0 0.0234684 0
0.0272221 0.0275578 0
0.204623 0.0203861 0
0.422187 0.00415045 0
0.697627 0 0
0.975097 0.0231022 0.0895857
1 0.299855 0.382513
1 0.590494 0.658869
1 0.8168 0.856809
0 0.18645 0
0 0.188678 0
0.170779 0.185855 0
0.412924 0.176043 0
0.694087 0.153353 0
0.969329 0.174777 0.0652476
1 0.349035 0.377752
1 0.604089 0.657496
1 0.819532 0.856519
0 0.394644 0
0 0.396948 0
0.00415045 0.396567 0
0.362371 0.391943 0
0.669734 0.377005 0
0.949828 0.375692 0
1 0.458381 0.364431
1 0.64097 0.653727
1 0.82742 0.855634
0 0.656641 0
0 0.65684 0
0 0.656001 0
0.201007 0.651499 0
0.596979 0.639246 0
0.898131 0.625284 0
1 0.64126 0.334295
1 0.723491 0.645106
1 0.848478 0.853376
0 0.906447 0
0 0.905409 0
0 0.903731 0
0 0.898848 0
0.487297 0.886824 0
0.814466 0.866819 0
1 0.848264 0.307973
1 0.850599 0.635004
1 0.893156 0.849271
0 1 0
0 1 0
0 1 0
0.186786 1 0
0.493034 1 0
0.7608 1 0.107408
0.94464 0.992782 0.385153
1 0.966094 0.649195
1 0.954635 0.847913
0.557702 1 0.473793
0.564721 1 0.47422
0.575784 1 0.474983
0.606332 1 0.477424
0.677867 1 0.485618
0.797436 1 0.512825
0.919722 1 0.587503
0.993851 1 0.721279
1 1 0.862181
0.842145 1 0.776242
0.843061 1 0.776333
0.844556 1 0.776516
0.848966 1 0.77705
0.861219 1 0.778683
0.889952 1 0.783963
0.936919 1 0.799969
0.981872 1 0.839216
1 1 0.902113
0 0 0.0199588
0.0282597 0 0.0259251
0.204211 0 0.0260624
0.417624 0 0.0285039
0.693629 0 0.0530556
0.977325 0 0.176593
1 0.258747 0.407218
1 0.580636 0.665675
1 0.814954 0.858152
0 0.0233463 0.0210422
0.0256046 0.0256046 0.0256046
0.203601 0.0155489 0.0235142
0.421988 0 0.0202029
0.697322 0 0.037232
0.974411 0.00505074 0.168399
1 0.295094 0.404517
1 0.589441 0.664851
1 0.816663 0.857984
0 0.185245 0
0 0.186374 0
0.169192 0.181842 0
0.41207 0.166552 0
0.693416 0.13872 0.00860609
0.968597 0.1635 0.153903
1 0.344884 0.400076
1 0.603052 0.663478
1 0.819364 0.857664
0 0.392737 0
0 0.394461 0
0 0.393149 0
0.361166 0.385977 0
0.668757 0.370413 0
0.948959 0.369863 0.105608
1 0.455116 0.387625
1 0.639979 0.659724
1 0.827253 0.856779
0 0.653452 0
0 0.653452 0
0 0.652415 0
0.198154 0.647623 0
0.595895 0.635187 0
0.8972 0.621607 0
1 0.638834 0.359396
1 0.722576 0.651133
1 0.84831 0.854536
0 0.90341 0
0 0.902342 0
0 0.900664 0
0 0.895735 0
0.486061 0.883757 0
0.813596 0.864073 0
1 0.846342 0.333913
1 0.84976 0.640864
1 0.892989 0.85037
0 1 0
0 1 0
0 1 0
0.184405 1 0
0.491981 1 0.00163272
0.760067 1 0.168429
0.944137 0.991333 0.402945
1 0.965408 0.654185
1 0.954452 0.848905
0.557168 1 0.486473
0.564218 1 0.4869
0.57528 1 0.487587
0.605859 1 0.48986
0.67744 1 0.49749
0.797055 1 0.523125
0.919432 1 0.594507
0.993698 1 0.724346
1 1 0.862959
0.842023 1 0.778393
0.842954 1 0.7785
0.844434 1 0.778668
0.848844 1 0.779171
0.861112 1 0.780804
0.889845 1 0.785946
0.936828 1 0.801633
0.981811 1 0.840299
1 1 0.902541
0 0 0.165042
0.021561 0 0.168582
0.201434 0 0.170214
0.4168 0 0.171511
0.69369 0 0.185657
0.976303 0 0.25687
1 0.250324 0.439185
1 0.578897 0.675013
1 0.814649 0.859983
0 0 0.167895
0.0141756 0 0.171084
0.19884 0 0.172015
0.420294 0 0.172015
0.696422 0 0.180713
0.973281 0 0.251743
1 0.287556 0.436728
1 0.587732 0.674189
1 0.816358 0.8598
0 0.166842 0.159869
0 0.167666 0.1626
0.162219 0.162219 0.162219
0.408835 0.145312 0.159854
0.69192 0.114549 0.167285
0.96733 0.145006 0.242542
1 0.338293 0.432715
1 0.601373 0.672847
1 0.819059 0.85948
0 0.383444 0.111498
0 0.384695 0.112535
0 0.382849 0.111116
0.357763 0.375494 0.106767
0.666743 0.359991 0.117311
0.947524 0.360678 0.213245
1 0.449897 0.421317
1 0.638346 0.669108
1 0.826947 0.858595
0 0.647456 0
0 0.647272 0
0 0.646067 0
0.192966 0.641077 0
0.593896 0.628733 0
0.895659 0.615808 0.134386
1 0.634897 0.395453
1 0.72105 0.660517
1 0.848005 0.856336
0 0.898634 0
0 0.897566 0
0 0.895842 0
0 0.890883 0
0.484062 0.878996 0
0.812161 0.859785 0.0397803
1 0.843305 0.371008
1 0.848417 0.650034
1 0.892683 0.85214
0 1 0.0965744
0 1 0.0976272
0 1 0.0996872
0.180621 1 0.10753
0.490379 1 0.139284
0.758938 1 0.238773
0.943358 0.989059 0.429419
1 0.964294 0.662058
1 0.954162 0.850538
0.556374 1 0.505837
0.563409 1 0.506188
0.574502 1 0.506813
0.605112 1 0.508827
0.676738 1 0.515633
0.796445 1 0.538979
0.918975 1 0.605432
0.993454 1 0.729229
1 1 0.86424
0.841856 1 0.781857
0.842771 1 0.781949
0.844266 1 0.782101
0.848676 1 0.782589
0.860945 1 0.784161
0.889677 1 0.78912
0.936675 1 0.804334
0.981704 1 0.842039
1 1 0.903243
0 0 0.349126
0.00476081 0 0.35169
0.192813 0 0.354437
0.413062 0 0.355886
0.692576 0 0.367361
0.973312 0 0.403372
1 0.226612 0.516747
1 0.574075 0.700893
1 0.813794 0.865339
0 0 0.356405
0 0 0.359365
0.184421 0 0.361883
0.414923 0 0.364019
0.693324 0 0.368688
0.970031 0 0.401175
1 0.266545 0.514763
1 0.582956 0.700099
1 0.815503 0.865171
0 0.112184 0.359991
0 0.112154 0.362432
0.14168 0.103899 0.363149
0.401297 0.0788281 0.363134
0.687572 0.0383917 0.36556
0.963775 0.0868849 0.396658
1 0.320058 0.511467
1 0.596658 0.698772
1 0.818189 0.864851
0 0.357733 0.346685
0 0.358557 0.349111
0 0.356161 0.349279
0.347997 0.347997 0.347997
0.660731 0.332113 0.348791
0.943526 0.335714 0.381369
1 0.43566 0.502144
1 0.633768 0.695079
1 0.826078 0.863951
0 0.631022 0.30016
0 0.630533 0.300206
0 0.629038 0.299855
0.178363 0.623484 0.29865
0.588083 0.611414 0.300984
0.891371 0.60032 0.342473
1 0.624216 0.480568
1 0.716777 0.686534
1 0.847105 0.861631
0 0.885939 0.236072
0 0.88481 0.235584
0 0.883024 0.234989
0 0.877989 0.23444
0.478523 0.866255 0.242542
0.808316 0.84828 0.300481
1 0.834989 0.457755
1 0.844602 0.675441
1 0.891768 0.857313
0 1 0.315404
0 1 0.315541
0 1 0.315862
0.170291 1 0.317601
0.486015 1 0.327337
0.755917 1 0.37203
0.941192 0.982727 0.495277
1 0.961135 0.684031
1 0.953292 0.855314
0.554208 1 0.556008
0.561273 1 0.556237
0.572366 1 0.556649
0.603052 1 0.558053
0.67483 1 0.563012
0.794781 1 0.580957
0.917678 1 0.635248
0.992721 1 0.743099
1 1 0.867979
0.841367 1 0.791806
0.842283 1 0.791867
0.843778 1 0.79202
0.848188 1 0.792447
0.860441 1 0.79382
0.889204 1 0.798276
0.936248 1 0.812146
0.981399 1 0.847166
1 1 0.905287
0 0 0.583291
0 0 0.587961
0.169848 0 0.592523
0.405707 0 0.597681
0.687312 0 0.602853
0.965728 0 0.614969
1 0.169345 0.661234
1 0.562737 0.761883
1 0.81149 0.879988
0 0 0.596201
0 0 0.599786
0.144167 0 0.60235
0.399924 0 0.604105
0.685023 0 0.605097
0.961959 0 0.614221
1 0.217395 0.659739
1 0.571664 0.761105
1 0.813184 0.879789
0 0 0.601526
0 0 0.604837
0.0859083 0 0.606317
0.38352 0 0.606332
0.677577 0 0.605142
0.955245 0 0.612207
1 0.278431 0.657252
1 0.585458 0.759808
1 0.815869 0.879469
0 0.300816 0.600641
0 0.300298 0.602747
0 0.297246 0.603113
0.325383 0.287556 0.60119
0.648981 0.269886 0.598093
0.934295 0.279652 0.604196
1 0.403723 0.650126
1 0.622827 0.756207
1 0.823728 0.878538
0 0.595666 0.58117
0 0.594949 0.581338
0 0.593225 0.580987
0.139406 0.587381 0.578866
0.575372 0.575372 0.575372
0.881437 0.567102 0.582208
1 0.600183 0.633143
1 0.706371 0.747692
1 0.844709 0.876127
0 0.858732 0.547097
0 0.857572 0.546685
0 0.855711 0.546044
0 0.850538 0.544381
0.467063 0.838865 0.542931
0.79971 0.823056 0.553765
0.999176 0.815885 0.611414
1 0.835096 0.735286
1 0.889296 0.871489
0 1 0.555215
0 1 0.554955
0 1 0.554635
0.148104 1 0.554009
0.476829 1 0.554696
0.749249 0.98558 0.567666
0.93611 0.967819 0.62211
1 0.953124 0.736706
1 0.950912 0.868406
0.549447 1 0.65919
0.556542 1 0.659236
0.567697 1 0.659342
0.598489 1 0.659785
0.670527 1 0.661738
0.790906 1 0.670726
0.914519 1 0.703182
0.990829 1 0.778073
1 0.998596 0.878401
0.840101 1 0.817472
0.841016 1 0.817517
0.842512 1 0.817624
0.846922 1 0.817914
0.85919 1 0.818875
0.887953 1 0.82211
0.935119 1 0.832715
0.980575 1 0.861051
1 1 0.911131
0 0 0.848753
0 0 0.850645
0.0993973 0 0.851514
0.382513 0 0.851179
0.673548 0 0.847547
0.95021 0 0.84184
1 0.0952621 0.843107
1 0.547112 0.864378
1 0.806943 0.91284
0 0 0.850889
0 0 0.852369
0.0567941 0 0.852918
0.371496 0 0.851972
0.668452 0 0.84741
0.945953 0 0.840757
1 0.15758 0.841779
1 0.555932 0.863615
1 0.808621 0.912642
0 0 0.852033
0 0 0.853056
0 0 0.853269
0.352056 0 0.851713
0.659205 0 0.846265
0.938888 0 0.838758
1 0.228733 0.839597
1 0.569574 0.862348
1 0.811246 0.912291
0 0.227253 0.849454
0 0.225345 0.849775
0 0.221286 0.849424
0.289906 0.20911 0.846983
0.630091 0.188006 0.840314
0.917983 0.208545 0.831998
1 0.364172 0.833417
1 0.606561 0.858839
1 0.818982 0.911315
0 0.549371 0.833936
0 0.548379 0.833524
0 0.546517 0.832639
0.0764172 0.540764 0.829511
0.55668 0.529015 0.82182
0.8663 0.523735 0.813809
1 0.566918 0.818463
1 0.689464 0.850233
1 0.839689 0.908721
0 0.819898 0.804044
0 0.818738 0.803372
0 0.816922 0.802335
0 0.811933 0.799405
0.451728 0.800855 0.793042
0.787213 0.787213 0.787213
0.988144 0.786603 0.795972
1 0.818128 0.835981
1 0.883879 0.903426
0 0.983886 0.783856
0 0.983047 0.783398
0 0.981735 0.782712
0.129763 0.978119 0.780896
0.466911 0.96968 0.777279
0.740322 0.955856 0.775067
0.927687 0.943008 0.78645
1 0.93785 0.827878
1 0.945449 0.898192
0.544213 1 0.80238
0.551247 1 0.802258
0.562356 1 0.80209
0.592996 1 0.801663
0.664744 1 0.800885
0.784909 1 0.801465
0.908995 1 0.811383
0.986999 1 0.844266
1 0.993988 0.902678
0.837781 1 0.86865
0.838682 1 0.86865
0.840177 1 0.868681
0.844572 1 0.868757
0.856794 1 0.869047
0.885496 1 0.870268
0.932738 1 0.87541
0.978714 1 0.891798
1 1 0.925536
0 0 1
0 0 1
0.0442206 0 1
0.356588 0 1
0.649683 0 1
0.922103 0 1
1 0.216526 0.985672
1 0.557519 0.968475
1 0.804059 0.962676
0 0 1
0 0 1
0.00979629 0 1
0.345678 0 1
0.643977 0 1
0.917998 0 1
1 0.249088 0.984375
1 0.565148 0.967758
1 0.805631 0.962463
0 0.0402686 1
0 0.0356603 1
0 0.0281834 1
0.32784 0.00833143 1
0.634775 0 1
0.911467 0.0350195 0.999084
1 0.293873 0.98233
1 0.576959 0.966598
1 0.808103 0.962112
0 0.290318 1
0 0.288457 1
0 0.285451 1
0.274083 0.276951 1
0.608423 0.262028 1
0.892882 0.274525 0.992172
1 0.393927 0.976577
1 0.609384 0.963272
1 0.815366 0.961089
0 0.547021 1
0 0.545785 1
0 0.543908 1
0.106966 0.538552 0.997116
0.544671 0.527642 0.988678
0.848035 0.52282 0.975433
1 0.564675 0.962646
1 0.683848 0.954955
1 0.834897 0.958358
0 0.793545 0.972488
0 0.792447 0.971695
0 0.790784 0.970474
0 0.786252 0.967132
0.454139 0.776287 0.959548
0.777066 0.764141 0.947967
0.975357 0.766644 0.939284
1 0.803876 0.939727
1 0.877089 0.952392
0 0.954559 0.941405
0 0.953811 0.940871
0 0.952605 0.940047
0.187304 0.949325 0.937804
0.47512 0.941665 0.932601
0.735851 0.929366 0.924575
0.9196 0.9196 0.9196
1 0.920729 0.92491
1 0.937224 0.944625
0.551095 1 0.925231
0.557702 1 0.925032
0.568139 1 0.924743
0.597116 1 0.923903
0.665522 1 0.921859
0.781796 1 0.918379
0.903838 0.995514 0.916625
0.982025 0.988952 0.92282
1 0.986313 0.942214
0.836194 1 0.933639
0.837079 1 0.933623
0.838544 1 0.933577
0.842847 1 0.933471
0.854826 1 0.933196
0.883024 1 0.932692
0.929778 1 0.932967
0.975906 1 0.937621
1 1 0.951629
0 0.43505 1
0.106477 0.433921 1
0.215625 0.43212 1
0.390036 0.427451 1
0.628046 0.419135 1
0.875059 0.422644 1
1 0.488243 1
1 0.641855 1
1 0.818067 1
0 0.449561 1
0.09131 0.448417 1
0.206775 0.446693 1
0.384741 0.4421 1
0.624537 0.433783 1
0.872404 0.436377 1
1 0.498192 1
1 0.646448 1
1 0.819348 1
0 0.471626 1
0.0649729 0.470451 1
0.192264 0.468772 1
0.376257 0.464286 1
0.618952 0.456001 1
0.868162 0.457267 1
1 0.513512 1
1 0.653651 1
1 0.821302 1
0 0.528511 1
0 0.527413 1
0.147906 0.525826 1
0.352255 0.521584 1
0.603311 0.513344 1
0.856184 0.511543 1
1 0.554665 1
1 0.674006 1
1 0.827146 1
0 0.645411 1
0 0.644404 1
0.0124666 0.642954 1
0.294316 0.639017 1
0.565972 0.630793 1
0.826749 0.62414 1
1 0.645426 1
1 0.723949 1
1 0.843061 1
0 0.807172 1
0 0.806317 1
0 0.805005 1
0.226856 0.80148 1
0.513405 0.793545 1
0.777203 0.782986 1
0.96112 0.783505 1
1 0.813962 1
1 0.878614 0.996078
0.156832 0.940063 1
0.195422 0.939452 1
0.246189 0.938506 1
0.354513 0.935897 1
0.533608 0.929671 1
0.746578 0.919341 1
0.915557 0.910994 0.993042
1 0.913588 0.987991
1 0.932235 0.987366
0.592828 1 0.993942
0.598077 1 0.993759
0.606439 1 0.993469
0.629969 0.999954 0.99263
0.687251 0.996872 0.990448
0.789456 0.990692 0.986114
0.902815 0.983017 0.980926
0.978393 0.978393 0.978393
1 0.97911 0.980652
0.840635 1 0.982635
0.841459 1 0.982605
0.842786 1 0.982544
0.846769 1 0.982361
0.857877 1 0.981857
0.884291 1 0.980682
0.928817 1 0.978882
0.973754 1 0.978058
1 1 0.980591
0.481544 0.749905 1
0.494331 0.749447 1
0.513954 0.74873 1
0.565682 0.746792 1
0.675853 0.742412 1
0.836988 0.737331 1
0.980392 0.744656 1
1 0.78584 1
1 0.864164 1
0.480751 0.752651 1
0.493538 0.752194 1
0.513176 0.751476 1
0.564889 0.749538 1
0.675029 0.745159 1
0.836149 0.740017 1
0.979599 0.747005 1
1 0.787472 1
1 0.864866 1
0.47953 0.757031 1
0.492271 0.756542 1
0.511894 0.75584 1
0.563577 0.753887 1
0.673671 0.749493 1
0.834775 0.744228 1
0.978332 0.750744 1
1 0.790036 1
1 0.865965 1
0.476143 0.769574 1
0.488823 0.769085 1
0.5084 0.768383 1
0.55996 0.76643 1
0.669856 0.762005 1
0.830808 0.756405 1
0.97464 0.761563 1
1 0.797574 1
1 0.869215 1
0.469062 0.801831 1
0.481575 0.801358 1
0.500893 0.800656 1
0.551781 0.798718 1
0.660517 0.794202 1
0.820523 0.787915 1
0.964767 0.789914 1
1 0.817823 1
1 0.878401 1
0.469047 0.865446 1
0.48043 0.864988 1
0.498116 0.864332 1
0.545174 0.862486 1
0.647349 0.858015 1
0.80119 0.850813 1
0.943816 0.847684 1
1 0.861509 1
1 0.900435 1
0.530388 0.942779 1
0.538109 0.942443 1
0.55021 0.941909 1
0.583566 0.940414 1
0.660838 0.936675 1
0.788098 0.929732 1
0.917449 0.923003 1
0.997467 0.923934 1
1 0.938231 1
0.690166 0.993317 1
0.693172 0.993149 1
0.697993 0.992874 1
0.711864 0.992081 1
0.747616 0.989944 1
0.818753 0.985428 1
0.909117 0.979339 1
0.97702 0.975494 1
1 0.976776 1
0.858656 1 1
0.859297 1 1
0.860365 1 1
0.863523 1 1
0.872435 1 1
0.894179 1 1
0.932555 1 1
0.973617 1 1
1 1 1
