public/luts/gopro-rec709.cube
TITLE "Generated by Resolve"
LUT_3D_SIZE 9
0.000671397 0.000671397 0.000671397
0.0919661 0 0.00274662
0.214771 0 0.00743114
0.358633 0 0.0185397
0.532982 0 0.0465858
0.734005 0 0.116274
0.941634 0 0.229618
1 0 0.386755
1 0 0.579248
0 0.0864576 0
0.0603647 0.0716564 0
0.197803 0.0415045 0
0.347829 0 0
0.525505 0 0.00918593
0.728557 0 0.0843824
0.937499 0 0.213016
1 0 0.378012
1 0 0.574807
0 0.205219 0
0 0.197528 0
0.159823 0.180896 0
0.325109 0.142763 0
0.509682 0.037705 0
0.716548 0 0.00729381
0.928389 0 0.173281
1 0 0.358618
1 0 0.565225
0 0.343328 0
0 0.338704 0
0.0593423 0.329015 0
0.277394 0.308522 0
0.478141 0.263981 0
0.692454 0.153674 0
0.908064 0 0.0481575
1 0 0.312154
1 0 0.543709
0 0.5084 0
0 0.505531 0
0 0.49955 0
0.171725 0.487236 0
0.418219 0.46215 0
0.648341 0.411063 0
0.870405 0.299046 0
1 0 0.176349
1 0 0.490639
0 0.694316 0
0 0.6925 0
0 0.688762 0
0 0.681163 0
0.31397 0.666102 0
0.577249 0.637324 0
0.810788 0.583261 0
1 0.473365 0
1 0.12018 0.340795
0 0.879606 0
0 0.878462 0
0 0.876112 0
0 0.871366 0
0.164599 0.862135 0
0.489647 0.84509 0
0.736156 0.815488 0
0.935164 0.763729 0
1 0.657755 0
0 1 0
0 1 0
0 1 0
0 1 0
0.118959 1 0
0.440024 1 0
0.677546 0.998077 0
0.870909 0.97142 0
1 0.925017 0
0 1 0
0 1 0
0.0374609 1 0
0.182712 1 0
0.332601 1 0
0.499825 1 0
0.677043 1 0
0.841123 1 0
0.967926 1 0
0 0 0.0914778
0.0876326 0 0.0932479
0.212345 0 0.0971847
0.357015 0 0.106264
0.531777 0 0.127504
0.733028 0 0.174716
0.940841 0 0.265003
1 0 0.406378
1 0 0.589212
0 0.0703899 0.0538796
0.0558022 0.0558022 0.0558022
0.195193 0.0257572 0.0601816
0.346136 0 0.0706798
0.524239 0 0.0970932
0.72755 0 0.152239
0.936675 0 0.25066
1 0 0.398154
1 0 0.584894
0 0.196506 0
0 0.18854 0
0.156771 0.171237 0
0.323308 0.131243 0
0.508385 0.0222019 0.0205539
0.715511 0 0.0933852
0.927535 0 0.217212
1 0 0.37998
1 0 0.57557
0 0.337865 0
0 0.333181 0
0.054963 0.323308 0
0.27541 0.302403 0
0.476783 0.256901 0
0.691402 0.143099 0
0.907179 0 0.124102
1 0 0.336858
1 0 0.554681
0 0.504784 0
0 0.501869 0
0 0.495842 0
0.169192 0.483406 0
0.416846 0.458045 0
0.647242 0.406271 0
0.86949 0.293065 0
1 0 0.216724
1 0 0.503304
0 0.691859 0
0 0.690028 0
0 0.686275 0
0 0.67863 0
0.312596 0.663478 0
0.576272 0.63447 0
0.809873 0.579873 0
1 0.469551 0
1 0.112352 0.360494
0 0.877974 0
0 0.876829 0
0 0.874479 0
0 0.869718 0
0.163165 0.860441 0
0.488869 0.843305 0
0.735454 0.813504 0
0.934417 0.761242 0
1 0.655177 0
0 1 0
0 1 0
0 1 0
0 1 0
0.118334 1 0
0.439628 1 0
0.677119 0.996979 0
0.870436 0.970123 0
1 0.923186 0
0 1 0
0 1 0
0.0381323 1 0
0.183017 1 0
0.332677 1 0
0.499779 1 0
0.67689 1 0
0.840909 1 0
0.967666 1 0
0 0 0.212741
0.0785229 0 0.213519
0.207477 0 0.215351
0.35375 0 0.219791
0.529335 0 0.231189
0.731075 0 0.260227
0.939208 0 0.325689
1 0 0.443336
1 0 0.608865
0 0.0388647 0.193271
0.0468452 0.0243839 0.194141
0.18999 0 0.196139
0.342763 0 0.200992
0.521721 0 0.213458
0.725536 0 0.244923
0.935027 0 0.314183
1 0 0.435981
1 0 0.604776
0 0.177966 0.14699
0 0.169406 0.148089
0.150622 0.150622 0.150622
0.319738 0.10602 0.15668
0.505806 0 0.171893
0.713436 0 0.209171
0.925811 0 0.288151
1 0 0.419806
1 0 0.595956
0 0.325963 0.00740063
0 0.321141 0.00915541
0.0457618 0.310979 0.0131228
0.27129 0.289418 0.0227665
0.474067 0.242222 0.0478218
0.689265 0.120302 0.112642
0.905394 0 0.223301
1 0 0.381994
1 0 0.576242
0 0.496696 0
0 0.493736 0
0 0.487572 0
0.163409 0.474861 0
0.41384 0.448936 0
0.644984 0.396262 0
0.867658 0.280842 0
1 0 0.283024
1 0 0.527977
0 0.686427 0
0 0.684581 0
0 0.680781 0
0 0.67303 0
0.309514 0.657649 0
0.57409 0.628138 0
0.807904 0.572412 0
1 0.461875 0
1 0.0955673 0.397452
0 0.874434 0
0 0.873274 0
0 0.870893 0
0 0.866087 0
0.159869 0.856733 0
0.48716 0.839399 0
0.733898 0.809155 0
0.932769 0.755734 0
1 0.649973 0
0 1 0
0 1 0
0 1 0
0 1 0
0.116854 1 0
0.438727 1 0
0.676188 0.994598 0
0.869398 0.96733 0
1 0.919188 0
0 1 0
0 1 0
0.0394446 1 0
0.183581 1 0
0.332815 1 0
0.499641 1 0
0.67657 1 0
0.840467 1 0
0.967086 1 0
0 0 0.352178
0.062089 0 0.352468
0.19826 0 0.353185
0.34757 0 0.355138
0.524681 0 0.360815
0.727275 0 0.377188
0.936019 0 0.419577
1 0 0.507332
1 0 0.645502
0 0 0.340795
0.030518 0 0.3411
0.180117 0 0.341848
0.3364 0 0.343893
0.51693 0 0.349813
0.721645 0 0.367025
0.931777 0 0.411063
1 0 0.501198
1 0 0.64181
0 0.138521 0.316075
0 0.128267 0.316426
0.138827 0.105165 0.317266
0.313008 0.0486458 0.319509
0.500908 0 0.325933
0.709407 0 0.344488
0.922423 0 0.392218
1 0 0.487831
1 0 0.63386
0 0.302358 0.259174
0 0.297261 0.259632
0.0289311 0.286503 0.260731
0.263569 0.263569 0.263569
0.468925 0.212482 0.271489
0.685176 0.067689 0.293614
0.901884 0 0.348547
1 0 0.457099
1 0 0.616098
0 0.479454 0.0838331
0 0.476432 0.0851148
0 0.47013 0.0880751
0.151431 0.457176 0.0952621
0.407965 0.430732 0.113222
0.64065 0.37673 0.155886
0.864103 0.256474 0.241794
1 0 0.381811
1 0 0.572976
0 0.673686 0
0 0.671794 0
0 0.667857 0
0 0.659861 0
0.302052 0.644007 0
0.569177 0.613779 0
0.804044 0.557656 0
1 0.446983 0.174624
1 0.0593729 0.461067
0 0.866285 0
0 0.865095 0
0 0.862669 0
0 0.857771 0
0.151598 0.848188 0
0.483101 0.830396 0
0.730312 0.799054 0
0.929168 0.74342 0
1 0.639887 0.137911
0 1 0
0 1 0
0 1 0
0 1 0
0.112886 1 0
0.436561 1 0
0.674052 0.989197 0
0.867079 0.960983 0
1 0.909957 0
0 1 0
0 1 0
0.0418097 1 0
0.184558 1 0
0.332952 1 0
0.49926 1 0
0.675822 1 0
0.83946 1 0
0.965805 1 0
0 0 0.515282
0.0362249 0 0.515251
0.182712 0 0.515267
0.337133 0 0.515602
0.516548 0 0.517449
0.720424 0 0.524926
0.930114 0 0.548455
1 0 0.605234
1 0 0.707439
0 0 0.508354
0.00491341 0 0.508324
0.163409 0 0.508339
0.325719 0 0.508675
0.508659 0 0.510567
0.71458 0 0.518288
0.92575 0 0.542519
1 0 0.600534
1 0 0.704326
0 0.0483864 0.493767
0 0.0348211 0.493736
0.118547 0.00689708 0.493767
0.301747 0 0.494133
0.4925 0 0.496101
0.702235 0 0.504051
0.916121 0 0.529549
1 0 0.590341
1 0 0.697597
0 0.258503 0.46276
0 0.252796 0.46276
0.00271611 0.240681 0.462806
0.25069 0.21442 0.463249
0.460151 0.153094 0.465446
0.677943 0 0.474006
0.89546 0 0.50103
1 0 0.567208
1 0 0.682643
0 0.448783 0.394339
0 0.44564 0.394369
0 0.439124 0.394522
0.13106 0.425681 0.395254
0.398154 0.398154 0.398154
0.633143 0.341405 0.408606
0.857664 0.210101 0.440055
1 0 0.513924
1 0 0.646601
0 0.6477 0.209445
0 0.645792 0.209781
0 0.64184 0.210605
0 0.633829 0.212955
0.288319 0.617945 0.219989
0.560571 0.587671 0.240772
0.797208 0.531548 0.29369
0.996216 0.420294 0.398154
1 0 0.558038
0 0.845258 0
0 0.844007 0
0 0.841459 0
0 0.836301 0
0.126024 0.826215 0
0.472358 0.807568 0
0.72195 0.77528 0
0.922667 0.721187 0
1 0.621836 0.367346
0 1 0
0 1 0
0 1 0
0 1 0
0.0996567 1 0
0.430533 0.994568 0
0.668544 0.975799 0
0.86125 0.945006 0
0.998276 0.888716 0
0 1 0
0 1 0
0.0448157 1 0
0.185473 1 0
0.332586 1 0
0.498024 1 0
0.673915 1 0
0.837049 1 0
0.962753 1 0
0 0 0.692012
0.00772107 0 0.691768
0.163088 0 0.69131
0.323339 0 0.690578
0.504692 0 0.689937
0.709392 0 0.691432
0.920089 0 0.701427
1 0 0.73228
1 0 0.797223
0 0 0.687739
0 0 0.687495
0.142336 0 0.687037
0.311742 0 0.686305
0.496803 0 0.685634
0.703365 0 0.687114
0.91548 0 0.697383
1 0 0.728862
1 0 0.794766
0 0 0.678889
0 0 0.678645
0.0925307 0 0.678172
0.287266 0 0.677424
0.480629 0 0.676753
0.691096 0 0.678187
0.905348 0 0.688609
1 0 0.721477
1 0 0.789441
0 0.186343 0.660731
0 0.179141 0.660471
0 0.163561 0.659998
0.234592 0.128023 0.659236
0.448127 0.0342412 0.658534
0.666911 0 0.659953
0.884855 0 0.670375
1 0 0.704829
1 0 0.77763
0 0.402594 0.623819
0 0.399268 0.623575
0 0.39237 0.623087
0.105501 0.378073 0.622339
0.38529 0.348577 0.621637
0.62211 0.28658 0.623148
0.847333 0.128725 0.633906
1 0 0.668971
1 0 0.749218
0 0.609018 0.548074
0 0.607095 0.547845
0 0.603113 0.547417
0 0.595056 0.546761
0.271229 0.57908 0.546365
0.548653 0.548653 0.548653
0.786786 0.492271 0.561395
0.986984 0.379538 0.600259
1 0 0.684108
0 0.805631 0.366766
0 0.804425 0.36669
0 0.801938 0.366613
0 0.796933 0.366796
0.078172 0.787167 0.368353
0.455787 0.769223 0.375509
0.709529 0.738506 0.399512
0.912688 0.687648 0.45922
1 0.594034 0.568246
0 0.981979 0
0 0.981155 0
0 0.979461 0
0 0.976043 0
0.0356451 0.96939 0
0.408652 0.957183 0
0.651667 0.936614 0
0.846815 0.904692 0
0.987991 0.855909 0.269276
0 1 0
0 1 0
0.0402686 1 0
0.181079 1 0
0.328023 1 0
0.492775 1 0
0.667872 1 0
0.830091 1 0
0.954009 1 0
0 0 0.856977
0.00662242 0 0.856626
0.157305 0 0.85594
0.314702 0 0.854673
0.493004 0 0.852674
0.69485 0 0.85069
0.904387 0 0.852491
1 0 0.866453
1 0 0.902632
0 0 0.854261
0 0 0.85391
0.137148 0 0.853223
0.303471 0 0.851942
0.485374 0 0.849928
0.689036 0 0.847898
0.899443 0 0.849622
1 0 0.863905
1 0 0.90071
0 0 0.848707
0 0 0.848356
0.088777 0 0.847654
0.279744 0 0.846357
0.469734 0 0.844312
0.677211 0 0.842191
0.889387 0 0.843732
1 0 0.858396
1 0 0.896544
0 0.10161 0.837537
0 0.0911574 0.837171
0 0.0675212 0.836454
0.22855 0.0196384 0.835126
0.438193 0 0.833005
0.653819 0 0.830762
0.869642 0 0.831968
1 0 0.846174
1 0 0.887266
0 0.353994 0.815808
0 0.350515 0.815442
0 0.343236 0.81471
0.102495 0.328115 0.813336
0.376883 0.296605 0.811109
0.610254 0.228428 0.808637
0.83331 0.0262608 0.809354
1 0 0.8224
1 0 0.864744
0 0.566079 0.775509
0 0.564172 0.775128
0 0.560204 0.77438
0 0.552163 0.772976
0.263844 0.536233 0.770687
0.537911 0.505867 0.768048
0.774075 0.449577 0.768353
0.973785 0.336141 0.780316
1 0 0.818814
0 0.760723 0.70222
0 0.759564 0.701869
0 0.757153 0.701183
0 0.752316 0.699886
0.0572213 0.742901 0.697795
0.443122 0.725689 0.695521
0.696513 0.696513 0.696513
0.90016 0.648936 0.709529
1 0.561791 0.748104
0 0.92369 0.545144
0 0.922927 0.54493
0 0.921386 0.544549
0 0.918273 0.543908
0 0.912245 0.543191
0.381399 0.90135 0.54377
0.631403 0.883467 0.550652
0.830427 0.856825 0.575036
0.975509 0.817212 0.631052
0 1 0
0 1 0
0 1 0
0.106111 1 0
0.28333 1 0
0.458762 1 0
0.638483 1 0
0.802976 1 0
0.929656 0.984863 0.212192
0.0195468 0 0.982101
0.0954299 0 0.981735
0.200931 0 0.981003
0.330632 0 0.979614
0.491524 0 0.977203
0.680964 0 0.973846
0.882155 0 0.971542
1 0 0.976669
1 0 0.997803
0 0 0.980285
0.0702678 0 0.979919
0.186542 0 0.979187
0.321202 0 0.977783
0.484794 0 0.975357
0.675746 0 0.971969
0.877684 0 0.969573
1 0 0.974502
1 0 0.996124
0 0 0.976577
0.019028 0 0.976211
0.154604 0 0.975479
0.301442 0 0.97406
0.470985 0 0.971603
0.665095 0 0.968139
0.868589 0 0.965576
1 0 0.970092
1 0 0.992477
0 0.125063 0.969207
0 0.117021 0.968841
0.073167 0.0991989 0.968093
0.25977 0.0574044 0.966644
0.443183 0 0.964126
0.643992 0 0.960525
0.850706 0 0.957656
1 0 0.96141
1 0 0.984283
0 0.344152 0.955215
0 0.340948 0.954833
0 0.334295 0.954055
0.167269 0.320485 0.952575
0.389334 0.291798 0.949966
0.604486 0.230518 0.946151
0.817533 0.0605478 0.942748
1 0 0.945235
1 0 0.965347
0 0.541665 0.930602
0 0.539864 0.930205
0 0.536171 0.929427
0 0.528634 0.927901
0.291768 0.513726 0.9252
0.538308 0.485298 0.921126
0.762753 0.432807 0.917037
0.957107 0.328801 0.917815
1 0 0.933227
0 0.726131 0.891325
0 0.725032 0.890944
0 0.722789 0.890181
0 0.718257 0.888685
0.132479 0.709438 0.885985
0.449699 0.693294 0.881804
0.689311 0.666041 0.877287
0.887526 0.622095 0.876616
1 0.542947 0.887846
0 0.87834 0.830823
0 0.877653 0.830503
0 0.876219 0.829831
0 0.873365 0.828534
0.0180972 0.867826 0.826185
0.384451 0.857862 0.822553
0.623255 0.841733 0.818631
0.818341 0.818341 0.818341
0.963333 0.784756 0.828977
0 0.989425 0.712413
0 0.988983 0.71223
0 0.988083 0.711864
0.0349279 0.986267 0.711177
0.245151 0.982727 0.709987
0.428641 0.976287 0.708476
0.611872 0.965774 0.708232
0.779812 0.950759 0.714031
0.911269 0.931212 0.734356
0.225681 0.0899062 1
0.254978 0.0812695 1
0.307012 0.0626993 1
0.39147 0.0255436 1
0.514855 0 1
0.674891 0 1
0.855375 0 1
1 0 1
1 0 1
0.215824 0.132097 1
0.246067 0.125475 1
0.299382 0.110994 1
0.385245 0.0769055 1
0.509865 0.00428779 1
0.670787 0 1
0.851789 0 1
1 0 1
1 0 1
0.194766 0.197024 1
0.227222 0.192248 1
0.283467 0.182086 1
0.372396 0.159991 1
0.499641 0.107866 1
0.662425 0 1
0.844495 0 1
1 0 1
1 0 1
0.14786 0.289845 1
0.186526 0.286564 1
0.250172 0.279683 1
0.346258 0.265232 1
0.479194 0.234592 1
0.645823 0.165286 1
0.830045 0 1
1 0 1
1 0 1
0.0269627 0.41297 1
0.0879225 0.410773 1
0.178912 0.40621 1
0.294362 0.396841 1
0.440146 0.377829 1
0.614603 0.339742 1
0.803006 0.261051 1
0.980316 0.0189822 1
1 0 1
0 0.561212 1
0 0.559777 1
0.00241093 0.556817 1
0.194263 0.550805 1
0.37229 0.538857 1
0.561959 0.516167 1
0.75761 0.474907 1
0.937148 0.39794 1
1 0.197833 1
0 0.716838 0.994583
0 0.715908 0.994263
0 0.714 0.993591
0.00230411 0.710124 0.992279
0.276982 0.702586 0.989853
0.490639 0.688685 0.985809
0.695094 0.66508 0.980438
0.877058 0.627207 0.976028
1 0.561028 0.977523
0 0.853056 0.961151
0 0.852461 0.960845
0 0.851209 0.96025
0 0.848722 0.95906
0.21706 0.843885 0.956817
0.434546 0.835111 0.953017
0.635843 0.820798 0.947707
0.814389 0.800061 0.942657
0.953033 0.770748 0.941741
0 0.950912 0.917617
0.0330053 0.95053 0.917388
0.101625 0.949737 0.91693
0.196506 0.948165 0.91603
0.314809 0.945098 0.91429
0.458549 0.939513 0.911315
0.619104 0.930419 0.907042
0.775036 0.917739 0.902846
0.902037 0.902037 0.902037
