public/luts/gopro-slog3.cube
TITLE "Generated by Resolve"
LUT_3D_SIZE 9
0.0937514 0.0937514 0.0937514
0.168566 0.0898604 0.0980392
0.251209 0.0816968 0.106981
0.333455 0.0645914 0.125734
0.415457 0.0287785 0.165042
0.497215 0 0.217411
0.578592 0 0.281804
0.659205 0 0.354879
0.738354 0 0.433555
0.0912947 0.169802 0.0641794
0.166415 0.166598 0.068452
0.250278 0.158434 0.077409
0.333013 0.141329 0.0961624
0.415244 0.105516 0.13547
0.497108 0.030457 0.20148
0.578531 0 0.273167
0.659175 0 0.3505
0.738338 0 0.431434
0.0861372 0.253025 0.00228885
0.161257 0.251591 0.00656138
0.248325 0.248539 0.0155032
0.332082 0.241856 0.0342565
0.414801 0.226398 0.073579
0.496895 0.184665 0.156115
0.578424 0.0335546 0.252583
0.659129 0 0.340749
0.738293 0 0.426871
0.0753948 0.335531 0
0.1505 0.334859 0
0.244144 0.333425 0
0.330129 0.330373 0
0.41387 0.32369 0
0.496437 0.308202 0.0266117
0.578195 0.2663 0.190814
0.659007 0.0381323 0.317037
0.738231 0 0.416632
0.0531624 0.417639 0
0.128252 0.417319 0
0.234958 0.416648 0
0.325963 0.415213 0
0.411902 0.412161 0
0.495491 0.405478 0
0.577722 0.389975 0
0.658763 0.347784 0.24033
0.738094 0.0399023 0.391531
0.00766003 0.499397 0
0.0826886 0.499245 0
0.213397 0.498924 0
0.31693 0.498253 0
0.407782 0.496834 0
0.493523 0.493797 0
0.576745 0.487114 0
0.658244 0.471565 0
0.737804 0.42884 0.307301
0 0.580682 0
0 0.580606 0
0.148592 0.580453 0
0.296345 0.580133 0
0.399054 0.579477 0
0.489479 0.578058 0
0.574762 0.575051 0
0.657206 0.568399 0
0.737209 0.552773 0
0 0.661067 0
0 0.661036 0
0 0.66096 0
0.242634 0.660822 0
0.380484 0.660502 0
0.481407 0.659861 0
0.570886 0.658473 0
0.655177 0.655497 0
0.736034 0.648905 0
0 0.739727 0
0 0.739712 0
0 0.739666 0
0.0225834 0.739605 0
0.341192 0.739467 0
0.466682 0.739162 0
0.564095 0.738552 0
0.651637 0.737224 0
0.733944 0.73434 0
0.096025 0.0958419 0.186587
0.170306 0.0919509 0.189395
0.252033 0.0837873 0.195026
0.333852 0.0666819 0.205997
0.415656 0.030869 0.225971
0.497307 0 0.258915
0.578622 0 0.306889
0.65922 0 0.368536
0.738354 0 0.440452
0.0935531 0.171405 0.164416
0.168399 0.168399 0.168399
0.251118 0.160525 0.175174
0.33341 0.14342 0.188174
0.415442 0.107607 0.211276
0.4972 0.0325475 0.248203
0.578576 0 0.300053
0.659205 0 0.364675
0.738338 0 0.438468
0.0883955 0.253773 0.10251
0.163516 0.252354 0.106783
0.24918 0.249317 0.11574
0.332494 0.242695 0.134478
0.415 0.227359 0.172305
0.496986 0.186069 0.221714
0.57847 0.0356451 0.28423
0.659144 0 0.356146
0.738308 0 0.43418
0.0776532 0.335897 0
0.152773 0.33521 0
0.245045 0.333791 0
0.330541 0.330739 0.00494392
0.414054 0.324086 0.0442664
0.496529 0.308659 0.126802
0.578241 0.266972 0.241291
0.659022 0.040238 0.335805
0.738247 0 0.424628
0.0554208 0.417807 0
0.13051 0.417487 0
0.235935 0.416815 0
0.32639 0.415396 0
0.4121 0.412345 0
0.495583 0.405676 0
0.577768 0.390188 0.0298009
0.658778 0.348104 0.275105
0.738109 0.0419928 0.40148
0.00993362 0.499474 0
0.0849622 0.499321 0
0.214572 0.499001 0
0.317388 0.498329 0
0.40798 0.49691 0
0.493614 0.493874 0
0.576791 0.487205 0
0.658259 0.471672 0
0.737804 0.428992 0.327596
0 0.580713 0
0 0.580636 0
0.150866 0.580484 0
0.29691 0.580179 0
0.399283 0.579507 0
0.48957 0.578103 0
0.574792 0.575082 0
0.657221 0.568429 0
0.737209 0.552819 0
0 0.661082 0
0 0.661051 0
0 0.660975 0
0.243549 0.660838 0
0.380743 0.660517 0
0.481514 0.659876 0
0.570932 0.658488 0
0.655192 0.655512 0
0.736049 0.64892 0
0 0.739727 0
0 0.739712 0
0 0.739681 0
0.0249027 0.73962 0
0.341573 0.739467 0
0.466804 0.739178 0
0.564141 0.738552 0
0.651652 0.737224 0
0.733959 0.73434 0
0.100755 0.100221 0.276768
0.173892 0.0963302 0.278019
0.253758 0.0881666 0.280583
0.334676 0.0710613 0.285786
0.416052 0.0352483 0.295949
0.49749 0 0.314672
0.578714 0 0.346044
0.659266 0 0.392615
0.738369 0 0.453635
0.0982986 0.174685 0.267704
0.172045 0.171771 0.269062
0.252857 0.164889 0.271839
0.334249 0.147799 0.277455
0.415839 0.111986 0.28838
0.497398 0.0369421 0.308309
0.578668 0 0.341299
0.659236 0 0.389517
0.738354 0 0.451865
0.0931411 0.255344 0.245945
0.168063 0.253941 0.247593
0.250965 0.250965 0.250965
0.333333 0.244419 0.25771
0.415396 0.229343 0.270634
0.497169 0.188952 0.29369
0.578561 0.0400244 0.330632
0.65919 0 0.382757
0.738323 0 0.448081
0.0823987 0.336645 0.178897
0.157504 0.335973 0.181888
0.246876 0.334554 0.187915
0.331395 0.331533 0.199557
0.414466 0.324926 0.220615
0.496727 0.309621 0.254948
0.578332 0.268376 0.304326
0.659068 0.0446174 0.367086
0.738262 0 0.439704
0.0601663 0.418158 0
0.135256 0.417838 0
0.237934 0.417166 0
0.327276 0.415747 0
0.412512 0.412711 0
0.495766 0.406073 0.0656138
0.577859 0.390646 0.213214
0.658824 0.348775 0.324666
0.738125 0.0464027 0.419791
0.0146944 0.499641 0
0.0897078 0.499489 0
0.216999 0.499184 0
0.318349 0.498512 0
0.408408 0.497093 0
0.493812 0.494057 0
0.576867 0.487404 0
0.658305 0.471901 0.041886
0.737819 0.429328 0.360861
0 0.580789 0
0 0.580713 0
0.155627 0.580575 0
0.29807 0.580255 0
0.399741 0.579583 0
0.489784 0.57818 0
0.574884 0.575174 0
0.657267 0.568521 0
0.737224 0.552926 0
0 0.661128 0
0 0.661082 0
0 0.661021 0
0.245441 0.660868 0
0.381292 0.660563 0
0.481727 0.659907 0
0.571023 0.658534 0
0.655238 0.655558 0
0.736065 0.648966 0
0 0.739742 0
0 0.739727 0
0 0.739696 0
0.0297551 0.739635 0
0.342367 0.739483 0
0.467063 0.739193 0
0.564248 0.738567 0
0.651698 0.73724 0
0.733974 0.734356 0
0.110689 0.109407 0.362387
0.181048 0.105516 0.362966
0.257298 0.0973526 0.364172
0.3364 0.0802472 0.366644
0.416861 0.0444495 0.371649
0.497887 0 0.381476
0.578897 0 0.39971
0.659358 0 0.430564
0.738415 0 0.476982
0.108217 0.181262 0.358297
0.179309 0.178515 0.358892
0.256428 0.172534 0.360143
0.335973 0.156985 0.362707
0.416663 0.121187 0.367895
0.49778 0.046128 0.378042
0.578851 0 0.396796
0.659327 0 0.428382
0.738399 0 0.475547
0.103059 0.258564 0.349203
0.175586 0.257206 0.349859
0.254582 0.254307 0.351202
0.335058 0.247974 0.353979
0.41622 0.233417 0.359579
0.497566 0.194766 0.370504
0.578744 0.0492256 0.390463
0.659266 0 0.423651
0.738369 0 0.472511
0.0923323 0.338201 0.327367
0.167422 0.33753 0.328161
0.250629 0.336141 0.329809
0.333165 0.333165 0.333165
0.41529 0.32665 0.339895
0.497108 0.311604 0.352804
0.578515 0.271244 0.375906
0.659144 0.0538186 0.413077
0.738293 0 0.465843
0.0700999 0.418906 0.259983
0.145174 0.418585 0.261433
0.241993 0.417929 0.264424
0.329107 0.41651 0.270405
0.413367 0.413504 0.282002
0.496178 0.406897 0.302998
0.578042 0.391608 0.337346
0.6589 0.350179 0.386969
0.738155 0.0556344 0.450431
0.0246281 0.499992 0
0.0996414 0.49984 0
0.221897 0.499535 0
0.320333 0.498863 0
0.409293 0.497444 0
0.494209 0.494423 0
0.577066 0.487785 0.11194
0.658381 0.472343 0.297124
0.737865 0.429999 0.408896
0 0.580957 0
0.00888075 0.58088 0
0.165591 0.580728 0
0.30045 0.580423 0
0.400702 0.579751 0
0.490196 0.578347 0
0.575082 0.575341 0
0.657343 0.568704 0
0.73727 0.55314 0.0897993
0 0.661189 0
0 0.661158 0
0 0.661097 0
0.249271 0.660945 0
0.382437 0.660639 0
0.482185 0.659983 0
0.571221 0.65861 0
0.655329 0.655634 0
0.736095 0.649042 0
0 0.739773 0
0 0.739757 0
0 0.739727 0
0.0399329 0.739666 0
0.343999 0.739513 0
0.467597 0.739223 0
0.564462 0.738598 0
0.651789 0.73727 0
0.73402 0.734386 0
0.131502 0.12871 0.445914
0.194675 0.124804 0.446189
0.264363 0.116655 0.446754
0.33991 0.0995651 0.447929
0.41857 0.0637522 0.45034
0.498695 0 0.455268
0.579278 0 0.464958
0.659525 0 0.48304
0.738491 0 0.513985
0.12903 0.193927 0.444007
0.193149 0.191485 0.444282
0.263539 0.186175 0.444862
0.339498 0.174182 0.446052
0.418372 0.14049 0.448524
0.498604 0.0654459 0.453513
0.579232 0 0.463355
0.65951 0 0.481682
0.738476 0 0.512978
0.123888 0.265049 0.439918
0.189868 0.263767 0.440208
0.261814 0.261036 0.440803
0.338613 0.255085 0.442039
0.417929 0.241489 0.444587
0.49839 0.206058 0.44976
0.579126 0.0685435 0.459937
0.659449 0 0.478798
0.738445 0 0.510811
0.113146 0.34139 0.430823
0.182712 0.340749 0.431128
0.258122 0.339391 0.431785
0.336767 0.336507 0.433127
0.417029 0.33019 0.435889
0.497932 0.315663 0.441474
0.578897 0.277058 0.452399
0.659327 0.073167 0.472496
0.738384 0 0.506157
0.0909133 0.420447 0.408972
0.165972 0.420142 0.409354
0.250065 0.419486 0.410132
0.33286 0.418082 0.411765
0.415122 0.415122 0.415122
0.497002 0.408621 0.421836
0.578424 0.393591 0.43476
0.659083 0.353063 0.458
0.738231 0.0750286 0.495689
0.0454414 0.500725 0.341558
0.120439 0.500587 0.342245
0.231495 0.500267 0.343694
0.324392 0.499596 0.346654
0.411109 0.498192 0.352621
0.495064 0.495201 0.364187
0.577447 0.488609 0.385183
0.658564 0.473304 0.419715
0.737942 0.431418 0.469947
0 0.581292 0
0.0297093 0.581231 0
0.181445 0.581079 0
0.305287 0.580758 0
0.40267 0.580102 0
0.491081 0.578698 0
0.575479 0.575708 0
0.657526 0.569085 0.200275
0.737346 0.553597 0.382284
0 0.661357 0
0 0.661311 0
0.0153048 0.66125 0
0.256901 0.661097 0
0.384771 0.660792 0
0.483146 0.660136 0
0.571633 0.658763 0
0.655512 0.655802 0
0.736187 0.64921 0
0 0.739849 0
0 0.739834 0
0 0.739788 0
0.0611734 0.739727 0
0.347341 0.73959 0
0.468681 0.7393 0
0.564904 0.738674 0
0.651987 0.737346 0
0.734096 0.734462 0
0.173388 0.168948 0.528283
0.218799 0.165499 0.52842
0.277867 0.157351 0.528679
0.346929 0.140276 0.529244
0.422065 0.104494 0.530388
0.500404 0.0294804 0.532784
0.580087 0 0.537636
0.659907 0 0.54728
0.738659 0 0.565469
0.171527 0.216678 0.527398
0.217563 0.214679 0.52752
0.27715 0.210407 0.527794
0.346548 0.20087 0.528344
0.421866 0.177768 0.529519
0.500298 0.106203 0.531914
0.580041 0 0.536828
0.659876 0 0.546532
0.738643 0 0.564843
0.167544 0.277592 0.52549
0.214939 0.276448 0.525628
0.275608 0.274022 0.525902
0.345724 0.268742 0.526467
0.421454 0.256825 0.527657
0.500084 0.226673 0.530098
0.579934 0.109361 0.535073
0.659815 0 0.544945
0.738613 0 0.5635
0.156847 0.347845 0.521401
0.209277 0.347234 0.521538
0.272358 0.345968 0.521828
0.343999 0.343252 0.522408
0.420569 0.337316 0.523644
0.499641 0.323766 0.526177
0.579705 0.288396 0.531334
0.659709 0.114031 0.541527
0.738537 0 0.560632
0.134615 0.423636 0.512322
0.196536 0.423331 0.512474
0.265309 0.42269 0.512779
0.340337 0.421347 0.51342
0.418723 0.418463 0.514748
0.498726 0.412177 0.51751
0.579232 0.39765 0.523079
0.659449 0.358923 0.534035
0.738399 0.115984 0.554391
0.0891432 0.502266 0.490517
0.164126 0.502113 0.4907
0.249302 0.501793 0.491066
0.332433 0.501152 0.491859
0.414847 0.499763 0.493477
0.496803 0.496803 0.496803
0.578271 0.490333 0.503502
0.658946 0.475288 0.516487
0.738109 0.434333 0.540032
0 0.58201 0.423346
0.0733806 0.581933 0.423667
0.208255 0.581796 0.424369
0.314778 0.581476 0.425788
0.406699 0.580819 0.428733
0.492882 0.579431 0.434669
0.576318 0.576455 0.446204
0.657908 0.569894 0.467277
0.737514 0.554528 0.50222
0 0.661677 0
0 0.661646 0
0.0590677 0.66157 0
0.27129 0.661418 0
0.389502 0.661112 0
0.485084 0.660471 0
0.572503 0.659098 0
0.655894 0.656138 0
0.736355 0.649577 0.292973
0 0.739986 0
0 0.739971 0
0 0.73994 0
0.105486 0.739864 0
0.354009 0.739727 0
0.470939 0.739437 0
0.565835 0.738811 0
0.652399 0.737484 0
0.734264 0.734615 0
0.226917 0.221515 0.609751
0.257053 0.219623 0.609812
0.301869 0.215534 0.609934
0.360433 0.206455 0.610193
0.429099 0.184649 0.610727
0.503883 0.116182 0.611872
0.581765 0 0.614206
0.660685 0 0.619028
0.73901 0 0.628672
0.225772 0.253513 0.609323
0.256184 0.252094 0.609384
0.301289 0.249073 0.609506
0.360082 0.242435 0.609766
0.428916 0.2271 0.610315
0.503792 0.185824 0.611444
0.58172 0.035584 0.613809
0.660655 0 0.618631
0.738994 0 0.628321
0.223346 0.300298 0.608423
0.254337 0.299367 0.608484
0.300053 0.297398 0.608621
0.35935 0.293156 0.608881
0.428519 0.283711 0.60943
0.503578 0.260807 0.610574
0.581613 0.187991 0.612955
0.660609 0 0.617823
0.738964 0 0.627573
0.218097 0.360433 0.606531
0.250385 0.359884 0.606592
0.297459 0.358755 0.606729
0.357824 0.356344 0.606989
0.427695 0.351095 0.607553
0.503151 0.339239 0.608713
0.581384 0.309224 0.611139
0.660487 0.191165 0.616083
0.738888 0 0.626001
0.206409 0.430121 0.602457
0.241749 0.429831 0.602518
0.291859 0.429236 0.602655
0.354604 0.427955 0.60293
0.425956 0.425254 0.603525
0.502266 0.419348 0.60473
0.580926 0.405829 0.607233
0.660243 0.370413 0.61236
0.73875 0.192584 0.622614
0.177768 0.50544 0.593423
0.221653 0.505302 0.5935
0.279454 0.504997 0.593637
0.347677 0.504356 0.593942
0.422339 0.503014 0.594568
0.500404 0.50016 0.59588
0.57998 0.493889 0.598611
0.659724 0.479377 0.60415
0.73846 0.440284 0.615183
0.0905623 0.58352 0.57174
0.165362 0.583444 0.571832
0.249622 0.583291 0.572
0.332448 0.582986 0.572381
0.414725 0.582345 0.573144
0.49662 0.580972 0.574746
0.578042 0.578042 0.578042
0.658701 0.571603 0.584726
0.737865 0.556512 0.597803
0 0.662348 0.505211
0 0.662318 0.505379
0.150881 0.662242 0.505699
0.296529 0.662104 0.506371
0.398825 0.661799 0.50779
0.489082 0.661158 0.510689
0.574289 0.659785 0.516564
0.656703 0.656855 0.528069
0.736706 0.650355 0.549294
0 0.740261 0
0 0.740246 0
0 0.740215 0
0.188922 0.740154 0
0.366705 0.740017 0
0.475486 0.739712 0
0.567758 0.739101 0
0.653223 0.737774 0
0.73463 0.734905 0
0.292836 0.287587 0.689998
0.310445 0.286534 0.690028
0.340169 0.284337 0.690074
0.384527 0.279561 0.690196
0.442664 0.268849 0.690455
0.510933 0.242329 0.690974
0.585245 0.146365 0.692058
0.662333 0 0.694347
0.739742 0 0.699077
0.29221 0.306325 0.689799
0.309911 0.30544 0.68983
0.339757 0.303578 0.689876
0.384253 0.29958 0.689998
0.442496 0.290715 0.690242
0.510842 0.269444 0.690776
0.585184 0.204303 0.691859
0.662303 0 0.694148
0.739727 0 0.698894
0.290867 0.33756 0.689372
0.308782 0.336889 0.689403
0.338888 0.3355 0.689464
0.383673 0.332509 0.689586
0.442145 0.325994 0.68983
0.510643 0.310948 0.690349
0.585092 0.270527 0.691447
0.662242 0.0529946 0.693751
0.739696 0 0.698512
0.28806 0.383505 0.688487
0.306386 0.383078 0.688518
0.337072 0.382162 0.688579
0.382452 0.380209 0.688701
0.441413 0.376028 0.688945
0.510246 0.36669 0.689479
0.584878 0.344076 0.690578
0.662135 0.272206 0.692897
0.73962 0 0.697704
0.281971 0.442924 0.68661
0.301244 0.442679 0.686641
0.333181 0.442145 0.686702
0.379873 0.441016 0.686824
0.439887 0.438621 0.687083
0.509407 0.433433 0.687617
0.584421 0.421653 0.688746
0.661891 0.391775 0.691096
0.739483 0.273213 0.695979
0.268406 0.512016 0.682567
0.289937 0.511879 0.682597
0.324788 0.511589 0.682658
0.374395 0.510994 0.682795
0.436698 0.509743 0.683055
0.507668 0.507057 0.683619
0.583505 0.501198 0.684794
0.661387 0.487724 0.687236
0.739193 0.45214 0.692302
0.23508 0.586694 0.673625
0.263218 0.586633 0.673655
0.305867 0.58648 0.673732
0.3626 0.586191 0.673869
0.430045 0.585565 0.674159
0.504128 0.584237 0.674769
0.581628 0.581399 0.676036
0.660365 0.575174 0.678691
0.738613 0.560662 0.684199
0.115312 0.663798 0.652216
0.183749 0.663767 0.652262
0.258183 0.663706 0.652338
0.336324 0.663554 0.652506
0.416312 0.663264 0.652873
0.497093 0.662623 0.65362
0.577996 0.661295 0.655177
0.658412 0.658412 0.658412
0.737453 0.652033 0.665049
0 0.740871 0.58706
0 0.740856 0.587137
0.0677653 0.740826 0.587289
0.273045 0.740749 0.587594
0.389456 0.740612 0.588266
0.484489 0.740322 0.589624
0.571679 0.739712 0.592462
0.654978 0.738399 0.59823
0.735393 0.735561 0.609659
0.367529 0.364096 0.768124
0.376837 0.363577 0.768139
0.39411 0.362493 0.76817
0.423346 0.360174 0.768215
0.46714 0.355154 0.768322
0.524697 0.343847 0.768551
0.59234 0.31548 0.769039
0.665766 0.209827 0.770047
0.741314 0 0.772213
0.367208 0.373861 0.768032
0.376547 0.373388 0.768048
0.393851 0.372381 0.768078
0.423148 0.370275 0.768124
0.467002 0.365698 0.768231
0.524605 0.355459 0.76846
0.592294 0.330282 0.768948
0.665751 0.244785 0.769955
0.741299 0 0.772122
0.366537 0.391852 0.767834
0.375921 0.391455 0.767849
0.393332 0.390616 0.76788
0.422736 0.388815 0.767926
0.466728 0.38497 0.768032
0.524437 0.37644 0.768261
0.592203 0.356039 0.76875
0.66569 0.294514 0.769772
0.741268 0 0.771923
0.365118 0.42208 0.767422
0.374624 0.421775 0.767437
0.392218 0.421134 0.767452
0.421881 0.419791 0.767514
0.466148 0.416892 0.76762
0.524086 0.410559 0.767849
0.592004 0.395972 0.768338
0.665583 0.356939 0.76936
0.741192 0.108125 0.771527
0.362127 0.466926 0.766552
0.371878 0.466728 0.766567
0.389868 0.4663 0.766583
0.420081 0.4654 0.766644
0.464927 0.463508 0.766751
0.523354 0.459403 0.766979
0.591577 0.450263 0.767468
0.665339 0.428107 0.768505
0.741054 0.357702 0.770687
0.355749 0.525322 0.764706
0.366033 0.525216 0.764721
0.384909 0.524956 0.764736
0.416297 0.524437 0.764797
0.462379 0.523339 0.764904
0.521828 0.520974 0.765148
0.590723 0.515862 0.765652
0.664851 0.50425 0.76669
0.740764 0.474571 0.768933
0.341802 0.593454 0.760739
0.353384 0.593393 0.760754
0.374304 0.593256 0.760784
0.408347 0.592981 0.76083
0.457145 0.592401 0.760952
0.5187 0.591165 0.761196
0.588968 0.588525 0.761715
0.663874 0.582742 0.762814
0.740185 0.569345 0.765133
0.309636 0.666987 0.75198
0.324804 0.666957 0.751995
0.351095 0.666896 0.752026
0.391653 0.666758 0.752087
0.446525 0.666468 0.752209
0.512566 0.665858 0.752483
0.585565 0.664561 0.753048
0.661982 0.661784 0.754253
0.739055 0.65565 0.756786
0.221912 0.742229 0.731121
0.252766 0.742214 0.731136
0.298344 0.742184 0.731167
0.357534 0.742107 0.731243
0.426627 0.74197 0.731411
0.501656 0.741695 0.731746
0.57966 0.741085 0.732448
0.658656 0.739803 0.733913
0.737026 0.737026 0.737026
