public/luts/gopro-slog3.cube
TITLE "Generated by Resolve"
LUT_3D_SIZE 5
0.0937514 0.0937514 0.0937514
0.251209 0.0816968 0.106981
0.415457 0.0287785 0.165042
0.578592 0 0.281804
0.738354 0 0.433555
0.0861372 0.253025 0.00228885
0.248325 0.248539 0.0155032
0.414801 0.226398 0.073579
0.578424 0.0335546 0.252583
0.738293 0 0.426871
0.0531624 0.417639 0
0.234958 0.416648 0
0.411902 0.412161 0
0.577722 0.389975 0
0.738094 0.0399023 0.391531
0 0.580682 0
0.148592 0.580453 0
0.399054 0.579477 0
0.574762 0.575051 0
0.737209 0.552773 0
0 0.739727 0
0 0.739666 0
0.341192 0.739467 0
0.564095 0.738552 0
0.733944 0.73434 0
0.100755 0.100221 0.276768
0.253758 0.0881666 0.280583
0.416052 0.0352483 0.295949
0.578714 0 0.346044
0.738369 0 0.453635
0.0931411 0.255344 0.245945
0.250965 0.250965 0.250965
0.415396 0.229343 0.270634
0.578561 0.0400244 0.330632
0.738323 0 0.448081
0.0601663 0.418158 0
0.237934 0.417166 0
0.412512 0.412711 0
0.577859 0.390646 0.213214
0.738125 0.0464027 0.419791
0 0.580789 0
0.155627 0.580575 0
0.399741 0.579583 0
0.574884 0.575174 0
0.737224 0.552926 0
0 0.739742 0
0 0.739696 0
0.342367 0.739483 0
0.564248 0.738567 0
0.733974 0.734356 0
0.131502 0.12871 0.445914
0.264363 0.116655 0.446754
0.41857 0.0637522 0.45034
0.579278 0 0.464958
0.738491 0 0.513985
0.123888 0.265049 0.439918
0.261814 0.261036 0.440803
0.417929 0.241489 0.444587
0.579126 0.0685435 0.459937
0.738445 0 0.510811
0.0909133 0.420447 0.408972
0.250065 0.419486 0.410132
0.415122 0.415122 0.415122
0.578424 0.393591 0.43476
0.738231 0.0750286 0.495689
0 0.581292 0
0.181445 0.581079 0
0.40267 0.580102 0
0.575479 0.575708 0
0.737346 0.553597 0.382284
0 0.739849 0
0 0.739788 0
0.347341 0.73959 0
0.564904 0.738674 0
0.734096 0.734462 0
0.226917 0.221515 0.609751
0.301869 0.215534 0.609934
0.429099 0.184649 0.610727
0.581765 0 0.614206
0.73901 0 0.628672
0.223346 0.300298 0.608423
0.300053 0.297398 0.608621
0.428519 0.283711 0.60943
0.581613 0.187991 0.612955
0.738964 0 0.627573
0.206409 0.430121 0.602457
0.291859 0.429236 0.602655
0.425956 0.425254 0.603525
0.580926 0.405829 0.607233
0.73875 0.192584 0.622614
0.0905623 0.58352 0.57174
0.249622 0.583291 0.572
0.414725 0.582345 0.573144
0.578042 0.578042 0.578042
0.737865 0.556512 0.597803
0 0.740261 0
0 0.740215 0
0.366705 0.740017 0
0.567758 0.739101 0
0.73463 0.734905 0
0.367529 0.364096 0.768124
0.39411 0.362493 0.76817
0.46714 0.355154 0.768322
0.59234 0.31548 0.769039
0.741314 0 0.772213
0.366537 0.391852 0.767834
0.393332 0.390616 0.76788
0.466728 0.38497 0.768032
0.592203 0.356039 0.76875
0.741268 0 0.771923
0.362127 0.466926 0.766552
0.389868 0.4663 0.766583
0.464927 0.463508 0.766751
0.591577 0.450263 0.767468
0.741054 0.357702 0.770687
0.341802 0.593454 0.760739
0.374304 0.593256 0.760784
0.457145 0.592401 0.760952
0.588968 0.588525 0.761715
0.740185 0.569345 0.765133
0.221912 0.742229 0.731121
0.298344 0.742184 0.731167
0.426627 0.74197 0.731411
0.57966 0.741085 0.732448
0.737026 0.737026 0.737026
