public/luts/gopro-slog3.cube
TITLE "Generated by Resolve"
LUT_3D_SIZE 33
0.0937514 0.0937514 0.0937514
0.107698 0.0930343 0.0945449
0.124468 0.0921645 0.0955062
0.144625 0.0911116 0.0966506
0.168566 0.0898604 0.0980392
0.189273 0.0883345 0.0996872
0.209949 0.0865187 0.101686
0.230594 0.0843214 0.104097
0.251209 0.0816968 0.106981
0.271794 0.0785229 0.11046
0.292363 0.0747082 0.114641
0.312917 0.0701152 0.119677
0.333455 0.0645914 0.125734
0.353979 0.0579538 0.133028
0.374487 0.049958 0.141787
0.39498 0.0403449 0.152346
0.415457 0.0287785 0.165042
0.43592 0.0148775 0.177142
0.456382 0 0.189685
0.476814 0 0.203128
0.497215 0 0.217411
0.517601 0 0.232486
0.537972 0 0.24828
0.558297 0 0.264744
0.578592 0 0.281804
0.598825 0 0.299397
0.619028 0 0.317479
0.639155 0 0.335988
0.659205 0 0.354879
0.679179 0 0.374121
0.699031 0 0.393652
0.718761 0 0.413474
0.738354 0 0.433555
0.0932937 0.107988 0.0882734
0.10724 0.107271 0.0890669
0.12401 0.106401 0.090013
0.144167 0.105348 0.0911727
0.1682 0.104097 0.092546
0.188983 0.102571 0.0942092
0.209705 0.100755 0.0962081
0.230381 0.098558 0.0986038
0.251026 0.0959182 0.101503
0.271656 0.0927443 0.104982
0.292241 0.0889296 0.109163
0.312825 0.0843519 0.114199
0.333379 0.0788281 0.120256
0.353902 0.0721752 0.127535
0.374426 0.0641947 0.136309
0.394934 0.0545815 0.146853
0.415427 0.0430152 0.159548
0.435889 0.029099 0.173114
0.456352 0.0123598 0.186099
0.476783 0 0.199954
0.4972 0 0.214633
0.517586 0 0.23006
0.537957 0 0.246174
0.558282 0 0.262928
0.578576 0 0.280247
0.598825 0 0.298085
0.619013 0 0.316365
0.639155 0 0.335042
0.659205 0 0.354086
0.679164 0 0.373449
0.699031 0 0.393088
0.718761 0 0.413016
0.738338 0 0.433173
0.0927443 0.125124 0.0816663
0.106676 0.124392 0.0824598
0.123445 0.123522 0.0834211
0.143618 0.122484 0.0845655
0.167773 0.121218 0.0859388
0.188617 0.119707 0.087602
0.2094 0.117876 0.089601
0.230137 0.115694 0.0920119
0.250828 0.113054 0.0948959
0.271489 0.10988 0.0983749
0.292103 0.106065 0.102556
0.312703 0.101472 0.107591
0.333272 0.0959487 0.113649
0.353826 0.0893111 0.120943
0.374365 0.0813153 0.129702
0.394873 0.0717021 0.140261
0.415381 0.0601358 0.152956
0.435859 0.0462196 0.168048
0.456321 0.0294804 0.181613
0.476753 0.00933852 0.196002
0.497169 0 0.21117
0.517571 0 0.227054
0.537942 0 0.243595
0.558267 0 0.260716
0.578561 0 0.278355
0.59881 0 0.296468
0.619013 0 0.314992
0.639139 0 0.333883
0.65919 0 0.353109
0.679164 0 0.372625
0.699016 0 0.392416
0.718761 0 0.412436
0.738338 0 0.4327
0.0920882 0.145724 0.0737316
0.10602 0.144991 0.0745251
0.122789 0.144121 0.0754711
0.142962 0.143069 0.0766308
0.167224 0.141817 0.0780041
0.18819 0.140307 0.0796674
0.209049 0.138476 0.0816663
0.229831 0.136294 0.084062
0.250584 0.133654 0.0869612
0.271275 0.13048 0.0904402
0.291936 0.126665 0.0946212
0.312566 0.122072 0.0996567
0.33315 0.116548 0.105715
0.353735 0.109911 0.112993
0.374273 0.101915 0.121767
0.394812 0.0923018 0.132326
0.41532 0.0807355 0.145022
0.435813 0.0668193 0.160311
0.456275 0.0500801 0.175967
0.476722 0.0299382 0.191058
0.497154 0.00569162 0.206882
0.51754 0 0.223346
0.537911 0 0.240406
0.558251 0 0.257984
0.578546 0 0.276036
0.598795 0 0.294499
0.618997 0 0.313329
0.639139 0 0.332494
0.65919 0 0.351934
0.679164 0 0.371649
0.699016 0 0.391592
0.718746 0 0.411765
0.738338 0 0.432135
0.0912947 0.169802 0.0641794
0.105226 0.169238 0.0649729
0.121996 0.168566 0.0659342
0.142168 0.167742 0.0670787
0.166415 0.166598 0.068452
0.187655 0.165072 0.0701152
0.208606 0.163256 0.0721141
0.22948 0.161059 0.0745098
0.250278 0.158434 0.077409
0.271031 0.155261 0.0808881
0.291722 0.151446 0.085069
0.312383 0.146853 0.0901045
0.333013 0.141329 0.0961624
0.353613 0.134691 0.103456
0.374182 0.126696 0.112215
0.39472 0.117082 0.122774
0.415244 0.105516 0.13547
0.435752 0.0915999 0.150759
0.45623 0.0748608 0.168765
0.476677 0.0547036 0.184802
0.497108 0.030457 0.20148
0.517525 0.00128176 0.218708
0.537896 0 0.236439
0.558236 0 0.254612
0.578531 0 0.273167
0.598779 0 0.292088
0.618982 0 0.311299
0.639124 0 0.330785
0.659175 0 0.3505
0.679149 0 0.370459
0.699016 0 0.3906
0.718746 0 0.410925
0.738338 0 0.431434
0.0903334 0.190707 0.0526894
0.104265 0.190234 0.0534829
0.121035 0.189685 0.0544442
0.141207 0.188998 0.0555886
0.165454 0.188174 0.0569619
0.18703 0.187182 0.0586252
0.208087 0.185977 0.0606241
0.229038 0.184512 0.063035
0.249928 0.182712 0.065919
0.270726 0.180514 0.069398
0.291478 0.177798 0.073579
0.312184 0.174456 0.0786145
0.332845 0.170306 0.0846723
0.353475 0.164492 0.0919661
0.37406 0.156512 0.10074
0.394629 0.146899 0.111284
0.415167 0.135332 0.123995
0.435676 0.121401 0.139269
0.456168 0.104662 0.157671
0.476631 0.0845045 0.176791
0.497078 0.0602579 0.194614
0.517479 0.0310826 0.212848
0.537865 0 0.231464
0.558206 0 0.250401
0.578515 0 0.269627
0.598764 0 0.289097
0.618967 0 0.308797
0.639109 0 0.328695
0.659175 0 0.34876
0.679133 0 0.368994
0.699001 0 0.38938
0.718746 0 0.409918
0.738323 0 0.43061
0.0891737 0.211536 0.03888
0.10312 0.211139 0.0396735
0.119875 0.210681 0.0406195
0.140047 0.210117 0.0417792
0.164309 0.209445 0.0431525
0.186267 0.208621 0.0448157
0.207446 0.20763 0.0468147
0.228519 0.206424 0.0492103
0.249485 0.204944 0.0521096
0.270375 0.203159 0.0555886
0.291188 0.200946 0.0597696
0.31194 0.198245 0.0648051
0.332631 0.194903 0.0708629
0.353292 0.190738 0.0781567
0.373922 0.185504 0.0869154
0.394507 0.178866 0.0974746
0.415061 0.170321 0.11017
0.435599 0.157259 0.12546
0.456107 0.140505 0.143862
0.47657 0.120363 0.166018
0.497032 0.0961013 0.185733
0.517449 0.0669261 0.205371
0.537835 0.0317998 0.225177
0.558175 0 0.245136
0.578485 0 0.265217
0.598749 0 0.285405
0.618952 0 0.305715
0.639094 0 0.326116
0.659159 0 0.346624
0.679133 0 0.367224
0.699001 0 0.387915
0.71873 0 0.408698
0.738323 0 0.429587
0.0878004 0.232303 0.0222629
0.101732 0.231983 0.0230564
0.118502 0.231601 0.0240177
0.138659 0.231128 0.0251621
0.162921 0.230579 0.0265354
0.185336 0.229892 0.0281987
0.206683 0.229068 0.0301976
0.227893 0.228077 0.0325933
0.248966 0.226871 0.0354925
0.269932 0.225391 0.0389715
0.290822 0.223606 0.0431525
0.311635 0.221393 0.048188
0.332387 0.218692 0.0542458
0.353094 0.215335 0.0615396
0.373739 0.21117 0.0702983
0.394369 0.205951 0.0808576
0.414954 0.199313 0.0935683
0.435492 0.190753 0.108858
0.456016 0.179507 0.12726
0.476509 0.163485 0.149416
0.496971 0.139223 0.174044
0.517388 0.110033 0.195666
0.537789 0.0749065 0.217121
0.558145 0.0326238 0.238437
0.578454 0 0.259663
0.598718 0 0.280797
0.618936 0 0.3019
0.639078 0 0.322957
0.659144 0 0.343999
0.679118 0 0.365042
0.698985 0 0.386114
0.718715 0 0.407218
0.738308 0 0.428367
0.0861372 0.253025 0.00228885
0.100069 0.25275 0.00306706
0.116838 0.25243 0.00402838
0.136995 0.252049 0.00517281
0.161257 0.251591 0.00656138
0.184207 0.251026 0.00820935
0.205768 0.250355 0.0102083
0.227115 0.249531 0.0126192
0.248325 0.248539 0.0155032
0.269413 0.247318 0.0189822
0.290379 0.245853 0.0231632
0.311269 0.244053 0.0281987
0.332082 0.241856 0.0342565
0.352834 0.239139 0.0415503
0.373541 0.235798 0.0503243
0.394186 0.231617 0.0608682
0.414801 0.226398 0.073579
0.43537 0.219745 0.0888685
0.455909 0.211185 0.107271
0.476417 0.199939 0.129427
0.496895 0.184665 0.156115
0.517342 0.161913 0.182727
0.537743 0.126772 0.206561
0.558099 0.0844587 0.229801
0.578424 0.0335546 0.252583
0.598688 0 0.274983
0.618906 0 0.297108
0.639063 0 0.31902
0.659129 0 0.340749
0.679103 0 0.362371
0.69897 0 0.383902
0.718715 0 0.405402
0.738293 0 0.426871
0.0841382 0.273701 0
0.0980697 0.273472 0
0.114839 0.273213 0
0.134997 0.272892 0
0.159258 0.272511 0
0.182849 0.272053 0
0.204639 0.271489 0
0.2262 0.270802 0
0.247562 0.269993 0
0.268772 0.268986 0
0.28986 0.267781 0
0.310842 0.266316 0.00416571
0.331731 0.264515 0.0102235
0.352544 0.262303 0.0175021
0.373281 0.259602 0.026276
0.393988 0.256245 0.0368353
0.414633 0.252079 0.049546
0.435233 0.246845 0.0648356
0.455802 0.240192 0.083238
0.476326 0.231632 0.105394
0.496818 0.220356 0.132082
0.517266 0.205081 0.164218
0.537682 0.183352 0.192386
0.558053 0.146853 0.218448
0.578378 0.0959182 0.243427
0.598657 0.0345922 0.267567
0.618875 0 0.291066
0.639033 0 0.314092
0.659098 0 0.336721
0.679088 0 0.35906
0.698955 0 0.381201
0.7187 0 0.403174
0.738293 0 0.42504
0.0817426 0.294331 0
0.0956741 0.294148 0
0.112428 0.293935 0
0.132601 0.293675 0
0.156847 0.293355 0
0.181186 0.292973 0
0.203281 0.2925 0
0.225071 0.291951 0
0.246632 0.291264 0
0.268009 0.29044 0
0.289235 0.289448 0
0.310307 0.288243 0
0.331289 0.286763 0
0.352178 0.284962 0
0.372992 0.282765 0
0.393729 0.280049 0.00791943
0.41442 0.276707 0.0206302
0.435065 0.272526 0.0359197
0.45565 0.267292 0.0543374
0.476204 0.260639 0.0764935
0.496712 0.252079 0.103182
0.517174 0.240787 0.135332
0.537606 0.225483 0.172519
0.557992 0.203723 0.203052
0.578332 0.170153 0.231312
0.598611 0.109606 0.257923
0.618845 0.0357214 0.283345
0.639002 0 0.307851
0.659083 0 0.33167
0.679057 0 0.354955
0.69894 0 0.377844
0.718685 0 0.400427
0.738277 0 0.422797
0.0788586 0.314946 0
0.0927901 0.314794 0
0.10956 0.314611 0
0.129717 0.314397 0
0.153964 0.314137 0
0.179156 0.313817 0
0.201617 0.313436 0
0.223713 0.312963 0
0.245518 0.312398 0
0.267079 0.311727 0
0.288457 0.310903 0
0.309682 0.309911 0
0.33077 0.308705 0
0.351736 0.307225 0
0.372625 0.305425 0
0.393439 0.303227 0
0.414176 0.300511 0
0.434852 0.297169 0.00114443
0.455482 0.292988 0.0195621
0.476051 0.287755 0.0417334
0.49659 0.281102 0.0684215
0.517082 0.272511 0.100572
0.537514 0.261219 0.1393
0.557916 0.245899 0.181155
0.578271 0.224079 0.214725
0.598566 0.190433 0.245106
0.618799 0.125948 0.273274
0.638956 0.0369268 0.299855
0.659037 0 0.325261
0.679026 0 0.349798
0.698909 0 0.373663
0.718654 0 0.39704
0.738262 0 0.420035
0.0753948 0.335531 0
0.0893263 0.335409 0
0.106096 0.335256 0
0.126253 0.335073 0
0.1505 0.334859 0
0.176669 0.334585 0
0.199588 0.334279 0
0.222049 0.333883 0
0.244144 0.333425 0
0.265965 0.33286 0
0.287541 0.332189 0
0.308919 0.331365 0
0.330129 0.330373 0
0.351217 0.329168 0
0.372183 0.327688 0
0.393072 0.325887 0
0.41387 0.32369 0
0.434592 0.320974 0
0.455268 0.317617 0
0.475883 0.313451 0
0.496437 0.308202 0.0266117
0.51696 0.301549 0.0587625
0.537423 0.292958 0.0975052
0.557839 0.281651 0.144183
0.578195 0.2663 0.190814
0.598505 0.244434 0.227405
0.618738 0.210666 0.2598
0.638911 0.145434 0.289403
0.659007 0.0381323 0.317037
0.678996 0 0.343252
0.698878 0 0.368429
0.718639 0 0.392828
0.738231 0 0.416632
0.0712444 0.356085 0
0.0851759 0.355993 0
0.101946 0.355856 0
0.122103 0.355703 0
0.146349 0.355535 0
0.173617 0.355306 0
0.197101 0.355047 0
0.22002 0.354726 0
0.242496 0.354345 0
0.264607 0.353887 0
0.286412 0.353323 0
0.307988 0.352636 0
0.329366 0.351827 0
0.350576 0.35082 0
0.371664 0.349615 0
0.39263 0.34815 0
0.413504 0.346349 0
0.434302 0.344137 0
0.455009 0.341436 0
0.47567 0.338079 0
0.496269 0.333898 0
0.516808 0.328649 0.00848402
0.537301 0.321996 0.0472267
0.557733 0.31339 0.0939193
0.578103 0.302068 0.15021
0.598428 0.286687 0.201541
0.618677 0.264775 0.241077
0.638865 0.230884 0.275349
0.658961 0.168368 0.306249
0.678965 0.0392462 0.334844
0.698848 0 0.361791
0.718608 0 0.387533
0.738201 0 0.41239
0.0662699 0.376623 0
0.0802014 0.376547 0
0.0969558 0.37644 0
0.117128 0.376318 0
0.141375 0.376165 0
0.169833 0.375982 0
0.194049 0.375753 0
0.217548 0.375494 0
0.240467 0.375174 0
0.262943 0.374792 0
0.285054 0.374334 0
0.306874 0.37377 0
0.328435 0.373098 0
0.349813 0.372274 0
0.371023 0.371283 0
0.392111 0.370062 0
0.413062 0.368597 0
0.433936 0.366796 0
0.454704 0.364599 0
0.47541 0.361883 0
0.496056 0.358526 0
0.516625 0.354345 0
0.537148 0.349096 0
0.55761 0.342428 0.033463
0.577996 0.333822 0.0897688
0.598337 0.322484 0.157671
0.618601 0.307073 0.213352
0.638804 0.2851 0.255711
0.6589 0.251057 0.291722
0.67892 0.188067 0.323796
0.698802 0.0401007 0.353216
0.718563 0 0.380804
0.73817 0 0.40705
0.0603037 0.397147 0
0.0742351 0.39707 0
0.0909895 0.396979 0
0.111147 0.396887 0
0.135393 0.39675 0
0.164553 0.396612 0
0.19028 0.396429 0
0.214496 0.396201 0
0.237995 0.395941 0
0.260929 0.395621 0
0.283406 0.395239 0
0.305516 0.394781 0
0.327321 0.394217 0
0.348898 0.393545 0
0.37026 0.392721 0
0.39147 0.39173 0
0.412543 0.390509 0
0.433494 0.389044 0
0.454337 0.387243 0
0.475105 0.385046 0
0.495796 0.38233 0
0.516411 0.378973 0
0.536965 0.374792 0
0.557458 0.369543 0
0.577874 0.36286 0.0170748
0.59823 0.354253 0.085008
0.618509 0.342885 0.166949
0.638712 0.327443 0.226291
0.658839 0.305379 0.271275
0.678859 0.271168 0.308843
0.698756 0.207614 0.341955
0.718532 0.0404517 0.372137
0.73814 0 0.400275
0.0531624 0.417639 0
0.0670939 0.417578 0
0.0838483 0.417502 0
0.104005 0.417426 0
0.128252 0.417319 0
0.157397 0.417197 0
0.18558 0.417044 0
0.210742 0.416861 0
0.234958 0.416648 0
0.258457 0.416373 0
0.281392 0.416068 0
0.303868 0.415671 0
0.325963 0.415213 0
0.347784 0.414649 0
0.369345 0.413977 0
0.390707 0.413153 0
0.411902 0.412161 0
0.432959 0.410956 0
0.45391 0.409476 0
0.474739 0.407691 0
0.495491 0.405478 0
0.516152 0.402762 0
0.536751 0.399405 0
0.557275 0.395224 0
0.577722 0.389975 0
0.598093 0.383291 0
0.618402 0.374655 0.0795911
0.638621 0.363272 0.175875
0.658763 0.347784 0.24033
0.678782 0.325643 0.287724
0.698695 0.291218 0.32668
0.718471 0.227008 0.360708
0.738094 0.0399023 0.391531
0.0446174 0.438117 0
0.0585336 0.438056 0
0.075288 0.43801 0
0.0954452 0.437934 0
0.119692 0.437842 0
0.148836 0.437736 0
0.17969 0.437613 0
0.206073 0.437461 0
0.23122 0.437293 0
0.255436 0.437064 0
0.278935 0.436805 0
0.301854 0.436484 0
0.324331 0.436103 0
0.346426 0.435645 0
0.368231 0.43508 0
0.389792 0.434409 0
0.411139 0.433585 0
0.432334 0.432593 0
0.453376 0.431388 0
0.474311 0.429908 0
0.495125 0.428122 0
0.515846 0.42591 0
0.536492 0.423194 0
0.557061 0.419837 0
0.577539 0.415656 0
0.59794 0.410391 0
0.618265 0.403708 0
0.638514 0.395056 0.0735332
0.658656 0.383642 0.186053
0.678706 0.368093 0.255467
0.698619 0.345861 0.305013
0.71841 0.311192 0.34519
0.738033 0.246204 0.380011
0.0343938 0.458564 0
0.0483253 0.458518 0
0.0650645 0.458473 0
0.0852216 0.458412 0
0.109453 0.458351 0
0.138598 0.458259 0
0.172229 0.458152 0
0.200214 0.45803 0
0.226566 0.457877 0
0.251713 0.457694 0
0.275929 0.457481 0
0.299413 0.457221 0
0.322332 0.456901 0
0.344793 0.456519 0
0.366888 0.456062 0
0.388678 0.455497 0
0.410224 0.454826 0
0.431571 0.454002 0
0.45275 0.45301 0
0.473777 0.451804 0
0.494682 0.450324 0
0.51548 0.448539 0
0.536187 0.446326 0
0.556786 0.44361 0
0.577325 0.440253 0
0.597757 0.436072 0
0.618112 0.430808 0
0.638376 0.424109 0
0.658549 0.415442 0.0669108
0.678599 0.403998 0.197742
0.698543 0.388388 0.271687
0.718334 0.366018 0.32311
0.737972 0.331075 0.364324
0.0222019 0.478996 0
0.0361181 0.478965 0
0.0528725 0.47892 0
0.0730144 0.478874 0
0.0972457 0.478813 0
0.12639 0.478737 0
0.16144 0.47866 0
0.192782 0.478553 0
0.220752 0.478431 0
0.247089 0.478279 0
0.272221 0.478096 0
0.296422 0.477882 0
0.31989 0.477607 0
0.342809 0.477302 0
0.365255 0.476921 0
0.387335 0.476448 0
0.40911 0.475898 0
0.430655 0.475227 0
0.451987 0.474403 0
0.473136 0.473411 0
0.494148 0.472206 0
0.515038 0.470741 0
0.535805 0.46894 0
0.556481 0.466728 0
0.57705 0.464027 0
0.597543 0.460655 0
0.617929 0.456474 0
0.638224 0.451194 0
0.658412 0.44448 0
0.678477 0.435798 0.0599069
0.698436 0.424323 0.211032
0.718242 0.408637 0.288975
0.737896 0.38613 0.34197
0.00766003 0.499397 0
0.0215763 0.499367 0
0.0383307 0.499336 0
0.0584726 0.49929 0
0.0826886 0.499245 0
0.111818 0.499184 0
0.146868 0.499123 0
0.183246 0.499031 0
0.213397 0.498924 0
0.241337 0.498802 0
0.267643 0.49865 0
0.292744 0.498466 0
0.31693 0.498253 0
0.340383 0.497993 0
0.363272 0.497673 0
0.385718 0.497292 0
0.407782 0.496834 0
0.429557 0.496269 0
0.451072 0.495598 0
0.472389 0.494789 0
0.493523 0.493797 0
0.514504 0.492592 0
0.535363 0.491112 0
0.556115 0.489326 0
0.576745 0.487114 0
0.597269 0.484413 0
0.6177 0.481041 0
0.638025 0.476844 0
0.658244 0.471565 0
0.67834 0.464851 0
0.698314 0.456138 0.0528115
0.718135 0.444602 0.226001
0.737804 0.42884 0.307301
0 0.519768 0
0.00428779 0.519753 0
0.0210269 0.519722 0
0.0411536 0.519692 0
0.0653849 0.519646 0
0.0944991 0.5196 0
0.129534 0.519539 0
0.170703 0.519463 0
0.203967 0.519387 0
0.234058 0.51928 0
0.261936 0.519158 0
0.288212 0.519005 0
0.313283 0.518822 0
0.337438 0.518608 0
0.360891 0.518349 0
0.383749 0.518029 0
0.40618 0.517647 0
0.428229 0.517189 0
0.449973 0.51664 0
0.471473 0.515953 0
0.49276 0.515145 0
0.513878 0.514153 0
0.534844 0.512947 0
0.555657 0.511482 0
0.576364 0.509682 0
0.596948 0.507485 0
0.617426 0.504768 0
0.637797 0.501411 0
0.658045 0.497215 0
0.678172 0.49192 0
0.698161 0.485176 0
0.718013 0.476448 0.0461891
0.737682 0.464866 0.242741
0 0.540108 0
0 0.540093 0
0.000503548 0.540078 0
0.0206302 0.540047 0
0.044831 0.540017 0
0.0739452 0.539971 0
0.108965 0.539925 0
0.15108 0.539864 0
0.191608 0.539788 0
0.22475 0.539712 0
0.254765 0.539605 0
0.282582 0.539483 0
0.308812 0.53933 0
0.333852 0.539147 0
0.357977 0.538933 0
0.381384 0.538674 0
0.404227 0.538354 0
0.426627 0.537972 0
0.448661 0.537514 0
0.470375 0.536965 0
0.491859 0.536294 0
0.513115 0.53547 0
0.534203 0.534493 0
0.555138 0.533288 0
0.575921 0.531823 0
0.596582 0.530022 0
0.617105 0.527825 0
0.637522 0.525109 0
0.657816 0.521737 0
0.677974 0.51754 0
0.697993 0.512245 0
0.717861 0.505486 0
0.73756 0.496712 0.0409247
0 0.560418 0
0 0.560403 0
0 0.560388 0
0 0.560357 0
0.0205234 0.560327 0
0.0496223 0.560296 0
0.0846265 0.56025 0
0.126711 0.560204 0
0.17496 0.560143 0
0.212634 0.560082 0
0.245624 0.559991 0
0.275517 0.559884 0
0.303258 0.559762 0
0.329427 0.559625 0
0.354421 0.559442 0
0.378515 0.559228 0
0.401892 0.558968 0
0.424704 0.558648 0
0.447074 0.558267 0
0.469078 0.557809 0
0.490776 0.55726 0
0.512215 0.556588 0
0.533455 0.555779 0
0.554498 0.554788 0
0.575387 0.553582 0
0.596124 0.552117 0
0.616724 0.550332 0
0.637201 0.548135 0
0.657526 0.545419 0
0.677729 0.542046 0
0.69778 0.537835 0
0.717678 0.532525 0
0.737392 0.52575 0
0 0.580682 0
0 0.580667 0
0 0.580652 0
0 0.580621 0
0 0.580606 0
0.0209354 0.580575 0
0.0559243 0.580545 0
0.0979934 0.580499 0
0.148592 0.580453 0
0.196399 0.580392 0
0.233783 0.580331 0
0.266575 0.58024 0
0.296345 0.580133 0
0.323995 0.580011 0
0.350088 0.579858 0
0.375021 0.57969 0
0.399054 0.579477 0
0.4224 0.579217 0
0.445182 0.578897 0
0.467506 0.578515 0
0.489479 0.578058 0
0.511147 0.577508 0
0.532555 0.576837 0
0.55375 0.576028 0
0.574762 0.575051 0
0.59559 0.573846 0
0.616266 0.572381 0
0.636805 0.570596 0
0.657206 0.568399 0
0.67744 0.565682 0
0.697536 0.56231 0
0.717464 0.558099 0
0.737209 0.552773 0
0 0.600885 0
0 0.60087 0
0 0.600855 0
0 0.600839 0
0 0.600824 0
0 0.600793 0
0.0222324 0.600763 0
0.064271 0.600732 0
0.114839 0.600702 0
0.173709 0.600641 0
0.218036 0.600595 0
0.255055 0.600519 0
0.287633 0.600427 0
0.317235 0.600336 0
0.344778 0.600214 0
0.370779 0.600061 0
0.395651 0.599878 0
0.419623 0.599664 0
0.442908 0.599405 0
0.465644 0.5991 0
0.487938 0.598718 0
0.509865 0.59826 0
0.531487 0.597711 0
0.552865 0.597055 0
0.573999 0.596246 0
0.594965 0.595254 0
0.615732 0.594064 0
0.636347 0.592599 0
0.656809 0.590814 0
0.677104 0.588617 0
0.697246 0.585901 0
0.717205 0.582528 0
0.73698 0.578302 0
0 0.621027 0
0 0.621012 0
0 0.620996 0
0 0.620981 0
0 0.620966 0
0 0.620951 0
0 0.620935 0
0.024918 0.620905 0
0.0754406 0.620874 0
0.136202 0.620829 0
0.196292 0.620783 0
0.239902 0.620722 0
0.276509 0.620645 0
0.308797 0.620569 0
0.338216 0.620462 0
0.365606 0.62034 0
0.391516 0.620203 0
0.416297 0.62002 0
0.440208 0.619806 0
0.463432 0.619547 0
0.486107 0.619242 0
0.508354 0.61886 0
0.530236 0.618418 0
0.551812 0.617868 0
0.573129 0.617197 0
0.594217 0.616388 0
0.615106 0.615412 0
0.635813 0.614221 0
0.656352 0.612757 0
0.676707 0.610971 0
0.696895 0.608774 0
0.716899 0.606073 0
0.736706 0.602686 0
0 0.641093 0
0 0.641077 0
0 0.641077 0
0 0.641062 0
0 0.641047 0
0 0.641032 0
0 0.641016 0
0 0.640986 0
0.0297398 0.640955 0
