public/luts/gopro-rec709.cube
TITLE "Generated by Resolve"
LUT_3D_SIZE 33
0.000671397 0.000671397 0.000671397
0.0177615 0 0.00103761
0.0382544 0 0.00151064
0.0627604 0 0.00205997
0.0919661 0 0.00274662
0.121752 0 0.00358587
0.151858 0 0.00460822
0.182742 0 0.00587472
0.214771 0 0.00743114
0.248188 0 0.00936904
0.283192 0 0.0117647
0.319982 0 0.0147707
0.358633 0 0.0185397
0.399268 0 0.0232853
0.441886 0 0.0292973
0.486488 0 0.0369116
0.532982 0 0.0465858
0.581231 0 0.0589303
0.631037 0 0.0746624
0.682078 0 0.0943923
0.734005 0 0.116274
0.786419 0 0.140612
0.838819 0 0.167544
0.89073 0 0.197192
0.941634 0 0.229618
0.991058 0 0.264851
1 0 0.302861
1 0 0.343557
1 0 0.386755
1 0 0.432258
1 0 0.479759
1 0 0.528893
1 0 0.579248
0 0.0167086 0
0.011841 0.0139467 0
0.0323186 0.0106508 0
0.0568246 0.00668345 0
0.0862898 0.0019379 0
0.117021 0 0
0.147814 0 0
0.179232 0 0
0.211688 0 0.000335698
0.245457 0 0.00228885
0.280766 0 0.00469978
0.317784 0 0.00772107
0.356664 0 0.0115206
0.397482 0 0.0162814
0.440269 0 0.0223239
0.485008 0 0.0299687
0.531624 0 0.0396887
0.57998 0 0.052079
0.629877 0 0.0678721
0.680995 0 0.0880903
0.733013 0 0.110842
0.785489 0 0.135927
0.837949 0 0.1635
0.889921 0 0.193713
0.940871 0 0.226627
0.990356 0 0.262287
1 0 0.300664
1 0 0.34168
1 0 0.385153
1 0 0.4309
1 0 0.478599
1 0 0.527916
1 0 0.578439
0 0.0359045 0
0.00476081 0.0331579 0
0.0252232 0.0298619 0
0.0497139 0.0259098 0
0.078996 0.0211795 0
0.111192 0.0154879 0
0.142855 0.00869764 0
0.174945 0.000549325 0
0.207919 0 0
0.242115 0 0
0.27779 0 0
0.315114 0 0
0.354269 0 0.00303655
0.3953 0 0.00784314
0.438285 0 0.013901
0.483192 0 0.0215915
0.529976 0 0.0313726
0.57847 0 0.0438239
0.628473 0 0.059678
0.679698 0 0.0798657
0.731807 0 0.104036
0.78436 0 0.130114
0.836896 0 0.158526
0.88893 0 0.189456
0.939956 0 0.22298
0.989502 0 0.259174
1 0 0.298009
1 0 0.339406
1 0 0.383215
1 0 0.429252
1 0 0.477211
1 0 0.526741
1 0 0.577447
0 0.0588693 0
0 0.0561379 0
0.0167697 0.0528573 0
0.0412299 0.0489052 0
0.0704967 0.0441749 0
0.10396 0.0385138 0
0.136767 0.0317388 0
0.169711 0.023621 0
0.203342 0.0139162 0
0.238087 0.00233463 0
0.274189 0 0
0.311894 0 0
0.351339 0 0
0.39266 0 0
0.435874 0 0.00373846
0.480995 0 0.01149
0.527962 0 0.0213169
0.576608 0 0.0338445
0.626764 0 0.0497902
0.678126 0 0.0700847
0.730343 0 0.0954452
0.783001 0 0.12285
0.83563 0 0.152361
0.887739 0 0.184207
0.938842 0 0.218524
0.988449 0 0.25536
1 0 0.294759
1 0 0.336629
1 0 0.380865
1 0 0.427253
1 0 0.475517
1 0 0.525322
1 0 0.576257
0 0.0864576 0
0 0.0838026 0
0.00669871 0.0803082 0
0.0311284 0.0763714 0
0.0603647 0.0716564 0
0.0948959 0.0660258 0
0.129259 0.059266 0
0.163317 0.0511635 0
0.197803 0.0415045 0
0.233188 0.0299535 0
0.269841 0.0161898 0
0.308003 0 0
0.347829 0 0
0.389456 0 0
0.432959 0 0
0.478325 0 0
0.525505 0 0.00918593
0.574365 0 0.0217899
0.624689 0 0.0378424
0.676204 0 0.0582437
0.728557 0 0.0843824
0.781338 0 0.113664
0.834073 0 0.144671
0.886305 0 0.177722
0.937499 0 0.213016
0.987198 0 0.25069
1 0 0.290791
1 0 0.333272
1 0 0.378012
1 0 0.424826
1 0 0.473472
1 0 0.523598
1 0 0.574807
0 0.115328 0
0 0.113115 0
0 0.110414 0
0.0191196 0.107118 0
0.0483101 0.10309 0
0.0834211 0.0981155 0
0.119921 0.0919661 0
0.155444 0.0842603 0
0.191028 0.074403 0
0.227268 0.0629129 0
0.264607 0.0491951 0
0.303319 0.0328832 0
0.343603 0.0135042 0
0.385626 0 0
0.42945 0 0
0.475105 0 0
0.52253 0 0
0.571603 0 0.00721752
0.622141 0 0.0233921
0.673854 0 0.043946
0.726375 0 0.0700389
0.779309 0 0.101854
0.832197 0 0.134936
0.884535 0 0.169604
0.935851 0 0.20621
0.985656 0 0.244953
1 0 0.285939
1 0 0.329152
1 0 0.374517
1 0 0.421881
1 0 0.470985
1 0 0.521508
1 0 0.573068
0 0.144457 0
0 0.14258 0
0 0.140291 0
0.00488289 0.137514 0
0.0340276 0.134127 0
0.0688334 0.129992 0
0.108171 0.124926 0
0.145708 0.118654 0
0.182727 0.110872 0
0.220066 0.101076 0
0.258259 0.0885786 0
0.297658 0.0722667 0
0.338537 0.0529793 0
0.381033 0.0301061 0
0.425269 0.00306706 0
0.47126 0 0
0.518975 0 0
0.568307 0 0
0.619058 0 0.00593576
0.670985 0 0.026627
0.72372 0 0.0529335
0.776837 0 0.0863355
0.829892 0 0.122454
0.882399 0 0.159365
0.933852 0 0.197711
0.98378 0 0.237842
1 0 0.279957
1 0 0.324102
1 0 0.37026
1 0 0.418296
1 0 0.467964
1 0 0.518959
1 0 0.570947
0 0.174319 0
0 0.172686 0
0 0.170733 0
0 0.168353 0
0.0171206 0.165454 0
0.0518807 0.161944 0
0.0931106 0.157656 0
0.133547 0.152407 0
0.172503 0.145968 0
0.211276 0.137972 0
0.250568 0.128008 0
0.290852 0.115389 0
0.332433 0.0990921 0
0.375525 0.0771649 0
0.420249 0.0502785 0
0.466667 0.018555 0
0.514733 0 0
0.564355 0 0
0.615366 0 0
0.667506 0 0.00576791
0.720455 0 0.0321965
0.773816 0 0.0657359
0.827085 0 0.106065
0.879774 0 0.146258
0.931395 0 0.186984
0.981491 0 0.228962
1 0 0.272541
1 0 0.317891
1 0 0.365042
1 0 0.413901
1 0 0.464271
1 0 0.515877
1 0 0.568368
0 0.205219 0
0 0.2038 0
0 0.20209 0
0 0.200031 0
0 0.197528 0
0.0318761 0.194507 0
0.073228 0.190829 0
0.118105 0.186358 0
0.159823 0.180896 0
0.200504 0.174197 0
0.24123 0.165927 0
0.282628 0.155673 0
0.325109 0.142763 0
0.368933 0.126284 0
0.414252 0.104662 0
0.461173 0.0747539 0
0.509682 0.037705 0
0.55967 0 0
0.610986 0 0
0.663386 0 0
0.716548 0 0.00729381
0.770108 0 0.0409552
0.823621 0 0.0837262
0.876539 0 0.129091
0.928389 0 0.173281
0.978698 0 0.217792
1 0 0.26331
1 0 0.310201
1 0 0.358618
1 0 0.408515
1 0 0.459754
1 0 0.512108
1 0 0.565225
0 0.237415 0
0 0.236164 0
0 0.234684 0
0 0.232868 0
0 0.230701 0
0.00839246 0.228061 0
0.0496376 0.224872 0
0.0980697 0.221012 0
0.143862 0.216312 0
0.187213 0.21059 0
0.229831 0.203586 0
0.272663 0.194995 0
0.316274 0.18436 0
0.361013 0.171084 0
0.407111 0.154269 0
0.454643 0.132479 0
0.50367 0.10312 0
0.554101 0.0614023 0
0.605783 0.0110628 0
0.658488 0 0
0.711925 0 0
0.765682 0 0.0112764
0.819379 0 0.0539559
0.872572 0 0.105806
0.924681 0 0.155398
0.975235 0 0.20351
1 0 0.251682
1 0 0.300603
1 0 0.350637
1 0 0.401862
1 0 0.454215
1 0 0.507485
1 0 0.561379
0 0.271077 0
0 0.269978 0
0 0.268666 0
0 0.267079 0
0 0.265171 0
0 0.262867 0
0.0220645 0.260075 0
0.071046 0.256703 0
0.123415 0.252628 0
0.170626 0.247684 0
0.215854 0.241672 0
0.260594 0.234348 0
0.305653 0.225376 0
0.351553 0.214328 0
0.398581 0.20061 0
0.446876 0.183352 0
0.496544 0.161242 0
0.547494 0.131991 0
0.599634 0.0906844 0
0.652705 0.0326848 0
0.706447 0 0
0.760479 0 0
0.814374 0 0.0186465
0.86772 0 0.0724193
0.920089 0 0.131243
0.970977 0 0.184909
1 0 0.236835
1 0 0.288533
1 0 0.340688
1 0 0.393622
1 0 0.447364
1 0 0.501808
1 0 0.55668
0 0.306355 0
0 0.305379 0
0 0.304219 0
0 0.302831 0
0 0.301137 0
0 0.299107 0
0 0.296651 0
0.0388037 0.293706 0
0.0962997 0.290135 0
0.14963 0.285832 0
0.198581 0.280613 0
0.245884 0.274281 0
0.292851 0.26659 0
0.340215 0.257221 0
0.388403 0.245716 0
0.437675 0.23151 0
0.488106 0.213779 0
0.539712 0.191272 0
0.592371 0.161929 0
0.645899 0.121645 0
0.700008 0.0603799 0
0.75433 0 0
0.808484 0 0
0.862028 0 0.0305028
0.914549 0 0.0972152
0.965652 0 0.15993
1 0 0.217517
1 0 0.273106
1 0 0.328161
1 0 0.383337
1 0 0.43888
1 0 0.494774
1 0 0.550881
0 0.343328 0
0 0.342473 0
0 0.341436 0
0 0.3402 0
0 0.338704 0
0 0.336919 0
0 0.334752 0
0.0016022 0.332158 0
0.0593423 0.329015 0
0.122301 0.325246 0
0.176974 0.320684 0
0.227878 0.315175 0
0.277394 0.308522 0
0.32665 0.30045 0
0.376318 0.290654 0
0.426749 0.278676 0
0.478141 0.263981 0
0.530541 0.245747 0
0.583856 0.222812 0
0.637919 0.193301 0
0.692454 0.153674 0
0.747158 0.0952621 0
0.801602 0.00793469 0
0.855375 0 0
0.908064 0 0.0481575
0.959289 0 0.125338
1 0 0.191699
1 0 0.253071
1 0 0.312154
1 0 0.370336
1 0 0.428244
1 0 0.486046
1 0 0.543709
0 0.382055 0
0 0.381292 0
0 0.380377 0
0 0.379278 0
0 0.377951 0
0 0.376364 0
0 0.374456 0
0 0.372152 0
0.0164187 0.36939 0
0.0847486 0.366064 0
0.14931 0.362066 0
0.205615 0.357244 0
0.258625 0.351431 0
0.310399 0.344442 0
0.361944 0.335988 0
0.41387 0.32575 0
0.466438 0.313313 0
0.519783 0.298116 0
0.573892 0.279408 0
0.628595 0.256046 0
0.683665 0.226337 0
0.738781 0.187213 0
0.793576 0.131746 0
0.847623 0.0409247 0
0.900511 0 0
0.951888 0 0.0730602
1 0 0.156512
1 0 0.226352
1 0 0.291341
1 0 0.353735
1 0 0.414801
1 0 0.47509
1 0 0.534752
0 0.422522 0
0 0.421851 0
0 0.421027 0
0 0.42005 0
0 0.418875 0
0 0.417472 0
0 0.415778 0
0 0.413733 0
0 0.411292 0
0.0354314 0.408362 0
0.112428 0.404822 0
0.1776 0.400595 0
0.235721 0.395499 0
0.290883 0.389395 0
0.3449 0.38204 0
0.398688 0.373205 0
0.452735 0.362539 0
0.507256 0.34966 0
0.562295 0.334005 0
0.617777 0.314839 0
0.673472 0.291096 0
0.729091 0.261234 0
0.784298 0.222522 0
0.838666 0.169299 0
0.891798 0.0843671 0
0.943328 0 0.00358587
0.992966 0 0.10515
1 0 0.190509
1 0 0.263661
1 0 0.332097
1 0 0.397559
1 0 0.461204
1 0 0.523507
0 0.464683 0
0 0.464073 0
0 0.463355 0
0 0.462486 0
0 0.461448 0
0 0.460182 0
0 0.458686 0
0 0.45687 0
0 0.454704 0
0 0.45211 0
0.0597848 0.448997 0
0.141299 0.445258 0
0.207431 0.440787 0
0.267414 0.435416 0
0.324697 0.429007 0
0.38088 0.421317 0
0.436744 0.4121 0
0.492699 0.401038 0
0.548882 0.387732 0
0.605295 0.371664 0
0.661738 0.352102 0
0.717968 0.328069 0
0.773632 0.2981 0
0.828367 0.259785 0
0.881788 0.208347 0
0.933516 0.131319 0
0.983246 0 0.0252384
1 0 0.139635
1 0 0.227054
1 0 0.303365
1 0 0.375036
1 0 0.44332
1 0 0.509178
0 0.5084 0
0 0.507866 0
0 0.507225 0
0 0.506447 0
0 0.505531 0
0 0.504402 0
0 0.503075 0
0 0.501472 0
0 0.49955 0
0 0.497246 0
0 0.494484 0
0.0909133 0.491188 0
0.171725 0.487236 0
0.238956 0.482521 0
0.300755 0.47689 0
0.360052 0.470176 0
0.418219 0.46215 0
0.475929 0.452583 0
0.533501 0.441154 0
0.591012 0.427482 0
0.648341 0.411063 0
0.705272 0.391196 0
0.761501 0.366934 0
0.816663 0.33695 0
0.870405 0.299046 0
0.922347 0.249104 0
0.972213 0.177462 0
1 0.0468452 0.0557565
1 0 0.176349
1 0 0.265873
1 0 0.345159
1 0 0.419852
1 0 0.490639
0 0.553521 0
0 0.553033 0
0 0.552468 0
0 0.551781 0
0 0.550958 0
0 0.549966 0
0 0.548775 0
0 0.547341 0
0 0.545632 0
0 0.543603 0
0 0.541146 0
0.0227359 0.538231 0
0.124575 0.534737 0
0.204028 0.530587 0
0.272328 0.525628 0
0.33579 0.519738 0
0.396887 0.512734 0
0.456764 0.504417 0
0.515999 0.49453 0
0.574807 0.482795 0
0.633173 0.468818 0
0.690944 0.45211 0
0.747829 0.432029 0
0.803494 0.407645 0
0.857588 0.377707 0
0.909789 0.340246 0
0.959808 0.291585 0
1 0.223896 0
1 0.111376 0.0962692
1 0 0.215061
1 0 0.306676
1 0 0.388693
1 0 0.466163
0 0.599756 0
0 0.599344 0
0 0.598825 0
0 0.598215 0
0 0.597482 0
0 0.596597 0
0 0.595544 0
0 0.594278 0
0 0.592752 0
0 0.590936 0
0 0.588769 0
0 0.586191 0
0.0564279 0.583093 0
0.15996 0.579431 0
0.238422 0.575067 0
0.307637 0.569879 0
0.372503 0.563745 0
0.435065 0.556466 0
0.496315 0.54789 0
0.556649 0.537743 0
0.61622 0.52575 0
0.674937 0.511543 0
0.73257 0.494667 0
0.78883 0.474464 0
0.843351 0.450034 0
0.895827 0.420218 0
0.945998 0.383215 0
0.993683 0.335698 0
1 0.271 0
1 0.170687 0.138796
1 0 0.255543
1 0 0.349142
1 0 0.433616
0 0.64683 0
0 0.646448 0
0 0.645991 0
0 0.645441 0
0 0.644785 0
0 0.644007 0
0 0.643061 0
0 0.641932 0
0 0.640589 0
0 0.638972 0
0 0.637049 0
0 0.63476 0
0 0.632029 0
0.100618 0.628779 0
0.197498 0.624918 0
0.275059 0.620356 0
0.3449 0.614969 0
0.410803 0.608606 0
0.474449 0.601114 0
0.536583 0.592294 0
0.597528 0.581949 0
0.657313 0.569772 0
0.715785 0.555444 0
0.772686 0.538491 0
0.82771 0.518273 0
0.880522 0.493874 0
0.930877 0.464256 0
0.978592 0.42771 0
1 0.381201 0
1 0.318868 0.000442512
1 0.226291 0.181796
1 0.0329137 0.297551
1 0 0.392889
0 0.694316 0
0 0.69398 0
0 0.693568 0
0 0.69308 0
0 0.6925 0
0 0.691798 0
0 0.690959 0
0 0.689967 0
0 0.688762 0
0 0.687327 0
0 0.685618 0
0 0.683589 0
0 0.681163 0
0.0201724 0.678294 0
0.146654 0.674876 0
0.237415 0.670863 0
0.31397 0.666102 0
0.384054 0.660517 0
0.450553 0.653971 0
0.514763 0.646296 0
0.577249 0.637324 0
0.638224 0.626841 0
0.697612 0.614572 0
0.75523 0.600198 0
0.810788 0.583261 0
0.863996 0.563119 0
0.914549 0.538842 0
0.962325 0.509438 0
1 0.473365 0
1 0.427756 0
1 0.367346 0.0460517
1 0.280156 0.225544
1 0.12018 0.340795
0 0.741817 0
0 0.741512 0
0 0.741146 0
0 0.740719 0
0 0.7402 0
0 0.739574 0
0 0.738827 0
0 0.737942 0
0 0.736873 0
0 0.735592 0
0 0.734081 0
0 0.732265 0
0 0.730114 0
0 0.727565 0
0.0780652 0.724559 0
0.193851 0.721004 0
0.27982 0.716823 0
0.355123 0.71191 0
0.424964 0.706157 0
0.491508 0.699458 0
0.555703 0.691646 0
0.61796 0.682567 0
0.678309 0.672023 0
0.73666 0.65977 0
0.792782 0.645441 0
0.846387 0.628611 0
0.897231 0.608621 0
0.945083 0.584527 0
0.989883 0.555367 0
1 0.519738 0
1 0.474952 0
1 0.416159 0.104051
1 0.333028 0.270115
0 0.788846 0
0 0.788571 0
0 0.788251 0
0 0.787869 0
0 0.787396 0
0 0.786847 0
0 0.786191 0
0 0.785382 0
0 0.784436 0
0 0.783307 0
0 0.781964 0
0 0.780346 0
0 0.778439 0
0 0.776181 0
0 0.77351 0
0.142855 0.770367 0
0.242786 0.766674 0
0.324605 0.762356 0
0.398322 0.757305 0
0.467414 0.751431 0
0.53341 0.744625 0
0.596948 0.736736 0
0.658274 0.727642 0
0.717357 0.717113 0
0.774029 0.704936 0
0.828031 0.690761 0
0.879149 0.674128 0
0.927138 0.654353 0
0.971862 0.630442 0
1 0.601511 0
1 0.566308 0
1 0.522286 0
1 0.464958 0.15964
0 0.834928 0
0 0.834684 0
0 0.834409 0
0 0.834058 0
0 0.833646 0
0 0.833158 0
0 0.832563 0
0 0.831846 0
0 0.831006 0
0 0.829999 0
0 0.828794 0
0 0.827375 0
0 0.825681 0
0 0.823667 0
0 0.821302 0
0.0806439 0.818524 0
0.203769 0.815259 0
0.293614 0.811444 0
0.371572 0.807004 0
0.443305 0.801846 0
0.511055 0.795895 0
0.575845 0.789029 0
0.638071 0.78114 0
0.69781 0.772091 0
0.754971 0.761669 0
0.809323 0.74966 0
0.860655 0.735698 0
0.908782 0.719326 0
0.953521 0.699809 0
0.994827 0.676066 0
1 0.647318 0
1 0.612512 0
1 0.569223 0
0 0.879606 0
0 0.879393 0
0 0.879133 0
0 0.878828 0
0 0.878462 0
0 0.878019 0
0 0.877485 0
0 0.87686 0
0 0.876112 0
0 0.875212 0
0 0.874144 0
0 0.872877 0
0 0.871366 0
0 0.869596 0
0 0.867491 0
0.0175326 0.865019 0
0.164599 0.862135 0
0.263874 0.858763 0
0.346151 0.854841 0
0.42034 0.850309 0
0.489647 0.84509 0
0.555474 0.839109 0
0.618418 0.832242 0
0.67866 0.82443 0
0.736156 0.815488 0
0.790753 0.805249 0
0.842237 0.793484 0
0.890425 0.779812 0
0.935164 0.763729 0
0.976349 0.744472 0
1 0.720851 0
1 0.69221 0
1 0.657755 0
0 0.922423 0
0 0.92224 0
0 0.922011 0
0 0.921736 0
0 0.921416 0
0 0.921019 0
0 0.920546 0
0 0.919982 0
0 0.91931 0
0 0.918517 0
0 0.917571 0
0 0.916442 0
0 0.915099 0
0 0.913512 0
0 0.91165 0
0 0.909468 0
0.12903 0.906905 0
0.238041 0.903929 0
0.32398 0.900465 0
0.400031 0.896483 0
0.47039 0.89189 0
0.536843 0.886656 0
0.600168 0.880674 0
0.660639 0.873884 0
0.718273 0.866194 0
0.772931 0.857435 0
0.82443 0.847456 0
0.872587 0.835981 0
0.917235 0.822644 0
0.958282 0.806897 0
0.995727 0.787869 0
1 0.764279 0
1 0.735622 0
0 0.963027 0
0 0.96286 0
0 0.962646 0
0 0.962402 0
0 0.962112 0
0 0.961761 0
0 0.961349 0
0 0.960845 0
0 0.96025 0
0 0.959548 0
0 0.958694 0
0 0.957687 0
0 0.956497 0
0 0.955093 0
0 0.953445 0
0 0.951507 0
0.104005 0.949233 0
0.21973 0.946593 0
0.3075 0.943542 0
0.384176 0.940017 0
0.454719 0.935988 0
0.521141 0.93138 0
0.584329 0.926162 0
0.644602 0.920256 0
0.702037 0.913603 0
0.756497 0.906096 0
0.807797 0.897581 0
0.855772 0.887907 0
0.900236 0.876783 0
0.941085 0.863813 0
0.978286 0.848371 0
1 0.829541 0
1 0.805859 0
0 1 0
0 1 0
0 1 0
0 1 0
0 1 0
0 0.999954 0
0 0.999588 0
0 0.999146 0
0 0.998611 0
