public/luts/gopro-rec709.cube
TITLE "Generated by Resolve"
LUT_3D_SIZE 5
0.000671397 0.000671397 0.000671397
0.214771 0 0.00743114
0.532982 0 0.0465858
0.941634 0 0.229618
1 0 0.579248
0 0.205219 0
0.159823 0.180896 0
0.509682 0.037705 0
0.928389 0 0.173281
1 0 0.565225
0 0.5084 0
0 0.49955 0
0.418219 0.46215 0
0.870405 0.299046 0
1 0 0.490639
0 0.879606 0
0 0.876112 0
0.164599 0.862135 0
0.736156 0.815488 0
1 0.657755 0
0 1 0
0.0374609 1 0
0.332601 1 0
0.677043 1 0
0.967926 1 0
0 0 0.212741
0.207477 0 0.215351
0.529335 0 0.231189
0.939208 0 0.325689
1 0 0.608865
0 0.177966 0.14699
0.150622 0.150622 0.150622
0.505806 0 0.171893
0.925811 0 0.288151
1 0 0.595956
0 0.496696 0
0 0.487572 0
0.41384 0.448936 0
0.867658 0.280842 0
1 0 0.527977
0 0.874434 0
0 0.870893 0
0.159869 0.856733 0
0.733898 0.809155 0
1 0.649973 0
0 1 0
0.0394446 1 0
0.332815 1 0
0.67657 1 0
0.967086 1 0
0 0 0.515282
0.182712 0 0.515267
0.516548 0 0.517449
0.930114 0 0.548455
1 0 0.707439
0 0.0483864 0.493767
0.118547 0.00689708 0.493767
0.4925 0 0.496101
0.916121 0 0.529549
1 0 0.697597
0 0.448783 0.394339
0 0.439124 0.394522
0.398154 0.398154 0.398154
0.857664 0.210101 0.440055
1 0 0.646601
0 0.845258 0
0 0.841459 0
0.126024 0.826215 0
0.72195 0.77528 0
1 0.621836 0.367346
0 1 0
0.0448157 1 0
0.332586 1 0
0.673915 1 0
0.962753 1 0
0 0 0.856977
0.157305 0 0.85594
0.493004 0 0.852674
0.904387 0 0.852491
1 0 0.902632
0 0 0.848707
0.088777 0 0.847654
0.469734 0 0.844312
0.889387 0 0.843732
1 0 0.896544
0 0.353994 0.815808
0 0.343236 0.81471
0.376883 0.296605 0.811109
0.83331 0.0262608 0.809354
1 0 0.864744
0 0.760723 0.70222
0 0.757153 0.701183
0.0572213 0.742901 0.697795
0.696513 0.696513 0.696513
1 0.561791 0.748104
0 1 0
0 1 0
0.28333 1 0
0.638483 1 0
0.929656 0.984863 0.212192
0.225681 0.0899062 1
0.307012 0.0626993 1
0.514855 0 1
0.855375 0 1
1 0 1
0.194766 0.197024 1
0.283467 0.182086 1
0.499641 0.107866 1
0.844495 0 1
1 0 1
0.0269627 0.41297 1
0.178912 0.40621 1
0.440146 0.377829 1
0.803006 0.261051 1
1 0 1
0 0.716838 0.994583
0 0.714 0.993591
0.276982 0.702586 0.989853
0.695094 0.66508 0.980438
1 0.561028 0.977523
0 0.950912 0.917617
0.101625 0.949737 0.91693
0.314809 0.945098 0.91429
0.619104 0.930419 0.907042
0.902037 0.902037 0.902037
