public/luts/slog3-santios.cube
TITLE "Generated by Resolve"
LUT_3D_SIZE 17
0.0298466 0.0557412 0.084947
0.0298619 0.0557259 0.0848859
0.0702068 0.0565042 0.0850996
0.12195 0.063447 0.0888075
0.200107 0.0724651 0.0916152
0.32282 0.073579 0.0907301
0.503349 0.024033 0.0724804
0.699565 0.0402533 0.0561685
0.839246 0.156222 0.0692454
0.936599 0.247822 0.0723735
0.988861 0.306523 0.0737469
0.988861 0.3066 0.0737774
0.988861 0.3066 0.0737774
0.988861 0.3066 0.0737774
0.988861 0.3066 0.0737774
0.988861 0.3066 0.0737774
0.988861 0.3066 0.0737774
0.0298466 0.0557412 0.084947
0.0298466 0.0557412 0.084947
0.0512398 0.0556344 0.0848402
0.108019 0.0614786 0.0879225
0.187976 0.0711376 0.0912184
0.310353 0.0749371 0.0911269
0.49308 0.0255131 0.0740368
0.693721 0.0397345 0.0557412
0.836194 0.152789 0.068986
0.934554 0.246082 0.0723278
0.988861 0.306523 0.0737469
0.988861 0.3066 0.0737774
0.988861 0.3066 0.0737774
0.988861 0.3066 0.0737774
0.988861 0.3066 0.0737774
0.988861 0.3066 0.0737774
0.988861 0.3066 0.0737774
0.0305333 0.0750591 0.0863966
0.0302281 0.0720073 0.0860456
0.0383001 0.0685893 0.0855268
0.0917525 0.0686809 0.0866712
0.17258 0.0742351 0.0905013
0.298329 0.0751965 0.0912795
0.482429 0.0275731 0.0755474
0.687663 0.0392004 0.0552987
0.833051 0.149294 0.0687266
0.932525 0.244327 0.072282
0.988861 0.306493 0.0737469
0.988861 0.3066 0.0737774
0.988861 0.3066 0.0737774
0.988861 0.3066 0.0737774
0.988861 0.3066 0.0737774
0.988861 0.3066 0.0737774
0.988861 0.3066 0.0737774
0.0384222 0.10634 0.0940719
0.0375219 0.102983 0.0929732
0.0366064 0.0993515 0.0918288
0.0750439 0.0959487 0.090547
0.156207 0.100282 0.0919051
0.278126 0.0977188 0.0915389
0.465263 0.0382696 0.0778821
0.680079 0.0385748 0.0547341
0.829511 0.145327 0.0684215
0.930297 0.242405 0.0722515
0.988266 0.305486 0.0737011
0.988861 0.3066 0.0737774
0.988861 0.3066 0.0737774
0.988861 0.3066 0.0737774
0.988861 0.3066 0.0737774
0.988861 0.3066 0.0737774
0.988861 0.3066 0.0737774
0.036408 0.151415 0.106432
0.0370336 0.14876 0.105699
0.0375372 0.146105 0.105013
0.0488746 0.142367 0.103822
0.130022 0.143481 0.102617
0.25037 0.149691 0.0957198
0.438804 0.137285 0.0819104
0.656458 0.061677 0.053193
0.823316 0.138308 0.0678721
0.926177 0.238727 0.0721599
0.986862 0.303059 0.0736706
0.988861 0.3066 0.0737774
0.988861 0.3066 0.0737774
0.988861 0.3066 0.0737774
0.988861 0.3066 0.0737774
0.988861 0.3066 0.0737774
0.988861 0.3066 0.0737774
0.00799573 0.21622 0.125994
0.00881971 0.213748 0.125185
0.00972 0.211215 0.124407
0.0113069 0.208606 0.123629
0.0686046 0.203128 0.12256
0.219791 0.217395 0.119158
0.402197 0.225238 0.0989395
0.626154 0.226627 0.0563211
0.799558 0.238422 0.0684977
0.912596 0.265156 0.0714427
0.984482 0.298939 0.073579
0.988861 0.3066 0.0737774
0.988861 0.3066 0.0737774
0.988861 0.3066 0.0737774
0.988861 0.3066 0.0737774
0.988861 0.3066 0.0737774
0.988861 0.3066 0.0737774
0.00622568 0.31667 0.159091
0.00602731 0.314183 0.158251
0.00582895 0.311818 0.157443
0.00560006 0.309071 0.156512
0.00520333 0.304341 0.15491
0.117906 0.302495 0.153124
0.387228 0.34612 0.143709
0.601221 0.358312 0.0655222
0.7673 0.36817 0.0697948
0.891264 0.38497 0.0726787
0.976699 0.395575 0.0736858
0.991028 0.380346 0.0736553
0.99025 0.353231 0.0733501
0.989563 0.331609 0.0732586
0.989181 0.318273 0.0733654
0.988968 0.310765 0.0735027
0.988861 0.3066 0.0737774
0.0251011 0.460075 0.208774
0.0248112 0.457893 0.20798
0.0245518 0.455863 0.207202
0.0242618 0.453529 0.206348
0.0237125 0.449317 0.204822
0.0289464 0.440681 0.201526
0.238682 0.457816 0.202747
0.602884 0.52694 0.194491
0.752377 0.519402 0.0768444
0.859373 0.508263 0.0756847
0.956039 0.514565 0.0766613
0.995239 0.507591 0.0766766
0.994675 0.490181 0.076112
0.994293 0.477302 0.0757
0.994049 0.468574 0.0754253
0.993881 0.463111 0.075288
0.993759 0.45977 0.0752117
0.0453346 0.618235 0.279835
0.0451667 0.616785 0.27895
0.0449989 0.615335 0.278096
0.0447852 0.613535 0.277134
0.044419 0.610483 0.275502
0.0437934 0.605356 0.272725
0.0798962 0.591363 0.265736
0.458976 0.626596 0.277913
0.740688 0.668757 0.300023
0.846189 0.647166 0.20029
0.929046 0.631174 0.0819409
0.993515 0.625483 0.0821546
0.9944 0.613748 0.0814984
0.995071 0.605142 0.0810254
0.995468 0.599481 0.0807355
0.995712 0.595926 0.0805371
0.995911 0.593744 0.0804303
0.232792 0.747082 0.378485
0.230869 0.74612 0.377523
0.228733 0.745052 0.376486
0.226566 0.743984 0.375433
0.222721 0.742077 0.373526
0.214923 0.738781 0.370398
0.199954 0.733379 0.365576
0.356558 0.72256 0.358129
0.643122 0.751125 0.385992
0.821683 0.769436 0.417151
0.904646 0.746593 0.342809
0.971038 0.733104 0.267552
0.988464 0.724025 0.223072
0.988907 0.717342 0.197055
0.989181 0.712947 0.179934
0.989364 0.710216 0.169314
0.989471 0.708537 0.162814
0.393011 0.843717 0.480507
0.392035 0.843015 0.479713
0.390921 0.842222 0.478843
0.38967 0.841337 0.477852
0.387549 0.839841 0.476219
0.383917 0.837247 0.473381
0.37818 0.833158 0.46891
0.38201 0.824933 0.459434
0.582315 0.825833 0.466133
0.758556 0.8392 0.48513
0.880613 0.842161 0.501823
0.939605 0.823087 0.45301
0.976761 0.813794 0.420783
0.977539 0.808804 0.411612
0.978103 0.805493 0.405524
0.978439 0.803479 0.401816
0.978653 0.802274 0.399588
0.460273 0.895216 0.539452
0.460273 0.895216 0.539452
0.460273 0.895216 0.539452
0.460273 0.895216 0.539452
0.460273 0.895216 0.539452
0.460273 0.895216 0.539452
0.460273 0.895216 0.539452
0.460273 0.895216 0.539452
0.570657 0.89041 0.535286
0.724605 0.89543 0.545876
0.848005 0.897322 0.549264
0.924254 0.888685 0.548836
0.962737 0.875776 0.517342
0.970703 0.870451 0.507195
0.970718 0.867887 0.503716
0.970718 0.86627 0.501534
0.970733 0.865324 0.500252
0.460273 0.895216 0.539452
0.460273 0.895216 0.539452
0.460273 0.895216 0.539452
0.460273 0.895216 0.539452
0.460273 0.895216 0.539452
0.460273 0.895216 0.539452
0.460273 0.895216 0.539452
0.460273 0.895216 0.539452
0.535271 0.896819 0.541253
0.69752 0.907118 0.558343
0.828748 0.91519 0.568673
0.91606 0.914977 0.571939
0.957031 0.904768 0.550729
0.977676 0.899153 0.531945
0.977676 0.899153 0.531945
0.977676 0.899153 0.531945
0.977676 0.899153 0.531945
0.460273 0.895216 0.539452
0.460273 0.895216 0.539452
0.460273 0.895216 0.539452
0.460273 0.895216 0.539452
0.460273 0.895216 0.539452
0.460273 0.895216 0.539452
0.460273 0.895216 0.539452
0.460273 0.895216 0.539452
0.495689 0.89601 0.539864
0.671611 0.90518 0.555428
0.809186 0.914229 0.567681
0.904814 0.917571 0.570306
0.948013 0.907042 0.558328
0.974487 0.900053 0.534936
0.977676 0.899153 0.531945
0.977676 0.899153 0.531945
0.977676 0.899153 0.531945
0.460273 0.895216 0.539452
0.460273 0.895216 0.539452
0.460273 0.895216 0.539452
0.460273 0.895216 0.539452
0.460273 0.895216 0.539452
0.460273 0.895216 0.539452
0.460273 0.895216 0.539452
0.460273 0.895216 0.539452
0.460273 0.895216 0.539452
0.654185 0.903716 0.55314
0.796002 0.913497 0.566827
0.894575 0.917464 0.570062
0.941863 0.908461 0.563119
0.968933 0.90164 0.540154
0.977676 0.899153 0.531945
0.977676 0.899153 0.531945
0.977676 0.899153 0.531945
0.460273 0.895216 0.539452
0.460273 0.895216 0.539452
0.460273 0.895216 0.539452
0.460273 0.895216 0.539452
0.460273 0.895216 0.539452
0.460273 0.895216 0.539452
0.460273 0.895216 0.539452
0.460273 0.895216 0.539452
0.460273 0.895216 0.539452
0.643 0.9028 0.55169
0.787564 0.912978 0.566232
0.888151 0.917388 0.569909
0.938018 0.909361 0.566094
0.965454 0.902586 0.543374
0.977676 0.899153 0.531945
0.977676 0.899153 0.531945
0.977676 0.899153 0.531945
0.460273 0.895216 0.539452
0.460273 0.895216 0.539452
0.460273 0.895216 0.539452
0.460273 0.895216 0.539452
0.460273 0.895216 0.539452
0.460273 0.895216 0.539452
0.460273 0.895216 0.539452
0.460273 0.895216 0.539452
0.460273 0.895216 0.539452
0.636194 0.902266 0.550851
0.782483 0.912749 0.565957
0.884199 0.917327 0.569848
0.935714 0.909911 0.567788
0.963409 0.903136 0.545205
0.977676 0.899153 0.531945
0.977676 0.899153 0.531945
0.977676 0.899153 0.531945
0.0298466 0.0557412 0.084947
0.0298466 0.0557412 0.084947
0.066865 0.0563211 0.085069
0.119539 0.0631571 0.0887312
0.198245 0.0722515 0.0915541
0.320928 0.0738231 0.0907912
0.501793 0.0239109 0.0727703
0.69868 0.040177 0.0560922
0.838758 0.155673 0.0691997
0.936278 0.247547 0.0723583
0.988861 0.306523 0.0737469
0.988861 0.3066 0.0737774
0.988861 0.3066 0.0737774
0.988861 0.3066 0.0737774
0.988861 0.3066 0.0737774
0.988861 0.3066 0.0737774
0.988861 0.3066 0.0737774
0.0298466 0.0557412 0.084947
0.0298466 0.0557412 0.084947
0.0491035 0.0556954 0.0848707
0.105699 0.0611429 0.0877089
0.185992 0.0709087 0.0911421
0.308446 0.0749828 0.0911574
0.491341 0.0258488 0.0742809
0.692699 0.0396429 0.0556649
0.835706 0.152239 0.0689403
0.934249 0.245823 0.0723278
0.988861 0.306493 0.0737469
0.988861 0.3066 0.0737774
0.988861 0.3066 0.0737774
0.988861 0.3066 0.0737774
0.988861 0.3066 0.0737774
0.988861 0.3066 0.0737774
0.988861 0.3066 0.0737774
0.0301671 0.070985 0.0859693
0.0299687 0.0679332 0.0856947
0.0365911 0.0645151 0.0851759
0.0894331 0.0647593 0.0863508
0.171237 0.0705882 0.090486
0.296254 0.0752422 0.09131
0.48069 0.0279088 0.0758068
0.686503 0.0391089 0.0552224
0.832563 0.148714 0.0686809
0.932204 0.244053 0.072282
0.988861 0.306493 0.0737469
0.988861 0.3066 0.0737774
0.988861 0.3066 0.0737774
0.988861 0.3066 0.0737774
0.988861 0.3066 0.0737774
0.988861 0.3066 0.0737774
0.988861 0.3066 0.0737774
0.0371862 0.101793 0.0925917
0.0363622 0.0983902 0.0915999
0.0355688 0.0948653 0.0906386
0.0721141 0.0911269 0.0892653
0.154437 0.0954147 0.0914015
0.276661 0.0931716 0.0914321
0.464988 0.0346227 0.0779278
0.67892 0.0384833 0.0546426
0.829007 0.144778 0.0683757
0.9299 0.242054 0.0722362
0.988174 0.305287 0.0737011
0.988861 0.3066 0.0737774
0.988861 0.3066 0.0737774
0.988861 0.3066 0.0737774
0.988861 0.3066 0.0737774
0.988861 0.3066 0.0737774
0.988861 0.3066 0.0737774
0.0372015 0.147875 0.10547
0.0376898 0.145281 0.104799
0.0381933 0.14255 0.104082
0.0478218 0.138735 0.102846
0.128161 0.139406 0.101518
0.248707 0.145464 0.0952621
0.437446 0.131243 0.0821393
0.656123 0.05832 0.0530709
0.822812 0.137758 0.0678264
0.92578 0.238376 0.0721447
0.98677 0.302892 0.0736706
0.988861 0.3066 0.0737774
0.988861 0.3066 0.0737774
0.988861 0.3066 0.0737774
0.988861 0.3066 0.0737774
0.988861 0.3066 0.0737774
0.988861 0.3066 0.0737774
0.00910964 0.212894 0.124926
0.0101472 0.210513 0.124208
0.0116274 0.208087 0.123476
0.0132143 0.205493 0.122683
0.0670939 0.199741 0.121508
0.217685 0.213443 0.118135
0.398886 0.220859 0.098146
0.625498 0.221073 0.0561227
0.79939 0.232044 0.0683452
0.912703 0.260227 0.0714122
0.984375 0.298772 0.073579
0.988861 0.3066 0.0737774
0.988861 0.3066 0.0737774
0.988861 0.3066 0.0737774
0.988861 0.3066 0.0737774
0.988861 0.3066 0.0737774
0.988861 0.3066 0.0737774
0.00596628 0.313436 0.157992
0.00576791 0.31107 0.157198
0.00555428 0.308583 0.156344
0.0053254 0.305837 0.155428
0.00492866 0.301106 0.153811
0.116197 0.299016 0.152071
0.384451 0.341955 0.14255
0.598505 0.353719 0.0653544
0.767071 0.364385 0.069688
0.891142 0.381262 0.0726024
0.976532 0.392142 0.0736095
0.990921 0.376867 0.0736248
0.990127 0.349462 0.0733196
0.989456 0.327718 0.0732738
0.989075 0.314748 0.0734112
0.988891 0.307561 0.0737011
0.988861 0.3066 0.0737774
0.0247501 0.457313 0.207767
0.0244602 0.455131 0.206943
0.0242008 0.453101 0.206195
0.0238804 0.450629 0.205295
0.0233616 0.446555 0.203815
0.0274052 0.438056 0.200595
0.236042 0.454551 0.201602
0.601938 0.524269 0.193271
0.751232 0.516258 0.0764782
0.859129 0.505821 0.0755932
0.955856 0.512291 0.076585
0.995148 0.505333 0.0766308
0.994583 0.487846 0.0760357
0.994247 0.474861 0.0756237
0.993957 0.466026 0.0753338
0.99379 0.460563 0.075227
0.993698 0.457252 0.0751354
0.0451057 0.616266 0.27863
0.0449226 0.614771 0.27779
0.0447395 0.61326 0.276982
0.0445258 0.61146 0.27602
0.0441596 0.608408 0.274388
0.0435492 0.603281 0.271611
0.0788739 0.589303 0.264607
0.456535 0.624567 0.276585
0.740276 0.667216 0.298894
0.845655 0.645304 0.196567
0.928679 0.629465 0.0815442
0.993637 0.623972 0.0820783
0.994598 0.612161 0.0814069
0.995193 0.60354 0.0809339
0.995575 0.597879 0.0806439
0.995895 0.594263 0.0804608
0.995987 0.592126 0.080354
0.230015 0.745693 0.377111
0.228092 0.744732 0.376165
0.226139 0.74377 0.375219
0.224002 0.742702 0.374166
0.220157 0.740795 0.372274
0.211185 0.737438 0.369192
0.195911 0.731914 0.364263
0.353063 0.720989 0.356695
0.642176 0.749935 0.384695
0.821408 0.768307 0.415961
0.904433 0.745403 0.34078
0.97084 0.731853 0.265049
0.98854 0.722789 0.21828
0.988983 0.716106 0.192248
0.989273 0.711711 0.175128
0.989441 0.70898 0.164523
0.989563 0.707317 0.158007
0.391623 0.842725 0.479393
0.390509 0.841932 0.478508
0.38938 0.841123 0.477638
0.388266 0.84033 0.476768
0.386007 0.838743 0.475013
0.382528 0.836255 0.472282
0.376776 0.832166 0.467811
0.379507 0.824018 0.458457
0.580896 0.824826 0.465019
0.757992 0.838285 0.484123
0.880278 0.841291 0.500862
0.939376 0.822217 0.451789
0.976928 0.812833 0.418997
0.977707 0.807828 0.409827
0.978271 0.804532 0.403738
0.978607 0.802502 0.400031
0.978805 0.801297 0.397803
0.460273 0.895216 0.539452
0.460273 0.895216 0.539452
0.460273 0.895216 0.539452
0.460273 0.895216 0.539452
0.460273 0.895216 0.539452
0.460273 0.895216 0.539452
0.460273 0.895216 0.539452
0.460273 0.895216 0.539452
0.568963 0.889387 0.534096
0.723644 0.894591 0.5449
0.847501 0.896605 0.548501
0.923934 0.88806 0.548257
0.962509 0.875151 0.516701
0.970703 0.869718 0.506203
0.970718 0.867155 0.502724
0.970733 0.865538 0.500542
0.970733 0.864515 0.499153
0.460273 0.895216 0.539452
0.460273 0.895216 0.539452
0.460273 0.895216 0.539452
0.460273 0.895216 0.539452
0.460273 0.895216 0.539452
0.460273 0.895216 0.539452
0.460273 0.895216 0.539452
0.460273 0.895216 0.539452
0.534493 0.896803 0.541222
0.696956 0.907073 0.558282
0.828305 0.915175 0.568658
0.915831 0.915038 0.571893
0.956878 0.904814 0.550866
0.977676 0.899153 0.531945
0.977676 0.899153 0.531945
0.977676 0.899153 0.531945
0.977676 0.899153 0.531945
0.460273 0.895216 0.539452
0.460273 0.895216 0.539452
0.460273 0.895216 0.539452
0.460273 0.895216 0.539452
0.460273 0.895216 0.539452
0.460273 0.895216 0.539452
0.460273 0.895216 0.539452
0.460273 0.895216 0.539452
0.494575 0.895994 0.539818
0.671061 0.905135 0.555352
0.808759 0.914199 0.567651
0.904479 0.917571 0.570306
0.947784 0.907088 0.558495
0.974273 0.900114 0.535134
0.977676 0.899153 0.531945
0.977676 0.899153 0.531945
0.977676 0.899153 0.531945
0.460273 0.895216 0.539452
0.460273 0.895216 0.539452
0.460273 0.895216 0.539452
0.460273 0.895216 0.539452
0.460273 0.895216 0.539452
0.460273 0.895216 0.539452
0.460273 0.895216 0.539452
0.460273 0.895216 0.539452
0.460273 0.895216 0.539452
0.653574 0.903655 0.553048
0.795483 0.913466 0.566796
0.89424 0.917464 0.570062
0.941634 0.908522 0.563287
0.96878 0.901686 0.540307
0.977676 0.899153 0.531945
0.977676 0.899153 0.531945
0.977676 0.899153 0.531945
0.460273 0.895216 0.539452
0.460273 0.895216 0.539452
0.460273 0.895216 0.539452
0.460273 0.895216 0.539452
0.460273 0.895216 0.539452
0.460273 0.895216 0.539452
0.460273 0.895216 0.539452
0.460273 0.895216 0.539452
0.460273 0.895216 0.539452
0.64239 0.902739 0.551598
0.787045 0.912947 0.566201
0.887831 0.917388 0.569909
0.93785 0.909392 0.566232
0.965286 0.902632 0.543526
0.977676 0.899153 0.531945
0.977676 0.899153 0.531945
0.977676 0.899153 0.531945
0.460273 0.895216 0.539452
0.460273 0.895216 0.539452
0.460273 0.895216 0.539452
0.460273 0.895216 0.539452
0.460273 0.895216 0.539452
0.460273 0.895216 0.539452
0.460273 0.895216 0.539452
0.460273 0.895216 0.539452
0.460273 0.895216 0.539452
0.635599 0.90222 0.550759
0.78204 0.912718 0.565927
0.883848 0.917311 0.569848
0.935546 0.909941 0.567849
0.963195 0.903181 0.545403
0.977676 0.899153 0.531945
0.977676 0.899153 0.531945
0.977676 0.899153 0.531945
0.0284123 0.05832 0.0951553
0.0284581 0.0582284 0.094728
0.0637369 0.0581369 0.0940719
0.117296 0.063386 0.0964828
0.195987 0.0729686 0.0983902
0.317571 0.0776684 0.0967117
0.499809 0.0255131 0.0763714
0.697688 0.0400854 0.0563211
0.83827 0.155123 0.0691539
0.935973 0.247288 0.0723583
0.988861 0.306523 0.0737469
0.988861 0.3066 0.0737774
0.988861 0.3066 0.0737774
0.988861 0.3066 0.0737774
0.988861 0.3066 0.0737774
0.988861 0.3066 0.0737774
0.988861 0.3066 0.0737774
0.0286412 0.057908 0.0932937
0.028687 0.0578164 0.0928511
0.046952 0.0576791 0.0923323
0.103288 0.0612345 0.0937667
0.183688 0.0713512 0.0962844
0.305653 0.0773022 0.0948959
0.489448 0.0266117 0.0753338
0.691814 0.0395819 0.0556039
0.835218 0.151705 0.0689097
0.933928 0.245548 0.0723125
0.988861 0.306493 0.0737469
0.988861 0.3066 0.0737774
0.988861 0.3066 0.0737774
0.988861 0.3066 0.0737774
0.988861 0.3066 0.0737774
0.988861 0.3066 0.0737774
0.988861 0.3066 0.0737774
0.0293278 0.0687419 0.0919051
0.0291905 0.0657054 0.0912184
0.0348669 0.0626688 0.0903944
0.0870375 0.0615091 0.0904097
0.170611 0.0696422 0.0939651
0.294011 0.0764935 0.0931868
0.47895 0.0282597 0.076051
0.685512 0.0390326 0.0551461
0.832059 0.148165 0.0686351
0.931899 0.243793 0.072282
0.988861 0.306493 0.0737469
0.988861 0.3066 0.0737774
0.988861 0.3066 0.0737774
0.988861 0.3066 0.0737774
0.988861 0.3066 0.0737774
0.988861 0.3066 0.0737774
0.988861 0.3066 0.0737774
0.0353399 0.0980087 0.0947738
0.0346075 0.0943313 0.09337
0.0338293 0.0904555 0.0919203
0.0686503 0.0864576 0.0902419
0.152468 0.0906691 0.0924239
0.275166 0.089128 0.0915999
0.466392 0.0306554 0.0778058
0.67776 0.0383917 0.0545663
0.828534 0.144183 0.0683146
0.92958 0.241764 0.0722362
0.988037 0.305058 0.0737011
0.988861 0.3066 0.0737774
0.988861 0.3066 0.0737774
0.988861 0.3066 0.0737774
0.988861 0.3066 0.0737774
0.988861 0.3066 0.0737774
0.988861 0.3066 0.0737774
0.0378882 0.144335 0.104585
0.0383612 0.141588 0.103838
0.0388495 0.138857 0.103059
0.0470283 0.134966 0.101839
0.126009 0.1355 0.100481
0.246845 0.141009 0.0947585
0.436133 0.124788 0.0822919
0.655894 0.0552071 0.0530098
0.822324 0.137209 0.0677806
0.925444 0.238056 0.0721447
0.986633 0.302647 0.0736706
0.988861 0.3066 0.0737774
0.988861 0.3066 0.0737774
0.988861 0.3066 0.0737774
0.988861 0.3066 0.0737774
0.988861 0.3066 0.0737774
0.988861 0.3066 0.0737774
0.0106813 0.209659 0.123934
0.0121004 0.207309 0.123232
0.0135958 0.204883 0.122499
0.0151827 0.202289 0.121721
0.0656138 0.196262 0.120424
0.215244 0.209552 0.117113
0.395651 0.216297 0.0973068
0.624689 0.215488 0.0559091
0.799298 0.225589 0.0681621
0.91281 0.254902 0.0714122
0.984253 0.298543 0.073579
0.988861 0.3066 0.0737774
0.988861 0.3066 0.0737774
0.988861 0.3066 0.0737774
0.988861 0.3066 0.0737774
0.988861 0.3066 0.0737774
0.988861 0.3066 0.0737774
0.00569161 0.310201 0.156893
0.00547799 0.307698 0.156054
0.00527962 0.305333 0.155245
0.00505074 0.302602 0.15433
0.004654 0.297749 0.152682
0.11429 0.295323 0.150942
0.381796 0.337804 0.141405
0.595789 0.349142 0.0651102
0.766857 0.360494 0.0695964
0.891035 0.377447 0.0725261
0.976379 0.388632 0.0735332
0.990814 0.373266 0.0735485
0.990021 0.345434 0.0732891
0.989349 0.32372 0.0733349
0.988983 0.311284 0.0734722
0.988861 0.3066 0.0737774
0.988861 0.3066 0.0737774
0.0243687 0.454398 0.206668
0.0241093 0.452369 0.205936
0.0238193 0.450187 0.205142
0.0235294 0.447868 0.204288
0.0229801 0.443641 0.202762
0.0258183 0.435264 0.199573
0.233204 0.451102 0.200397
0.601068 0.52166 0.192142
0.750179 0.513115 0.0760662
0.858976 0.503426 0.0755016
0.955673 0.509834 0.0764935
0.995071 0.503075 0.0765545
0.994537 0.48539 0.0759594
0.994156 0.472313 0.0755474
0.993896 0.463508 0.0753033
0.993713 0.457969 0.0751659
0.993591 0.454551 0.0750744
0.0448615 0.614221 0.277501
0.0446784 0.612696 0.276692
0.04448 0.611032 0.275807
0.0442817 0.609369 0.274907
0.0439002 0.60618 0.273167
0.0432898 0.601053 0.270436
0.0777905 0.587121 0.263401
0.454063 0.6224 0.275196
0.739788 0.665461 0.297414
0.845136 0.643534 0.193149
0.928283 0.627741 0.0814527
0.993759 0.62237 0.0819867
0.994705 0.610559 0.0813153
0.9953 0.601938 0.0808728
0.995697 0.596185 0.0805524
0.995972 0.592554 0.0803693
0.996063 0.590433 0.0802625
0.22742 0.744411 0.375845
0.225498 0.74345 0.374899
0.223575 0.742504 0.373953
0.221225 0.741329 0.372793
0.21648 0.739345 0.370901
0.207111 0.735973 0.36788
0.192172 0.730556 0.363058
0.349508 0.719493 0.355322
0.641215 0.748653 0.383291
0.821118 0.767193 0.414786
0.904204 0.744121 0.338582
0.970733 0.730632 0.262455
0.988617 0.721553 0.213489
0.989059 0.71487 0.187457
0.989349 0.710384 0.170001
0.989532 0.707668 0.15938
0.989639 0.705989 0.15288
0.390082 0.841627 0.478187
0.389105 0.840925 0.477424
0.387991 0.840131 0.476539
0.386709 0.839231 0.475563
0.384619 0.837736 0.47393
0.380987 0.835157 0.471092
0.37525 0.831067 0.466606
0.377005 0.823102 0.45745
0.5794 0.823713 0.463798
0.757412 0.837369 0.483131
0.879988 0.840406 0.499855
0.939223 0.821241 0.450401
0.977081 0.811948 0.417365
0.977874 0.806867 0.408042
0.978424 0.803555 0.401953
0.978775 0.801541 0.398245
0.978973 0.800336 0.396017
0.460273 0.895216 0.539452
0.460273 0.895216 0.539452
0.460273 0.895216 0.539452
0.460273 0.895216 0.539452
0.460273 0.895216 0.539452
0.460273 0.895216 0.539452
0.460273 0.895216 0.539452
0.460273 0.895216 0.539452
0.567346 0.888487 0.533013
0.722637 0.893812 0.544015
0.847074 0.895903 0.547738
0.923613 0.887434 0.547692
0.962219 0.87454 0.516091
0.970718 0.868986 0.505211
0.970718 0.866346 0.50164
0.970733 0.864729 0.499458
0.970733 0.863783 0.498161
0.460273 0.895216 0.539452
0.460273 0.895216 0.539452
0.460273 0.895216 0.539452
0.460273 0.895216 0.539452
0.460273 0.895216 0.539452
0.460273 0.895216 0.539452
0.460273 0.895216 0.539452
0.460273 0.895216 0.539452
0.533715 0.896773 0.541176
0.696437 0.907103 0.558297
0.827878 0.915145 0.568627
0.915602 0.915114 0.571862
0.956649 0.904875 0.551064
0.977676 0.899153 0.531945
0.977676 0.899153 0.531945
0.977676 0.899153 0.531945
0.977615 0.899001 0.531884
0.460273 0.895216 0.539452
0.460273 0.895216 0.539452
0.460273 0.895216 0.539452
0.460273 0.895216 0.539452
0.460273 0.895216 0.539452
0.460273 0.895216 0.539452
0.460273 0.895216 0.539452
0.460273 0.895216 0.539452
0.493446 0.895964 0.539788
0.67042 0.905074 0.555276
0.808316 0.914183 0.56762
0.904158 0.917571 0.570291
0.94757 0.907134 0.558679
0.974105 0.900175 0.535302
0.977676 0.899153 0.531945
0.977676 0.899153 0.531945
0.977676 0.899153 0.531945
0.460273 0.895216 0.539452
0.460273 0.895216 0.539452
0.460273 0.895216 0.539452
0.460273 0.895216 0.539452
0.460273 0.895216 0.539452
0.460273 0.895216 0.539452
0.460273 0.895216 0.539452
0.460273 0.895216 0.539452
0.460273 0.895216 0.539452
0.652888 0.903593 0.552956
0.795041 0.913436 0.566766
0.893904 0.917449 0.570047
0.941466 0.908553 0.563424
0.968551 0.901747 0.540505
0.977676 0.899153 0.531945
0.977676 0.899153 0.531945
0.977676 0.899153 0.531945
0.460273 0.895216 0.539452
0.460273 0.895216 0.539452
0.460273 0.895216 0.539452
0.460273 0.895216 0.539452
0.460273 0.895216 0.539452
0.460273 0.895216 0.539452
0.460273 0.895216 0.539452
0.460273 0.895216 0.539452
0.460273 0.895216 0.539452
0.641794 0.90277 0.551614
0.786618 0.912932 0.566171
0.887404 0.917388 0.569894
0.937621 0.909453 0.566415
0.965072 0.902693 0.54374
0.977676 0.899153 0.531945
0.977676 0.899153 0.531945
0.977676 0.899153 0.531945
0.460273 0.895216 0.539452
0.460273 0.895216 0.539452
0.460273 0.895216 0.539452
0.460273 0.895216 0.539452
0.460273 0.895216 0.539452
0.460273 0.895216 0.539452
0.460273 0.895216 0.539452
0.460273 0.895216 0.539452
0.460273 0.895216 0.539452
0.634928 0.902159 0.550668
0.781521 0.912688 0.565896
0.883513 0.917311 0.569848
0.935317 0.910002 0.567926
0.962966 0.903243 0.545586
0.977676 0.899153 0.531945
0.977676 0.899153 0.531945
0.977676 0.899153 0.531945
0.0264439 0.0609903 0.107393
0.0265812 0.060914 0.107057
0.0604715 0.0608072 0.10602
0.11519 0.0638743 0.107103
0.194949 0.0734874 0.108797
0.313146 0.0831769 0.10988
0.497917 0.0414588 0.0975509
0.697398 0.0407111 0.0629435
0.838392 0.164034 0.0742504
0.935866 0.248722 0.0744945
0.988861 0.306523 0.0737469
0.988861 0.3066 0.0737774
0.988861 0.3066 0.0737774
