public/luts/slog3-santios.cube
TITLE "Generated by Resolve"
LUT_3D_SIZE 5
0.0298466 0.0557412 0.084947
0.200107 0.0724651 0.0916152
0.839246 0.156222 0.0692454
0.988861 0.3066 0.0737774
0.988861 0.3066 0.0737774
0.036408 0.151415 0.106432
0.130022 0.143481 0.102617
0.823316 0.138308 0.0678721
0.988861 0.3066 0.0737774
0.988861 0.3066 0.0737774
0.0453346 0.618235 0.279835
0.044419 0.610483 0.275502
0.740688 0.668757 0.300023
0.9944 0.613748 0.0814984
0.995911 0.593744 0.0804303
0.460273 0.895216 0.539452
0.460273 0.895216 0.539452
0.535271 0.896819 0.541253
0.957031 0.904768 0.550729
0.977676 0.899153 0.531945
0.460273 0.895216 0.539452
0.460273 0.895216 0.539452
0.460273 0.895216 0.539452
0.935714 0.909911 0.567788
0.977676 0.899153 0.531945
0.0165103 0.0658732 0.129976
0.190341 0.0749065 0.12845
0.839216 0.183276 0.0847486
0.988952 0.309071 0.079469
0.988891 0.3075 0.0760967
0.0386053 0.142809 0.132677
0.120027 0.130297 0.126116
0.82266 0.161349 0.0793622
0.988876 0.306889 0.0746471
0.988861 0.3066 0.0737774
0.0440833 0.607706 0.273976
0.043122 0.59968 0.269688
0.738094 0.660304 0.292866
0.995041 0.605646 0.0810559
0.996292 0.585077 0.0799878
0.460273 0.895216 0.539452
0.460273 0.895216 0.539452
0.531334 0.896712 0.541054
0.956039 0.905028 0.551583
0.976989 0.897688 0.531334
0.460273 0.895216 0.539452
0.460273 0.895216 0.539452
0.460273 0.895216 0.539452
0.934646 0.91017 0.56817
0.977676 0.899153 0.531945
0.014374 0.259663 0.647761
0.0606241 0.262547 0.644373
0.751217 0.336553 0.642832
0.945754 0.482429 0.668589
0.946471 0.481773 0.663951
0.0139162 0.253666 0.639231
0.0309911 0.252491 0.636423
0.733028 0.320485 0.632258
0.946746 0.481498 0.662196
0.947555 0.480598 0.657282
0.103334 0.634821 0.62797
0.0849165 0.626856 0.62327
0.628656 0.627787 0.62089
0.969345 0.615335 0.576806
0.970397 0.596994 0.567483
0.498558 0.898924 0.704341
0.497856 0.898848 0.702663
0.536126 0.899474 0.688197
0.938048 0.904997 0.683497
0.962417 0.893843 0.660365
0.488487 0.897993 0.678248
0.48777 0.897932 0.67631
0.484001 0.897658 0.666178
0.923278 0.916304 0.674723
0.971633 0.905394 0.638788
0.0383612 0.474464 0.888426
0.0383612 0.474464 0.888426
0.724956 0.555459 0.897765
0.917327 0.57734 0.89987
0.917327 0.577295 0.89987
0.0383612 0.474464 0.888426
0.0383612 0.474464 0.888426
0.711391 0.554086 0.89749
0.917327 0.577295 0.89987
0.917327 0.577295 0.89987
0.0558938 0.65243 0.90309
0.0554513 0.648188 0.901961
0.623529 0.679118 0.89662
0.918914 0.657465 0.89041
0.918639 0.637095 0.888075
0.380179 0.914839 0.90164
0.380179 0.913939 0.901061
0.379507 0.899718 0.895628
0.879881 0.889403 0.890379
0.925322 0.886137 0.887694
0.385321 0.915984 0.895659
0.385672 0.91606 0.895232
0.38761 0.916487 0.892973
0.864729 0.925841 0.895003
0.929915 0.930877 0.901961
0.0383612 0.474464 0.888426
0.0383612 0.474464 0.888426
0.717906 0.554711 0.897627
0.917327 0.57734 0.89987
0.917327 0.57734 0.89987
0.0383612 0.474464 0.888426
0.0383612 0.474464 0.888426
0.704097 0.553399 0.897337
0.917327 0.57734 0.89987
0.917327 0.57734 0.89987
0.0543679 0.636423 0.902281
0.0540017 0.632685 0.901793
0.618311 0.664805 0.903792
0.919188 0.639445 0.902876
0.918517 0.613489 0.901564
0.253071 0.905165 0.921599
0.252949 0.902754 0.921462
0.248157 0.889464 0.920623
0.876097 0.888899 0.923735
0.923934 0.886778 0.923766
0.253544 0.913725 0.922118
0.253544 0.913725 0.922118
0.253544 0.913725 0.922118
0.86334 0.930922 0.929244
0.926604 0.93431 0.933867
