public/luts/slog3-santios.cube
TITLE "Generated by Resolve"
LUT_3D_SIZE 9
0.0298466 0.0557412 0.084947
0.0702068 0.0565042 0.0850996
0.200107 0.0724651 0.0916152
0.503349 0.024033 0.0724804
0.839246 0.156222 0.0692454
0.988861 0.306523 0.0737469
0.988861 0.3066 0.0737774
0.988861 0.3066 0.0737774
0.988861 0.3066 0.0737774
0.0305333 0.0750591 0.0863966
0.0383001 0.0685893 0.0855268
0.17258 0.0742351 0.0905013
0.482429 0.0275731 0.0755474
0.833051 0.149294 0.0687266
0.988861 0.306493 0.0737469
0.988861 0.3066 0.0737774
0.988861 0.3066 0.0737774
0.988861 0.3066 0.0737774
0.036408 0.151415 0.106432
0.0375372 0.146105 0.105013
0.130022 0.143481 0.102617
0.438804 0.137285 0.0819104
0.823316 0.138308 0.0678721
0.986862 0.303059 0.0736706
0.988861 0.3066 0.0737774
0.988861 0.3066 0.0737774
0.988861 0.3066 0.0737774
0.00622568 0.31667 0.159091
0.00582895 0.311818 0.157443
0.00520333 0.304341 0.15491
0.387228 0.34612 0.143709
0.7673 0.36817 0.0697948
0.976699 0.395575 0.0736858
0.99025 0.353231 0.0733501
0.989181 0.318273 0.0733654
0.988861 0.3066 0.0737774
0.0453346 0.618235 0.279835
0.0449989 0.615335 0.278096
0.044419 0.610483 0.275502
0.0798962 0.591363 0.265736
0.740688 0.668757 0.300023
0.929046 0.631174 0.0819409
0.9944 0.613748 0.0814984
0.995468 0.599481 0.0807355
0.995911 0.593744 0.0804303
0.393011 0.843717 0.480507
0.390921 0.842222 0.478843
0.387549 0.839841 0.476219
0.37818 0.833158 0.46891
0.582315 0.825833 0.466133
0.880613 0.842161 0.501823
0.976761 0.813794 0.420783
0.978103 0.805493 0.405524
0.978653 0.802274 0.399588
0.460273 0.895216 0.539452
0.460273 0.895216 0.539452
0.460273 0.895216 0.539452
0.460273 0.895216 0.539452
0.535271 0.896819 0.541253
0.828748 0.91519 0.568673
0.957031 0.904768 0.550729
0.977676 0.899153 0.531945
0.977676 0.899153 0.531945
0.460273 0.895216 0.539452
0.460273 0.895216 0.539452
0.460273 0.895216 0.539452
0.460273 0.895216 0.539452
0.460273 0.895216 0.539452
0.796002 0.913497 0.566827
0.941863 0.908461 0.563119
0.977676 0.899153 0.531945
0.977676 0.899153 0.531945
0.460273 0.895216 0.539452
0.460273 0.895216 0.539452
0.460273 0.895216 0.539452
0.460273 0.895216 0.539452
0.460273 0.895216 0.539452
0.782483 0.912749 0.565957
0.935714 0.909911 0.567788
0.977676 0.899153 0.531945
0.977676 0.899153 0.531945
0.0284123 0.05832 0.0951553
0.0637369 0.0581369 0.0940719
0.195987 0.0729686 0.0983902
0.499809 0.0255131 0.0763714
0.83827 0.155123 0.0691539
0.988861 0.306523 0.0737469
0.988861 0.3066 0.0737774
0.988861 0.3066 0.0737774
0.988861 0.3066 0.0737774
0.0293278 0.0687419 0.0919051
0.0348669 0.0626688 0.0903944
0.170611 0.0696422 0.0939651
0.47895 0.0282597 0.076051
0.832059 0.148165 0.0686351
0.988861 0.306493 0.0737469
0.988861 0.3066 0.0737774
0.988861 0.3066 0.0737774
0.988861 0.3066 0.0737774
0.0378882 0.144335 0.104585
0.0388495 0.138857 0.103059
0.126009 0.1355 0.100481
0.436133 0.124788 0.0822919
0.822324 0.137209 0.0677806
0.986633 0.302647 0.0736706
0.988861 0.3066 0.0737774
0.988861 0.3066 0.0737774
0.988861 0.3066 0.0737774
0.00569161 0.310201 0.156893
0.00527962 0.305333 0.155245
0.004654 0.297749 0.152682
0.381796 0.337804 0.141405
0.766857 0.360494 0.0695964
0.976379 0.388632 0.0735332
0.990021 0.345434 0.0732891
0.988983 0.311284 0.0734722
0.988861 0.3066 0.0737774
0.0448615 0.614221 0.277501
0.04448 0.611032 0.275807
0.0439002 0.60618 0.273167
0.0777905 0.587121 0.263401
0.739788 0.665461 0.297414
0.928283 0.627741 0.0814527
0.994705 0.610559 0.0813153
0.995697 0.596185 0.0805524
0.996063 0.590433 0.0802625
0.390082 0.841627 0.478187
0.387991 0.840131 0.476539
0.384619 0.837736 0.47393
0.37525 0.831067 0.466606
0.5794 0.823713 0.463798
0.879988 0.840406 0.499855
0.977081 0.811948 0.417365
0.978424 0.803555 0.401953
0.978973 0.800336 0.396017
0.460273 0.895216 0.539452
0.460273 0.895216 0.539452
0.460273 0.895216 0.539452
0.460273 0.895216 0.539452
0.533715 0.896773 0.541176
0.827878 0.915145 0.568627
0.956649 0.904875 0.551064
0.977676 0.899153 0.531945
0.977615 0.899001 0.531884
0.460273 0.895216 0.539452
0.460273 0.895216 0.539452
0.460273 0.895216 0.539452
0.460273 0.895216 0.539452
0.460273 0.895216 0.539452
0.795041 0.913436 0.566766
0.941466 0.908553 0.563424
0.977676 0.899153 0.531945
0.977676 0.899153 0.531945
0.460273 0.895216 0.539452
0.460273 0.895216 0.539452
0.460273 0.895216 0.539452
0.460273 0.895216 0.539452
0.460273 0.895216 0.539452
0.781521 0.912688 0.565896
0.935317 0.910002 0.567926
0.977676 0.899153 0.531945
0.977676 0.899153 0.531945
0.0165103 0.0658732 0.129976
0.047776 0.0657359 0.128145
0.190341 0.0749065 0.12845
0.493828 0.0778668 0.128466
0.839216 0.183276 0.0847486
0.989013 0.311177 0.0838788
0.988952 0.309071 0.079469
0.988907 0.307958 0.0770886
0.988891 0.3075 0.0760967
0.0194247 0.0669566 0.125277
0.0243687 0.0646982 0.124468
0.165087 0.0711681 0.12398
0.47245 0.0791791 0.124804
0.832822 0.174823 0.0825666
0.988983 0.310246 0.0821851
0.988922 0.308217 0.0776989
0.988876 0.307057 0.0750744
0.988861 0.3066 0.0738079
0.0386053 0.142809 0.132677
0.0359045 0.136492 0.129976
0.120027 0.130297 0.126116
0.429145 0.123613 0.119646
0.82266 0.161349 0.0793622
0.987045 0.305791 0.0794842
0.988876 0.306889 0.0746471
0.988861 0.3066 0.0737774
0.988861 0.3066 0.0737774
0.00561532 0.307988 0.171786
0.00517281 0.302586 0.169329
0.00448615 0.294316 0.165667
0.376471 0.329946 0.154223
0.766705 0.350805 0.0733349
0.975982 0.377859 0.0733501
0.989609 0.332799 0.0732433
0.988861 0.3066 0.0737774
0.988861 0.3066 0.0737774
0.0440833 0.607706 0.273976
0.0437018 0.604517 0.272282
0.043122 0.59968 0.269688
0.0744182 0.580835 0.259922
0.738094 0.660304 0.292866
0.927047 0.622126 0.0811475
0.995041 0.605646 0.0810559
0.996033 0.591028 0.080293
0.996292 0.585077 0.0799878
0.385595 0.838437 0.474693
0.383505 0.836942 0.473045
0.380011 0.834455 0.470329
0.370642 0.827787 0.463004
0.574899 0.820386 0.460151
0.879026 0.837629 0.496696
0.977508 0.809033 0.412055
0.978927 0.800656 0.396612
0.979477 0.797345 0.390524
0.460273 0.895216 0.539452
0.460273 0.895216 0.539452
0.460273 0.895216 0.539452
0.460273 0.895216 0.539452
0.531334 0.896712 0.541054
0.826581 0.915084 0.568566
0.956039 0.905028 0.551583
0.977676 0.899153 0.531945
0.976989 0.897688 0.531334
0.460273 0.895216 0.539452
0.460273 0.895216 0.539452
0.460273 0.895216 0.539452
0.460273 0.895216 0.539452
0.460273 0.895216 0.539452
0.793561 0.913344 0.566659
0.940795 0.908721 0.563943
0.977676 0.899153 0.531945
0.977676 0.899153 0.531945
0.460273 0.895216 0.539452
0.460273 0.895216 0.539452
0.460273 0.895216 0.539452
0.460273 0.895216 0.539452
0.460273 0.895216 0.539452
0.780056 0.912612 0.565789
0.934646 0.91017 0.56817
0.977676 0.899153 0.531945
0.977676 0.899153 0.531945
0.00263981 0.107164 0.310399
0.0112612 0.106386 0.30753
0.0726787 0.107607 0.296559
0.453925 0.11957 0.298466
0.820813 0.23006 0.296605
0.990509 0.345846 0.202548
0.990173 0.341085 0.161303
0.990021 0.338598 0.142367
0.98996 0.337636 0.13492
0.00250248 0.104921 0.302571
0.00247196 0.104448 0.300801
0.052903 0.105348 0.289967
0.431205 0.117372 0.290257
0.81442 0.223392 0.288716
0.990356 0.343801 0.182986
0.990066 0.339269 0.147478
0.989914 0.336782 0.129595
0.989883 0.335912 0.128481
0.00222782 0.1467 0.28481
0.002121 0.139269 0.283436
0.0373388 0.127214 0.275807
0.394339 0.114534 0.276905
0.804501 0.212924 0.276417
0.988586 0.339178 0.164721
0.989899 0.336477 0.129198
0.989822 0.334295 0.12636
0.989807 0.333471 0.125307
0.00943008 0.324712 0.300114
0.0089723 0.318898 0.296666
0.00823987 0.309865 0.291203
0.321111 0.314107 0.282612
0.75671 0.346166 0.243381
0.97734 0.377279 0.122454
0.98967 0.329839 0.120195
0.989609 0.328115 0.117296
0.989578 0.327413 0.116152
0.0451209 0.611887 0.358724
0.04477 0.608759 0.355978
0.0441749 0.6038 0.351263
0.0679332 0.585168 0.335058
0.72813 0.65388 0.365667
0.926329 0.615869 0.114366
0.996353 0.59939 0.103563
0.997497 0.583566 0.100359
0.997909 0.577157 0.0991073
0.384512 0.834989 0.490639
0.382116 0.833295 0.48835
0.378439 0.830701 0.484825
0.36817 0.823529 0.475166
0.566583 0.814267 0.466285
0.877043 0.83125 0.496498
0.978851 0.801053 0.39736
0.980285 0.792462 0.381323
0.980835 0.788937 0.374228
0.460273 0.895216 0.539452
0.460273 0.895216 0.539452
0.460273 0.895216 0.539452
0.460273 0.895216 0.539452
0.524575 0.896559 0.540764
0.822858 0.9149 0.568399
0.95433 0.90547 0.553079
0.975845 0.89543 0.530465
0.975097 0.893858 0.529824
0.460273 0.895216 0.539452
0.460273 0.895216 0.539452
0.460273 0.895216 0.539452
0.460273 0.895216 0.539452
0.460273 0.895216 0.539452
0.789654 0.913115 0.566384
0.938979 0.909133 0.565347
0.977676 0.899153 0.531945
0.977676 0.899153 0.531945
0.460273 0.895216 0.539452
0.460273 0.895216 0.539452
0.460273 0.895216 0.539452
0.460273 0.895216 0.539452
0.460273 0.895216 0.539452
0.775967 0.912352 0.565499
0.932784 0.910643 0.568841
0.977523 0.899199 0.532097
0.977676 0.899153 0.531945
0.014374 0.259663 0.647761
0.0143282 0.259083 0.646967
0.0606241 0.262547 0.644373
0.322118 0.271366 0.640223
0.751217 0.336553 0.642832
0.941802 0.480552 0.673289
0.945754 0.482429 0.668589
0.946288 0.481941 0.665156
0.946471 0.481773 0.663951
0.0141756 0.257191 0.644358
0.0141451 0.256687 0.643687
0.0509041 0.25864 0.64126
0.28835 0.267735 0.636423
0.744656 0.330159 0.638636
0.939208 0.477211 0.669169
0.946151 0.482078 0.666026
0.94667 0.481575 0.662669
0.946883 0.481361 0.661311
0.0139162 0.253666 0.639231
0.0138705 0.253193 0.638514
0.0309911 0.252491 0.636423
0.229145 0.262943 0.630289
0.733028 0.320485 0.632258
0.935454 0.47187 0.662684
0.946746 0.481498 0.662196
0.94728 0.48098 0.658747
0.947555 0.480598 0.657282
0.0216068 0.403983 0.627588
0.0211185 0.398688 0.626307
0.0204471 0.390463 0.62446
0.114199 0.37464 0.611582
0.689387 0.357763 0.606348
0.924865 0.455665 0.643473
0.949691 0.476661 0.647929
0.950957 0.474327 0.64242
0.9514 0.473487 0.640436
0.103334 0.634821 0.62797
0.0943618 0.631403 0.625895
0.0849165 0.626856 0.62327
0.0667582 0.613687 0.615549
0.628656 0.627787 0.62089
0.884733 0.624125 0.5888
0.969345 0.615335 0.576806
0.970108 0.602243 0.570123
0.970397 0.596994 0.567483
0.428046 0.827939 0.683452
0.426993 0.826398 0.682155
0.425559 0.824079 0.680049
0.421637 0.817655 0.674083
0.55639 0.796063 0.642588
0.842512 0.82385 0.678187
0.962066 0.801144 0.610483
0.96376 0.791852 0.596139
0.96437 0.788174 0.590555
0.498558 0.898924 0.704341
0.498238 0.898894 0.703563
0.497856 0.898848 0.702663
0.496635 0.898726 0.69958
0.536126 0.899474 0.688197
0.801938 0.916197 0.695155
0.938048 0.904997 0.683497
0.962692 0.895842 0.663218
0.962417 0.893843 0.660365
0.491295 0.898207 0.68574
0.49099 0.898177 0.684993
0.490547 0.898131 0.683803
0.489418 0.898054 0.680751
0.486824 0.897871 0.673869
0.771206 0.913695 0.676738
0.928588 0.915328 0.680064
0.970657 0.906035 0.647791
0.970855 0.905913 0.646082
0.488487 0.897993 0.678248
0.488197 0.897963 0.677516
0.48777 0.897932 0.67631
0.486625 0.897856 0.673259
0.484001 0.897658 0.666178
0.758526 0.912612 0.669276
0.923278 0.916304 0.674723
0.969162 0.906065 0.642115
0.971633 0.905394 0.638788
0.0290074 0.409735 0.82324
0.0289769 0.4094 0.822873
0.0511788 0.409918 0.822141
0.406332 0.452903 0.826581
0.711696 0.484627 0.829755
0.90898 0.528664 0.825254
0.917296 0.530892 0.821546
0.917357 0.529961 0.819623
0.917372 0.52961 0.818891
0.0288396 0.408347 0.821805
0.028809 0.408087 0.821546
0.0362402 0.407233 0.820645
0.374212 0.448142 0.824887
0.704662 0.482246 0.828046
0.906004 0.526558 0.823972
0.917342 0.530175 0.820081
0.917403 0.52929 0.81825
0.917418 0.528862 0.817411
0.0286259 0.406317 0.819669
0.0285801 0.406104 0.819486
0.0285191 0.4056 0.818952
0.309575 0.440238 0.821927
0.693538 0.478691 0.825589
0.901381 0.523125 0.821698
0.917403 0.529168 0.817975
0.917464 0.528115 0.815854
0.917494 0.527749 0.815122
0.0315709 0.452064 0.813474
0.0308995 0.44654 0.812894
0.0298466 0.437705 0.812039
0.102327 0.427024 0.809384
0.659739 0.468071 0.818311
0.887587 0.5131 0.815579
0.917586 0.52604 0.811627
0.917647 0.525017 0.809522
0.917678 0.524681 0.808881
0.0543679 0.660609 0.816922
0.0541238 0.658488 0.816388
0.0537575 0.655238 0.815595
0.052781 0.645869 0.813306
0.604288 0.654719 0.807477
0.841123 0.646815 0.801816
0.921721 0.650813 0.801343
0.921843 0.637583 0.798047
0.92195 0.632212 0.796811
0.366613 0.82269 0.819059
0.365621 0.821439 0.81857
0.364034 0.819425 0.817777
0.359716 0.813825 0.815412
0.517891 0.798611 0.805417
0.791287 0.802625 0.808286
0.927199 0.798779 0.800015
0.933425 0.79324 0.798474
0.933288 0.790631 0.797589
0.414023 0.918975 0.84152
0.414191 0.918959 0.841291
0.414496 0.918914 0.840879
0.415229 0.918791 0.839857
0.434012 0.916228 0.835447
0.758053 0.894087 0.822324
0.901549 0.900664 0.836118
0.935515 0.893385 0.822705
0.935637 0.891142 0.820645
0.419272 0.91809 0.834806
0.419547 0.918044 0.834501
0.419913 0.917983 0.834058
0.420905 0.9178 0.832898
0.423041 0.917418 0.830365
0.741573 0.913771 0.826215
0.892973 0.924666 0.837186
0.940108 0.921431 0.829999
0.943465 0.920928 0.828077
0.421637 0.917678 0.832029
0.421851 0.917632 0.831785
0.422263 0.917556 0.831281
0.423255 0.917388 0.830121
0.425422 0.916991 0.827527
0.729717 0.91342 0.823224
0.884901 0.92401 0.833265
0.9355 0.921767 0.828962
0.943938 0.920562 0.825132
0.0383612 0.474464 0.888426
0.0383612 0.474464 0.888426
0.0383612 0.474464 0.888426
0.476646 0.51809 0.895109
0.724956 0.555459 0.897765
0.903258 0.575265 0.900053
0.917327 0.57734 0.89987
0.917327 0.577295 0.89987
0.917327 0.577295 0.89987
0.0383612 0.474464 0.888426
0.0383612 0.474464 0.888426
0.0383612 0.474464 0.888426
0.45658 0.515053 0.895048
0.719615 0.55491 0.897658
0.899748 0.574777 0.900084
0.917327 0.57734 0.89987
0.917327 0.577295 0.89987
0.917327 0.577295 0.89987
0.0383612 0.474464 0.888426
0.0383612 0.474464 0.888426
0.0383612 0.474464 0.888426
0.421393 0.510216 0.894957
0.711391 0.554086 0.89749
0.894301 0.574014 0.90013
0.917327 0.577295 0.89987
0.917327 0.577295 0.89987
0.917327 0.577295 0.89987
0.0383612 0.474464 0.888426
0.0383612 0.474464 0.888426
0.0383612 0.474464 0.888426
0.264851 0.494942 0.893553
0.687617 0.551766 0.897002
0.87895 0.571817 0.900206
0.917327 0.577264 0.89987
0.917327 0.577264 0.89987
0.917327 0.577234 0.89987
0.0558938 0.65243 0.90309
0.0557259 0.650752 0.902617
0.0554513 0.648188 0.901961
0.0547646 0.64155 0.900099
0.623529 0.679118 0.89662
0.835111 0.671611 0.894896
0.918914 0.657465 0.89041
0.9187 0.643137 0.888747
0.918639 0.637095 0.888075
0.231739 0.819821 0.902876
0.231266 0.818647 0.902571
0.231678 0.816815 0.902022
0.233036 0.811749 0.90071
0.458427 0.800763 0.894545
0.782422 0.808957 0.889632
0.909972 0.806119 0.886717
0.92015 0.801328 0.88455
0.920027 0.798489 0.88365
0.380179 0.914839 0.90164
0.380316 0.91487 0.901473
0.380179 0.913939 0.901061
0.379431 0.909636 0.899535
0.379507 0.899718 0.895628
0.737224 0.889525 0.887892
0.879881 0.889403 0.890379
0.925338 0.888182 0.888579
0.925322 0.886137 0.887694
0.383886 0.915648 0.897353
0.384054 0.915694 0.897154
0.384283 0.91574 0.896895
0.384878 0.915877 0.896162
0.38616 0.916167 0.894667
0.712764 0.924285 0.89485
0.872435 0.926543 0.897505
0.922759 0.927504 0.902937
0.928618 0.925948 0.901198
0.385321 0.915984 0.895659
0.385458 0.916014 0.895491
0.385672 0.91606 0.895232
0.386297 0.916197 0.894514
0.38761 0.916487 0.892973
0.698436 0.923949 0.892851
0.864729 0.925841 0.895003
0.919829 0.9308 0.903166
0.929915 0.930877 0.901961
0.0383612 0.474464 0.888426
0.0383612 0.474464 0.888426
0.0383612 0.474464 0.888426
0.457496 0.515221 0.895064
0.719844 0.554925 0.897673
0.899901 0.574792 0.900084
0.917327 0.57734 0.89987
0.917327 0.57734 0.89987
0.917327 0.57734 0.89987
0.0383612 0.474464 0.888426
0.0383612 0.474464 0.888426
0.0383612 0.474464 0.888426
0.435431 0.512078 0.895003
0.714534 0.554406 0.897551
0.896376 0.574289 0.90013
0.917327 0.57734 0.89987
0.917327 0.57734 0.89987
0.917327 0.57734 0.89987
0.0383612 0.474464 0.888426
0.0383612 0.474464 0.888426
0.0383612 0.474464 0.888426
0.395987 0.507103 0.894881
0.706172 0.553582 0.897383
0.890929 0.573541 0.900145
0.917327 0.57734 0.89987
0.917327 0.57734 0.89987
0.917327 0.57734 0.89987
0.0383612 0.474464 0.888426
0.0383612 0.474464 0.888426
0.0383612 0.474464 0.888426
0.186053 0.489815 0.891951
0.682078 0.551217 0.89688
0.875486 0.571389 0.900206
0.917327 0.57734 0.89987
0.917327 0.57734 0.89987
0.917327 0.57734 0.89987
0.0548257 0.640772 0.902861
0.0546883 0.639384 0.902678
0.0544442 0.637201 0.902388
0.0537881 0.630945 0.901564
0.621454 0.670771 0.904204
0.832578 0.664866 0.904875
0.919356 0.647501 0.903334
0.91899 0.631388 0.902419
0.918776 0.624216 0.902052
0.0692149 0.80824 0.913848
0.0691234 0.80705 0.913771
0.0689555 0.805142 0.913664
0.0685435 0.799863 0.913359
0.386892 0.791379 0.915129
0.785107 0.812406 0.915007
0.909072 0.808118 0.915099
0.92224 0.803464 0.914076
0.922179 0.800931 0.913848
0.253208 0.90811 0.921782
0.253162 0.907195 0.921721
0.253101 0.905699 0.921645
0.252872 0.901656 0.921401
0.249989 0.892561 0.920821
0.722332 0.888502 0.922683
0.877104 0.8907 0.922042
0.923873 0.890547 0.921523
0.923796 0.888502 0.920821
0.253544 0.913725 0.922118
0.253544 0.913725 0.922118
0.253544 0.913725 0.922118
0.253544 0.913725 0.922118
0.253513 0.913725 0.922118
0.698421 0.922591 0.921141
0.869718 0.925277 0.923323
0.916304 0.924102 0.924681
0.925109 0.923552 0.924483
0.253544 0.913725 0.922118
0.253544 0.913725 0.922118
0.253544 0.913725 0.922118
0.253513 0.913725 0.922118
0.253513 0.913725 0.922118
0.683528 0.921798 0.918929
0.864271 0.930098 0.922942
0.914549 0.932647 0.92604
0.927016 0.9337 0.927123
0.0383612 0.474464 0.888426
0.0383612 0.474464 0.888426
0.0383612 0.474464 0.888426
0.449485 0.514076 0.895033
0.717906 0.554711 0.897627
0.898604 0.574624 0.900099
0.917327 0.57734 0.89987
0.917327 0.57734 0.89987
0.917327 0.57734 0.89987
0.0383612 0.474464 0.888426
0.0383612 0.474464 0.888426
0.0383612 0.474464 0.888426
0.426886 0.510887 0.894972
0.712535 0.554192 0.89752
0.895079 0.574121 0.90013
0.917327 0.57734 0.89987
0.917327 0.57734 0.89987
0.917327 0.57734 0.89987
0.0383612 0.474464 0.888426
0.0383612 0.474464 0.888426
0.0383612 0.474464 0.888426
0.385702 0.505867 0.89485
0.704097 0.553399 0.897337
0.889632 0.573358 0.90016
0.917327 0.57734 0.89987
0.917327 0.57734 0.89987
0.917327 0.57734 0.89987
0.0383612 0.474464 0.888426
0.0383612 0.474464 0.888426
0.0383612 0.474464 0.888426
0.150637 0.487465 0.89099
0.679881 0.551003 0.896834
0.874098 0.571206 0.900206
0.917327 0.57734 0.89987
0.917327 0.57734 0.89987
0.917327 0.57734 0.89987
0.0543679 0.636423 0.902281
0.0542306 0.634989 0.902083
0.0540017 0.632685 0.901793
0.0532998 0.626078 0.900954
0.618311 0.664805 0.903792
0.830976 0.658091 0.904494
0.919188 0.639445 0.902876
0.91873 0.621683 0.901946
0.918517 0.613489 0.901564
0.0688945 0.804471 0.913619
0.0688029 0.80322 0.913558
0.0686503 0.801312 0.913436
0.0682078 0.795956 0.913115
0.375006 0.787243 0.914885
0.78378 0.809323 0.914672
0.907866 0.804623 0.914794
0.922164 0.800046 0.913756
0.922103 0.797467 0.913512
0.253071 0.905165 0.921599
0.253025 0.904189 0.921553
0.252949 0.902754 0.921462
0.25272 0.89865 0.921218
0.248157 0.889464 0.920623
0.719234 0.885573 0.922393
0.876097 0.888899 0.923735
0.923995 0.888716 0.924056
0.923934 0.886778 0.923766
0.253544 0.913725 0.922118
0.253544 0.913725 0.922118
0.253544 0.913725 0.922118
0.253544 0.913725 0.922118
0.253544 0.913725 0.922118
0.69279 0.922545 0.925139
0.867491 0.923751 0.928222
0.914229 0.922225 0.92929
0.924727 0.922545 0.930388
0.253544 0.913725 0.922118
0.253544 0.913725 0.922118
0.253544 0.913725 0.922118
0.253544 0.913725 0.922118
0.253544 0.913725 0.922118
0.675608 0.921859 0.924865
0.86334 0.930922 0.929244
0.913481 0.933303 0.932723
0.926604 0.93431 0.933867
