public/luts/teal.cube
TITLE "Generated by Resolve"
LUT_3D_SIZE 9
0.0112917 0.0153201 0.0173953
0.0719463 0.0187533 0.0208591
0.184176 0.0358434 0.0329747
0.332692 0.0563211 0.0489357
0.513649 0.0778821 0.0874342
0.70956 0.108675 0.161318
0.896376 0.141299 0.250294
0.953674 0.156741 0.35198
0.945129 0.178973 0.493767
0.0109407 0.0741741 0.018204
0.0487526 0.0644999 0.0193027
0.170001 0.0594949 0.0279698
0.322011 0.0551308 0.0376287
0.507485 0.0790112 0.0643931
0.703929 0.108217 0.142626
0.892302 0.140429 0.241001
0.953872 0.155947 0.346014
0.945464 0.178561 0.490349
0.0135805 0.168872 0.0274968
0.0131533 0.162463 0.0267796
0.143755 0.156573 0.0296025
0.314977 0.145571 0.0347906
0.494835 0.0999161 0.0582284
0.696284 0.110384 0.0961624
0.883574 0.13901 0.218738
0.953796 0.154269 0.332128
0.946197 0.17763 0.482948
0.029572 0.284886 0.0436713
0.0289158 0.280964 0.0430762
0.067277 0.277913 0.0395361
0.289281 0.270497 0.0391546
0.505638 0.254231 0.0595865
0.691341 0.214237 0.0905165
0.867002 0.139483 0.146777
0.945586 0.151797 0.299687
0.947799 0.175341 0.466163
0.057084 0.428489 0.0719921
0.0565652 0.426001 0.0714427
0.0554665 0.420798 0.0702678
0.202075 0.427924 0.0650034
0.483528 0.429557 0.0625162
0.700893 0.401129 0.0890669
0.865904 0.352361 0.106035
0.940139 0.147066 0.226627
0.951125 0.169253 0.425101
0.0951705 0.600473 0.103517
0.0947127 0.598901 0.10309
0.0938582 0.595697 0.102266
0.0923629 0.588785 0.100832
0.390036 0.599069 0.104021
0.669139 0.61941 0.0939803
0.854231 0.564508 0.101228
0.979934 0.499626 0.0987106
0.956924 0.227878 0.323293
0.132876 0.767056 0.135363
0.132815 0.765637 0.135424
0.132677 0.762829 0.135531
0.13254 0.756802 0.135729
0.266468 0.761563 0.133776
0.586343 0.788998 0.12784
0.7991 0.798154 0.124941
0.949966 0.727062 0.118181
0.98793 0.639551 0.109407
0.143816 0.90486 0.146639
0.143816 0.90486 0.146639
0.143816 0.90486 0.146639
0.143816 0.90486 0.146639
0.222309 0.910063 0.147707
0.536843 0.934096 0.153323
0.748455 0.94461 0.150698
0.901411 0.938216 0.146502
0.987671 0.877272 0.135973
0.143816 0.90486 0.146639
0.143816 0.90486 0.146639
0.165682 0.905547 0.146868
0.290227 0.91487 0.148562
0.434531 0.926696 0.151141
0.592111 0.937881 0.153384
0.747967 0.945861 0.150958
0.87631 0.952483 0.14934
0.969223 0.950393 0.145922
0.0110018 0.0197757 0.076112
0.0702525 0.0211337 0.0799115
0.183795 0.034287 0.0899672
0.331075 0.0504921 0.10367
0.514733 0.0744335 0.136217
0.71194 0.108782 0.193454
0.896971 0.141558 0.268605
0.953155 0.158618 0.365469
0.944335 0.17995 0.501488
0.0110475 0.0637827 0.0547951
0.0453346 0.0538491 0.0558175
0.165331 0.0465095 0.0641794
0.317266 0.0508583 0.079118
0.50312 0.0720684 0.117388
0.705486 0.107652 0.180255
0.893141 0.140749 0.260624
0.953414 0.157809 0.359762
0.944686 0.179522 0.498131
0.013138 0.161639 0.0267033
0.0129244 0.155108 0.0260624
0.139696 0.148516 0.0288396
0.310658 0.137636 0.0350652
0.491798 0.0901045 0.0687266
0.691478 0.105577 0.145815
0.884199 0.138842 0.241886
0.953826 0.15613 0.347356
0.945403 0.178637 0.490944
0.028748 0.280217 0.0429236
0.0281071 0.276249 0.0423285
0.0635843 0.272618 0.0390173
0.285695 0.264759 0.0387121
0.502663 0.248829 0.0590066
0.688685 0.205921 0.0904555
0.864759 0.136294 0.189715
0.951873 0.152667 0.316564
0.94699 0.176532 0.474739
0.0564279 0.425361 0.0713054
0.0558938 0.422827 0.0707408
0.0547799 0.417548 0.0694438
0.198398 0.424109 0.064271
0.480903 0.424872 0.0618448
0.699199 0.396979 0.0889143
0.864286 0.347845 0.106142
0.941512 0.147997 0.248661
0.95053 0.171008 0.434745
0.0945754 0.598352 0.102968
0.0941634 0.596811 0.102571
0.0933089 0.593484 0.101747
0.0918441 0.586404 0.100328
0.38819 0.596521 0.103517
0.66804 0.616373 0.0935531
0.853223 0.561639 0.10103
0.979736 0.496742 0.0985428
0.956954 0.225071 0.337987
0.132769 0.765042 0.135439
0.132723 0.763714 0.1355
0.13257 0.76083 0.135576
0.132479 0.754711 0.135775
0.265064 0.759289 0.133974
0.585687 0.787091 0.127474
0.798627 0.796551 0.124697
0.949615 0.724773 0.11783
0.987854 0.637461 0.109209
0.143816 0.90486 0.146639
0.143816 0.90486 0.146639
0.143816 0.90486 0.146639
0.143816 0.90486 0.146639
0.221714 0.910018 0.147692
0.536446 0.934066 0.153338
0.748135 0.943877 0.150576
0.901061 0.937285 0.146349
0.987671 0.875532 0.13576
0.143816 0.90486 0.146639
0.143816 0.90486 0.146639
0.166064 0.905562 0.146883
0.290501 0.914885 0.148562
0.434592 0.926696 0.151141
0.59205 0.937865 0.153384
0.74786 0.945861 0.150958
0.876173 0.952468 0.149325
0.96907 0.950469 0.145937
0.0115053 0.0308537 0.160464
0.0610361 0.0307469 0.160998
0.181094 0.0388952 0.170184
0.335241 0.0577859 0.180301
0.528939 0.0791943 0.202823
0.717266 0.109804 0.241093
0.90135 0.142458 0.301915
0.952483 0.1626 0.390677
0.942779 0.181949 0.516793
0.0115358 0.052903 0.148684
0.0397803 0.0445106 0.149081
0.164782 0.0359655 0.156252
0.322606 0.0552834 0.166812
0.519188 0.0767529 0.189715
0.709255 0.108537 0.230762
0.894621 0.141436 0.293462
0.952651 0.161624 0.385473
0.943099 0.181521 0.513588
0.0119631 0.149279 0.131975
0.0118868 0.142 0.131411
0.117174 0.131853 0.13521
0.299214 0.115419 0.136507
0.495979 0.0719921 0.159747
0.696132 0.106004 0.209583
0.885237 0.139223 0.278676
0.952926 0.159976 0.374533
0.943801 0.180636 0.506737
0.0265049 0.270085 0.0460212
0.0256657 0.265965 0.046479
0.0547036 0.261082 0.0465095
0.277363 0.253422 0.0520485
0.494362 0.237675 0.0835431
0.679713 0.18201 0.154528
0.866026 0.135271 0.242115
0.953796 0.156329 0.34873
0.945357 0.178683 0.491447
0.0549477 0.418326 0.0696574
0.0544594 0.415778 0.0690318
0.0533455 0.410391 0.067689
0.18999 0.415549 0.0626383
0.474861 0.414542 0.0603647
0.695583 0.388739 0.0885481
0.860975 0.338598 0.106355
0.944442 0.150546 0.28426
0.948867 0.173678 0.453941
0.09337 0.593637 0.101808
0.0930037 0.591928 0.101442
0.092256 0.588403 0.10074
0.0907912 0.581231 0.0993057
0.384115 0.591073 0.102327
0.665644 0.609812 0.092546
0.85098 0.555291 0.100572
0.979324 0.490959 0.0986343
0.95584 0.218357 0.364233
0.132601 0.760739 0.135607
0.13257 0.759289 0.135653
0.132525 0.756191 0.13576
0.132448 0.750057 0.135958
0.261769 0.754192 0.134386
0.584161 0.783062 0.126741
0.797406 0.792493 0.124086
0.948821 0.719722 0.117037
0.987716 0.633387 0.108797
0.143816 0.90486 0.146639
0.143816 0.90486 0.146639
0.143816 0.90486 0.146639
0.143816 0.90486 0.146639
0.22034 0.909911 0.147677
0.535622 0.934005 0.153323
0.747402 0.94229 0.150362
0.900236 0.935012 0.146044
0.987671 0.871702 0.135302
0.143816 0.90486 0.146639
0.143816 0.90486 0.146639
0.166827 0.905608 0.146883
0.291081 0.914931 0.148562
0.434714 0.926711 0.151156
0.591913 0.937865 0.153384
0.74757 0.945846 0.150973
0.875853 0.952422 0.14931
0.968734 0.950622 0.145968
0.0129244 0.0485237 0.263539
0.0500649 0.0480812 0.263081
0.151339 0.0489204 0.268315
0.330922 0.0670634 0.273945
0.532006 0.0849165 0.286839
0.723857 0.115206 0.317784
0.904311 0.150103 0.366842
0.950286 0.17145 0.437873
0.939818 0.185687 0.545388
0.0127565 0.0469673 0.255039
0.0302739 0.0467842 0.254932
0.136172 0.0472725 0.258671
0.318624 0.0646525 0.265629
0.523278 0.0836042 0.279286
0.718654 0.113893 0.310948
0.900786 0.148501 0.36054
0.950668 0.170779 0.433112
0.940124 0.185321 0.542519
0.0136263 0.13077 0.24416
0.0135042 0.123949 0.243549
0.101961 0.113924 0.248646
0.293416 0.0899367 0.250614
0.504952 0.0806592 0.262654
0.707301 0.111376 0.295842
0.89305 0.145083 0.346563
0.951247 0.168826 0.42298
0.940764 0.184497 0.536309
0.0181735 0.25803 0.234592
0.017792 0.2533 0.23357
0.0340429 0.245228 0.232853
0.221073 0.241321 0.244709
0.478737 0.213947 0.236255
0.687892 0.147921 0.263233
0.875425 0.137774 0.31487
0.952224 0.164446 0.400397
0.942199 0.182681 0.522423
0.0467842 0.402686 0.119387
0.0461585 0.400046 0.119554
0.0448768 0.394537 0.120104
0.158129 0.403021 0.118166
0.45948 0.399252 0.127474
0.683268 0.375738 0.171664
0.848951 0.306508 0.251225
0.953796 0.156298 0.348608
0.945602 0.178378 0.48893
0.090898 0.581842 0.0994125
0.0905318 0.580072 0.0990463
0.0897383 0.576394 0.0982681
0.0881819 0.568994 0.0967575
0.374289 0.578241 0.0997024
0.660182 0.593652 0.0904707
0.846601 0.542718 0.0997635
0.977417 0.485588 0.198428
0.953841 0.202365 0.406302
0.132448 0.750332 0.135958
0.132418 0.748775 0.136004
0.132357 0.745632 0.136095
0.132265 0.739361 0.136309
0.253666 0.74226 0.135378
0.58056 0.773678 0.124926
0.794568 0.782879 0.122576
0.947021 0.708873 0.115419
0.987472 0.629755 0.187854
0.143816 0.90486 0.146639
0.143816 0.90486 0.146639
0.143816 0.90486 0.146639
0.143816 0.90486 0.146639
0.216632 0.909651 0.147631
0.533562 0.933867 0.153338
0.745769 0.938659 0.149767
0.898512 0.929473 0.14519
0.987671 0.862974 0.134432
0.143816 0.90486 0.146639
0.143816 0.90486 0.146639
0.168215 0.905699 0.146899
0.292088 0.915022 0.148592
0.434897 0.926726 0.151156
0.591577 0.937835 0.153384
0.746944 0.945815 0.150988
0.875135 0.952392 0.149355
0.968002 0.950973 0.146044
0.0168002 0.0716411 0.386007
0.0375982 0.0714275 0.385626
0.137804 0.0699016 0.384558
0.288548 0.0777447 0.392325
0.531319 0.0991684 0.389303
0.720134 0.124605 0.409186
0.897505 0.162615 0.454231
0.943053 0.181567 0.513939
0.934844 0.193973 0.596002
0.0165713 0.0706645 0.380804
0.0193942 0.070634 0.380743
0.123095 0.0691234 0.379187
0.274952 0.074464 0.386709
0.522805 0.0974746 0.384237
0.715038 0.123171 0.404227
0.894179 0.161334 0.449042
0.94342 0.181094 0.510307
0.935058 0.193454 0.593332
0.0169833 0.0984665 0.37258
0.0167239 0.0900435 0.37171
0.0890822 0.0718242 0.368719
0.245853 0.0692302 0.375769
0.504509 0.0945296 0.373953
0.70396 0.119997 0.393576
0.886732 0.158495 0.43801
0.944259 0.180072 0.502358
0.935546 0.192325 0.587579
0.0217899 0.233051 0.367926
0.0215305 0.228824 0.366934
0.0226139 0.220142 0.365164
0.188373 0.216709 0.381521
0.470069 0.19118 0.369619
0.681941 0.113695 0.371603
0.869764 0.152239 0.41651
0.946044 0.177829 0.484489
0.936706 0.190021 0.57499
0.0396887 0.396246 0.370184
0.0389563 0.393088 0.369223
0.0373846 0.386435 0.367224
0.117189 0.385626 0.372763
0.371572 0.387884 0.389517
0.653986 0.353719 0.374594
0.847456 0.279149 0.38912
0.949844 0.172152 0.442985
0.939727 0.185809 0.546258
0.0720836 0.546532 0.247852
0.0717479 0.545083 0.247791
0.0711223 0.542229 0.247913
0.0698405 0.536507 0.248753
0.324849 0.562432 0.248463
0.643168 0.576791 0.237644
0.834989 0.534371 0.28455
0.97052 0.465141 0.396307
0.946746 0.176883 0.477348
0.131853 0.723079 0.136706
0.131807 0.721492 0.136751
0.131258 0.719326 0.136278
0.130053 0.715221 0.135241
0.227344 0.717632 0.133059
0.570779 0.749889 0.120241
0.788342 0.760647 0.118456
0.943557 0.68954 0.113039
0.986709 0.631357 0.365759
0.143816 0.90486 0.146639
0.143816 0.90486 0.146639
0.143816 0.90486 0.146639
0.143816 0.90486 0.146639
0.204227 0.908797 0.147478
0.527611 0.92929 0.152728
0.741512 0.929641 0.148333
0.894408 0.915999 0.143084
0.986633 0.843305 0.132525
0.143816 0.90486 0.146639
0.143816 0.90486 0.146639
0.169986 0.905806 0.146929
0.292943 0.915053 0.148577
0.434531 0.926696 0.151141
0.590433 0.937774 0.153384
0.745342 0.945739 0.151034
0.873381 0.952239 0.149355
0.966232 0.951827 0.146227
0.0229801 0.0944686 0.517067
0.0274205 0.0944228 0.516838
0.123903 0.0935378 0.514229
0.254658 0.0948501 0.517617
0.482933 0.11751 0.519463
0.712978 0.145953 0.527855
0.880781 0.175051 0.568582
0.933013 0.198077 0.61738
0.928908 0.207385 0.672557
0.0228428 0.0939345 0.513909
0.0228275 0.0938888 0.51371
0.108034 0.0931106 0.511421
0.243885 0.0943313 0.513985
0.472786 0.116396 0.516732
0.708125 0.144411 0.522988
0.877379 0.173877 0.564401
0.933242 0.197528 0.614435
0.92903 0.206989 0.670375
0.0225376 0.0928206 0.507362
0.0225376 0.0927901 0.507195
0.0758373 0.0923323 0.505776
0.222873 0.0921187 0.50576
0.451392 0.114199 0.510918
0.69807 0.141299 0.513191
0.869841 0.171298 0.555337
0.933791 0.196338 0.608072
0.92932 0.206134 0.665644
0.0266728 0.207385 0.506004
0.0264591 0.202762 0.505425
0.0259556 0.192752 0.504158
0.179263 0.174746 0.506432
0.408621 0.130541 0.501289
0.677577 0.135515 0.494453
0.854566 0.166201 0.537041
0.935027 0.193545 0.593774
0.929992 0.204364 0.655375
0.0377966 0.360357 0.514
0.0374609 0.357702 0.513054
0.0368048 0.352163 0.511101
0.100038 0.351644 0.519539
0.324941 0.351644 0.543206
0.636103 0.326284 0.515633
0.828946 0.24007 0.514488
0.937881 0.188357 0.564004
0.931823 0.200763 0.631922
0.0719158 0.551904 0.522789
0.0715648 0.54995 0.522026
0.0708171 0.545953 0.5205
0.069276 0.537682 0.517494
0.235447 0.552468 0.53695
0.551217 0.555184 0.554925
0.793484 0.519341 0.547677
0.947265 0.443717 0.560433
0.936584 0.190204 0.576181
0.0976272 0.698863 0.410727
0.0974746 0.698039 0.410544
0.0972 0.69633 0.410224
0.0966354 0.693004 0.409857
0.141115 0.682551 0.40528
0.505714 0.714595 0.40325
0.770062 0.731823 0.401282
0.930068 0.685359 0.459312
0.976806 0.625071 0.572885
0.141085 0.882109 0.144045
0.140978 0.881132 0.143923
0.140703 0.878981 0.143679
0.140169 0.874647 0.14316
0.160006 0.86685 0.142397
0.505119 0.894545 0.148104
0.729061 0.89453 0.142443
0.884031 0.881102 0.137911
0.980102 0.814984 0.288121
0.143816 0.90486 0.146639
0.143816 0.90486 0.146639
0.167315 0.905653 0.146899
0.288548 0.914733 0.148547
0.430106 0.926299 0.151034
0.585626 0.937438 0.153368
0.740215 0.945495 0.151171
0.86836 0.951797 0.149325
0.961196 0.954284 0.146746
0.028687 0.116686 0.641199
0.032517 0.11664 0.640894
0.11989 0.116518 0.638086
0.246296 0.115877 0.633967
0.438041 0.13521 0.639429
0.673533 0.167437 0.664683
0.863523 0.203784 0.71458
0.927611 0.22089 0.741527
0.928969 0.228077 0.779797
0.0285954 0.116289 0.639094
0.0285801 0.116228 0.638819
0.107958 0.116167 0.636408
0.237186 0.115419 0.631983
0.429023 0.133562 0.636515
0.668223 0.166003 0.661173
0.859541 0.202564 0.710658
0.927581 0.220371 0.738903
0.928893 0.22771 0.777783
0.028397 0.115465 0.634775
0.028397 0.115419 0.634516
0.0797894 0.115404 0.633021
0.218143 0.114611 0.628046
0.410712 0.130434 0.630945
0.657115 0.163073 0.654093
0.851652 0.200305 0.703212
0.92752 0.219272 0.733227
0.92871 0.226886 0.773358
0.0309911 0.177646 0.635218
0.0306554 0.170947 0.63389
0.0298619 0.155856 0.630869
0.176913 0.125734 0.622492
0.375265 0.122179 0.622202
0.634913 0.156939 0.639994
0.836103 0.195209 0.687526
0.927382 0.216831 0.720623
0.928283 0.225025 0.763409
0.0424048 0.345754 0.648554
0.0420996 0.343023 0.647486
0.0414435 0.337346 0.645289
0.102541 0.333669 0.650996
0.302632 0.325063 0.665034
0.58175 0.300847 0.654627
0.808316 0.201831 0.659632
0.927871 0.211902 0.696269
0.927581 0.220539 0.739773
0.0694285 0.51426 0.66714
0.0691234 0.512581 0.666377
0.0683757 0.50901 0.664714
0.0669413 0.50193 0.66157
0.231846 0.517952 0.686229
0.501213 0.515633 0.711269
0.769818 0.493385 0.702922
0.923629 0.428519 0.700801
0.927962 0.211154 0.692607
0.0985275 0.69424 0.67306
0.0983444 0.693111 0.67245
0.098024 0.690898 0.67129
0.097322 0.68632 0.668925
0.130648 0.68159 0.66717
0.391882 0.702281 0.69398
0.706584 0.703761 0.701915
0.889586 0.671275 0.701976
0.956466 0.610224 0.723445
0.116823 0.85153 0.591959
0.116701 0.850782 0.59173
0.116518 0.849302 0.591409
0.116106 0.846311 0.59089
0.115328 0.840635 0.590402
0.343435 0.833051 0.548379
0.667857 0.851087 0.562814
0.862226 0.844007 0.576562
0.972457 0.807294 0.632868
0.143816 0.90486 0.146639
0.143816 0.90486 0.146639
0.143816 0.90486 0.146639
0.210269 0.909209 0.147539
0.387274 0.922621 0.150118
0.554269 0.935332 0.153262
0.715068 0.944305 0.151858
0.848615 0.950301 0.149081
0.9458 0.948913 0.27071
0.0444343 0.1364 0.739666
0.0885176 0.136614 0.738109
0.151369 0.136385 0.734539
0.258915 0.135958 0.729259
0.414939 0.14313 0.739895
0.641382 0.182635 0.773098
0.840589 0.214374 0.815076
0.931197 0.23743 0.849515
0.930922 0.23798 0.864302
0.0330053 0.136019 0.738369
0.0738384 0.136339 0.737255
0.141268 0.136141 0.733562
0.251179 0.135744 0.728267
0.406714 0.142504 0.73724
0.635966 0.181521 0.770565
0.8365 0.213611 0.812299
0.931228 0.237369 0.848005
0.930953 0.237934 0.863127
0.0328679 0.135485 0.7355
0.0439307 0.135546 0.735119
0.122637 0.135714 0.731685
0.234989 0.135302 0.726207
0.389853 0.141207 0.73196
0.624826 0.179217 0.765377
0.828244 0.211948 0.8065
0.931289 0.237263 0.844923
0.930983 0.237842 0.860578
0.0373846 0.214191 0.744289
0.0370184 0.208927 0.742901
0.0792554 0.198856 0.741848
0.199954 0.171618 0.72932
0.3617 0.139071 0.721157
0.602441 0.17435 0.754726
0.811902 0.208576 0.794965
0.931182 0.236713 0.837812
0.93109 0.237629 0.854841
0.049073 0.358144 0.756359
0.0487831 0.355657 0.755413
0.048188 0.3505 0.753475
0.148455 0.349538 0.761547
0.310948 0.341421 0.772564
0.557656 0.306569 0.774929
0.782681 0.23917 0.778454
0.930938 0.235569 0.824186
0.931243 0.236988 0.841123
0.0743267 0.514839 0.782147
0.073991 0.513283 0.781415
0.0733349 0.510063 0.779904
0.0720226 0.503594 0.776928
0.25362 0.517464 0.798856
0.479133 0.5075 0.817914
0.740215 0.480125 0.822217
0.914611 0.433127 0.823957
0.930587 0.23418 0.813031
0.100038 0.665629 0.796979
0.0998703 0.664683 0.79646
0.0995346 0.662699 0.795316
0.0988785 0.658747 0.793133
0.179431 0.663584 0.800748
0.396139 0.668727 0.81474
0.67155 0.669932 0.829633
0.873426 0.648661 0.831754
0.952224 0.599802 0.828977
0.115251 0.797971 0.791959
0.11519 0.797375 0.791592
0.115038 0.796124 0.790784
0.114717 0.793637 0.789212
0.124865 0.789685 0.786664
0.342077 0.805173 0.799313
0.594156 0.81532 0.80943
0.821118 0.8168 0.81265
0.94313 0.792844 0.816907
0.125612 0.913527 0.743511
0.125582 0.913161 0.743313
0.12546 0.912291 0.742824
0.145998 0.913008 0.742779
0.270344 0.923812 0.737438
0.377188 0.920943 0.711467
0.584802 0.936599 0.682094
0.796811 0.925933 0.712169
0.922805 0.914931 0.727016
0.17026 0.198306 0.761929
0.193347 0.192599 0.759335
0.240146 0.179995 0.754009
0.31107 0.155505 0.74548
0.44242 0.14789 0.762737
0.633463 0.182895 0.792432
0.814633 0.213092 0.831571
0.930892 0.238025 0.865827
0.930892 0.238025 0.865827
0.166064 0.227588 0.772168
0.1841 0.222766 0.769085
0.232212 0.21294 0.763958
0.305898 0.189349 0.753582
0.434852 0.149569 0.761868
0.629084 0.182086 0.791623
0.811246 0.212589 0.830701
0.930892 0.238025 0.865827
0.930892 0.238025 0.865827
0.158251 0.273396 0.788891
0.177234 0.271 0.788052
0.211978 0.263584 0.782818
0.294179 0.247837 0.774334
0.414328 0.212665 0.774258
0.620157 0.180407 0.789975
0.804379 0.211597 0.828931
0.930892 0.238025 0.865827
0.930892 0.238025 0.865827
0.136828 0.334127 0.794598
0.159945 0.334844 0.798932
0.198123 0.33492 0.806363
0.266651 0.328283 0.805631
0.390661 0.301457 0.796338
0.603738 0.276967 0.814359
0.790433 0.209415 0.825422
0.930892 0.238025 0.865827
0.930892 0.238025 0.865827
0.0760662 0.423041 0.810178
0.114229 0.427314 0.815915
0.17055 0.429709 0.821668
0.239719 0.424857 0.824277
0.364813 0.422751 0.841672
0.539391 0.384588 0.839078
0.770764 0.367117 0.857862
0.918212 0.246448 0.864012
0.930892 0.238025 0.865827
0.0816205 0.541375 0.840543
0.0813916 0.540215 0.840238
0.0825208 0.538109 0.839902
0.202686 0.552087 0.857618
0.309606 0.54902 0.863737
0.499931 0.542321 0.884947
0.713848 0.513481 0.891737
0.90161 0.47895 0.90309
0.937881 0.361288 0.884108
0.103014 0.666911 0.86981
0.102876 0.666133 0.869383
0.102602 0.664515 0.868513
0.103517 0.661524 0.867002
0.270191 0.675166 0.883284
0.433463 0.672206 0.888304
0.662013 0.669306 0.903349
0.855192 0.650172 0.909194
0.954437 0.614954 0.909972
0.115755 0.774411 0.873671
0.115694 0.773922 0.87335
0.115572 0.772915 0.872709
0.115328 0.770871 0.871443
0.244709 0.780713 0.880827
0.372549 0.781689 0.884565
0.60174 0.784619 0.890776
0.805386 0.795743 0.897719
0.931731 0.776364 0.901595
0.123369 0.858289 0.865782
0.142901 0.859724 0.866468
0.183429 0.862608 0.867903
0.239475 0.866621 0.870146
0.309194 0.871031 0.872938
0.393835 0.875395 0.8757
0.570733 0.881788 0.879622
0.762646 0.891295 0.883635
0.896406 0.892409 0.885527
