public/luts/teal.cube
TITLE "Generated by Resolve"
LUT_3D_SIZE 5
0.0112917 0.0153201 0.0173953
0.184176 0.0358434 0.0329747
0.513649 0.0778821 0.0874342
0.896376 0.141299 0.250294
0.945129 0.178973 0.493767
0.0135805 0.168872 0.0274968
0.143755 0.156573 0.0296025
0.494835 0.0999161 0.0582284
0.883574 0.13901 0.218738
0.946197 0.17763 0.482948
0.057084 0.428489 0.0719921
0.0554665 0.420798 0.0702678
0.483528 0.429557 0.0625162
0.865904 0.352361 0.106035
0.951125 0.169253 0.425101
0.132876 0.767056 0.135363
0.132677 0.762829 0.135531
0.266468 0.761563 0.133776
0.7991 0.798154 0.124941
0.98793 0.639551 0.109407
0.143816 0.90486 0.146639
0.165682 0.905547 0.146868
0.434531 0.926696 0.151141
0.747967 0.945861 0.150958
0.969223 0.950393 0.145922
0.0115053 0.0308537 0.160464
0.181094 0.0388952 0.170184
0.528939 0.0791943 0.202823
0.90135 0.142458 0.301915
0.942779 0.181949 0.516793
0.0119631 0.149279 0.131975
0.117174 0.131853 0.13521
0.495979 0.0719921 0.159747
0.885237 0.139223 0.278676
0.943801 0.180636 0.506737
0.0549477 0.418326 0.0696574
0.0533455 0.410391 0.067689
0.474861 0.414542 0.0603647
0.860975 0.338598 0.106355
0.948867 0.173678 0.453941
0.132601 0.760739 0.135607
0.132525 0.756191 0.13576
0.261769 0.754192 0.134386
0.797406 0.792493 0.124086
0.987716 0.633387 0.108797
0.143816 0.90486 0.146639
0.166827 0.905608 0.146883
0.434714 0.926711 0.151156
0.74757 0.945846 0.150973
0.968734 0.950622 0.145968
0.0168002 0.0716411 0.386007
0.137804 0.0699016 0.384558
0.531319 0.0991684 0.389303
0.897505 0.162615 0.454231
0.934844 0.193973 0.596002
0.0169833 0.0984665 0.37258
0.0890822 0.0718242 0.368719
0.504509 0.0945296 0.373953
0.886732 0.158495 0.43801
0.935546 0.192325 0.587579
0.0396887 0.396246 0.370184
0.0373846 0.386435 0.367224
0.371572 0.387884 0.389517
0.847456 0.279149 0.38912
0.939727 0.185809 0.546258
0.131853 0.723079 0.136706
0.131258 0.719326 0.136278
0.227344 0.717632 0.133059
0.788342 0.760647 0.118456
0.986709 0.631357 0.365759
0.143816 0.90486 0.146639
0.169986 0.905806 0.146929
0.434531 0.926696 0.151141
0.745342 0.945739 0.151034
0.966232 0.951827 0.146227
0.028687 0.116686 0.641199
0.11989 0.116518 0.638086
0.438041 0.13521 0.639429
0.863523 0.203784 0.71458
0.928969 0.228077 0.779797
0.028397 0.115465 0.634775
0.0797894 0.115404 0.633021
0.410712 0.130434 0.630945
0.851652 0.200305 0.703212
0.92871 0.226886 0.773358
0.0424048 0.345754 0.648554
0.0414435 0.337346 0.645289
0.302632 0.325063 0.665034
0.808316 0.201831 0.659632
0.927581 0.220539 0.739773
0.0985275 0.69424 0.67306
0.098024 0.690898 0.67129
0.130648 0.68159 0.66717
0.706584 0.703761 0.701915
0.956466 0.610224 0.723445
0.143816 0.90486 0.146639
0.143816 0.90486 0.146639
0.387274 0.922621 0.150118
0.715068 0.944305 0.151858
0.9458 0.948913 0.27071
0.17026 0.198306 0.761929
0.240146 0.179995 0.754009
0.44242 0.14789 0.762737
0.814633 0.213092 0.831571
0.930892 0.238025 0.865827
0.158251 0.273396 0.788891
0.211978 0.263584 0.782818
0.414328 0.212665 0.774258
0.804379 0.211597 0.828931
0.930892 0.238025 0.865827
0.0760662 0.423041 0.810178
0.17055 0.429709 0.821668
0.364813 0.422751 0.841672
0.770764 0.367117 0.857862
0.930892 0.238025 0.865827
0.103014 0.666911 0.86981
0.102602 0.664515 0.868513
0.270191 0.675166 0.883284
0.662013 0.669306 0.903349
0.954437 0.614954 0.909972
0.123369 0.858289 0.865782
0.183429 0.862608 0.867903
0.309194 0.871031 0.872938
0.570733 0.881788 0.879622
0.896406 0.892409 0.885527
