public/luts/teal.cube
TITLE "Generated by Resolve"
LUT_3D_SIZE 33
0.0112917 0.0153201 0.0173953
0.0211795 0.0153201 0.0178836
0.033463 0.0158694 0.0184482
0.0491646 0.0166323 0.0191196
0.0719463 0.0187533 0.0208591
0.0974594 0.0220188 0.0233616
0.124697 0.0261692 0.0263371
0.153536 0.0308843 0.0295415
0.184176 0.0358434 0.0329747
0.217334 0.0409857 0.0365301
0.252949 0.0462196 0.0400244
0.291402 0.0513008 0.0440223
0.332692 0.0563211 0.0489357
0.375433 0.0616465 0.0551614
0.419638 0.0665751 0.063386
0.466377 0.071458 0.0743877
0.513649 0.0778821 0.0874342
0.562203 0.0846571 0.102876
0.610758 0.0919051 0.121126
0.659586 0.0997177 0.141176
0.70956 0.108675 0.161318
0.758572 0.117357 0.182391
0.806622 0.12517 0.204013
0.852644 0.132876 0.226383
0.896376 0.141299 0.250294
0.936904 0.148714 0.273793
0.94522 0.151385 0.294759
0.953536 0.15288 0.321172
0.953674 0.156741 0.35198
0.952712 0.161242 0.38294
0.951583 0.16762 0.416861
0.948806 0.1738 0.454673
0.945129 0.178973 0.493767
0.0109102 0.025803 0.0170138
0.0177462 0.024155 0.0171817
0.029633 0.0223697 0.0174563
0.0453193 0.0205234 0.0177005
0.0674754 0.0196078 0.0188754
0.0932937 0.0216526 0.0208743
0.121004 0.0259556 0.0233463
0.150408 0.0309758 0.0259098
0.18146 0.0361028 0.0286717
0.214923 0.0411078 0.0322728
0.250751 0.0461585 0.0358282
0.289448 0.0511635 0.0398871
0.330938 0.0561532 0.044831
0.373831 0.0614939 0.0510262
0.41825 0.0666209 0.0591745
0.465156 0.0717937 0.0700236
0.512566 0.0782483 0.0830854
0.561242 0.085008 0.098558
0.609903 0.0921187 0.116823
0.658686 0.0997635 0.137362
0.708461 0.108537 0.15816
0.75758 0.117235 0.179706
0.805707 0.125032 0.201724
0.851835 0.132723 0.224414
0.895644 0.141131 0.248631
0.936263 0.148531 0.272374
0.945129 0.151293 0.293599
0.953079 0.152834 0.31989
0.953704 0.156603 0.350881
0.952743 0.161105 0.382025
0.951629 0.167452 0.416007
0.948867 0.173678 0.45391
0.94519 0.178897 0.493141
0.0109102 0.0384833 0.0170748
0.0136568 0.0366369 0.0171359
0.0254673 0.0344854 0.0174563
0.0408484 0.0322728 0.0176242
0.062089 0.0310674 0.0186465
0.0890059 0.0310063 0.0208743
0.116793 0.0306706 0.0231327
0.146365 0.0306401 0.0255589
0.177798 0.0355383 0.0281834
0.211643 0.0407721 0.0307317
0.247944 0.0459449 0.0329442
0.286992 0.0509804 0.0353246
0.328756 0.0559548 0.0398566
0.371939 0.061326 0.046067
0.416495 0.0666361 0.054078
0.463645 0.0719158 0.0649424
0.511223 0.0786603 0.0778363
0.560113 0.0854047 0.0933547
0.608865 0.0924392 0.11162
0.657679 0.0998703 0.132387
0.707073 0.108354 0.154208
0.756298 0.117052 0.176364
0.804578 0.12488 0.198901
0.850843 0.13254 0.222004
0.894713 0.140917 0.246586
0.93547 0.148302 0.270634
0.945022 0.151171 0.29218
0.952483 0.152743 0.318303
0.95375 0.156405 0.349538
0.952758 0.160922 0.380896
0.95169 0.167239 0.414939
0.948959 0.173556 0.452979
0.945266 0.17879 0.492363
0.0109102 0.054139 0.0172122
0.0109102 0.0522164 0.0171054
0.0205844 0.0500038 0.0174411
0.0353399 0.047425 0.0178073
0.0552224 0.0449226 0.0181582
0.083711 0.0449989 0.0205844
0.112306 0.0445411 0.0232242
0.142321 0.043946 0.0255589
0.174014 0.0430915 0.0280613
0.207721 0.0415503 0.0304875
0.244236 0.0454261 0.0327306
0.283528 0.0505684 0.0350805
0.325765 0.0556039 0.0379034
0.369512 0.0610819 0.0413977
0.41445 0.0666514 0.0479896
0.461814 0.0720378 0.058793
0.509529 0.0788128 0.0717479
0.558724 0.0859083 0.0870985
0.607767 0.0929732 0.105394
0.656443 0.100008 0.126421
0.705379 0.108141 0.149203
0.754803 0.116854 0.172183
0.803235 0.124681 0.195377
0.849653 0.132342 0.219043
0.893614 0.140673 0.244099
0.934524 0.148058 0.268528
0.9449 0.151034 0.290471
0.951812 0.152667 0.316411
0.953811 0.156222 0.347967
0.952789 0.160723 0.379553
0.951751 0.166979 0.413657
0.94905 0.173388 0.451865
0.945357 0.178683 0.491463
0.0109407 0.0741741 0.018204
0.0109407 0.0722515 0.0181125
0.0148013 0.069749 0.0181735
0.02916 0.067155 0.0187381
0.0487526 0.0644999 0.0193027
0.0771801 0.0623026 0.0198978
0.10782 0.0615854 0.0225376
0.137942 0.0610056 0.0252995
0.170001 0.0594949 0.0279698
0.204257 0.057023 0.0305791
0.240787 0.0543526 0.0327306
0.279377 0.0500801 0.0348211
0.322011 0.0551308 0.0376287
0.36614 0.0606394 0.0411078
0.411521 0.0663767 0.0455329
0.459541 0.0721447 0.0517739
0.507485 0.0790112 0.0643931
0.556848 0.0861677 0.0797436
0.606394 0.0936141 0.0978866
0.655116 0.100343 0.119112
0.703929 0.108217 0.142626
0.753094 0.116686 0.166903
0.801663 0.124498 0.190982
0.848264 0.132143 0.215366
0.892302 0.140429 0.241001
0.933379 0.147738 0.265934
0.944747 0.150881 0.28838
0.950957 0.15256 0.314092
0.953872 0.155947 0.346014
0.952834 0.160479 0.37792
0.951827 0.16669 0.412131
0.949187 0.173205 0.450538
0.945464 0.178561 0.490349
0.0113527 0.0964065 0.0201724
0.0113069 0.0946822 0.0200046
0.0112612 0.0925612 0.019791
0.0225223 0.0905165 0.0200656
0.0421454 0.0889906 0.0207065
0.0685435 0.0868238 0.0216831
0.101457 0.0832074 0.0222171
0.133791 0.0815595 0.0244144
0.166094 0.0803845 0.0272831
0.200427 0.0779278 0.0303502
0.237629 0.0739757 0.0327916
0.276768 0.0690318 0.0350805
0.318547 0.0626688 0.0375372
0.362173 0.0601358 0.0407568
0.407874 0.0659037 0.0451514
0.45623 0.0716716 0.0512856
0.504814 0.0789654 0.0586557
0.554574 0.0863966 0.0709392
0.604486 0.0940719 0.0890211
0.653925 0.101137 0.11014
0.702327 0.1084 0.134051
0.750912 0.116426 0.160098
0.799664 0.124224 0.185412
0.84651 0.131884 0.210788
0.8907 0.140124 0.237171
0.93196 0.147387 0.26276
0.944549 0.150668 0.285801
0.949905 0.152407 0.311238
0.953948 0.155627 0.343603
0.95288 0.160174 0.375921
0.951904 0.166308 0.410254
0.94931 0.172961 0.44889
0.945602 0.178378 0.488991
0.011902 0.119478 0.0225071
0.0118563 0.117968 0.0223392
0.0118105 0.116136 0.0221561
0.014786 0.114183 0.021973
0.0332647 0.1131 0.0220951
0.0585946 0.112154 0.0220645
0.0906691 0.109056 0.0235447
0.126543 0.105425 0.0243992
0.162219 0.103258 0.0262608
0.197711 0.102251 0.0289464
0.234684 0.0996567 0.0319677
0.274388 0.0934005 0.0349432
0.316625 0.0858015 0.0378576
0.359854 0.0775006 0.0410163
0.403784 0.067155 0.0448005
0.452308 0.0711223 0.050721
0.501152 0.0783856 0.0580758
0.551476 0.0861677 0.0662394
0.601923 0.0943465 0.0785077
0.652262 0.101915 0.0993973
0.700694 0.108888 0.123735
0.748745 0.116426 0.150973
0.79733 0.123964 0.178317
0.844419 0.131594 0.205005
0.888777 0.139818 0.232456
0.930236 0.146975 0.258824
0.94432 0.150408 0.282643
0.948623 0.152239 0.30779
0.953902 0.155261 0.340536
0.952941 0.159838 0.373526
0.951995 0.165896 0.408042
0.949493 0.172702 0.446906
0.945769 0.17818 0.487358
0.0125429 0.143511 0.0249332
0.0124971 0.142199 0.0247959
0.0124514 0.140612 0.0246586
0.0123903 0.138659 0.0244602
0.0233768 0.137545 0.0241093
0.0473335 0.137469 0.0232242
0.0797284 0.135454 0.0235599
0.116014 0.132479 0.0259098
0.154345 0.128389 0.0267185
0.193515 0.125734 0.0279393
0.2327 0.124559 0.0302281
0.272908 0.122133 0.0332952
0.315267 0.116335 0.0370489
0.35967 0.10631 0.0411688
0.403189 0.0945144 0.0458228
0.449104 0.0813001 0.0508583
0.496864 0.0777142 0.0574044
0.547509 0.0855116 0.0655528
0.598444 0.0939956 0.074464
0.649622 0.102281 0.0869459
0.698955 0.109728 0.111055
0.746822 0.116854 0.138659
0.794614 0.123751 0.168917
0.841947 0.131304 0.197589
0.886397 0.139406 0.226459
0.928145 0.146471 0.25391
0.943984 0.150088 0.27866
0.94699 0.151995 0.303532
0.953872 0.154833 0.336782
0.953017 0.15938 0.37055
0.952087 0.165408 0.405432
0.949722 0.172381 0.444526
0.945953 0.17792 0.485359
0.0135805 0.168872 0.0274968
0.013489 0.167681 0.0273442
0.0133669 0.166262 0.0271916
0.0132296 0.164523 0.0269932
0.0131533 0.162463 0.0267796
0.0348974 0.162692 0.025864
0.0652018 0.162722 0.0245823
0.104555 0.160311 0.0260777
0.143755 0.156573 0.0296025
0.185168 0.152331 0.0289006
0.227832 0.149111 0.0296025
0.271458 0.147784 0.0314794
0.314977 0.145571 0.0347906
0.359579 0.140597 0.0393378
0.405371 0.130282 0.045182
0.449729 0.11577 0.0519265
0.494835 0.0999161 0.0582284
0.542733 0.0847791 0.0647746
0.594095 0.0932631 0.0736858
0.645792 0.101839 0.082948
0.696284 0.110384 0.0961624
0.744549 0.117464 0.123873
0.791806 0.123873 0.155871
0.838773 0.131121 0.188037
0.883574 0.13901 0.218738
0.925566 0.145861 0.247715
0.943557 0.149691 0.273716
0.94551 0.151705 0.29865
0.953796 0.154269 0.332128
0.953109 0.158816 0.366888
0.952163 0.164813 0.402258
0.949966 0.171954 0.441566
0.946197 0.17763 0.482948
0.0158694 0.195727 0.0306706
0.0157626 0.19469 0.0305333
0.015671 0.193423 0.0303807
0.0155337 0.191943 0.0301976
0.0153811 0.190127 0.0299687
0.0211185 0.188632 0.0294957
0.0497139 0.1897 0.0278019
0.0877699 0.189105 0.0269322
0.131853 0.186084 0.0299687
0.173816 0.182025 0.0337987
0.219379 0.177646 0.0309148
0.265843 0.173785 0.0315709
0.313558 0.172305 0.0331121
0.360067 0.169574 0.0377356
0.406546 0.164569 0.0433661
0.451972 0.156939 0.0500801
0.497688 0.143389 0.0586709
0.542794 0.122515 0.066453
0.589807 0.0993515 0.0732433
0.641077 0.101061 0.0821241
0.69218 0.109941 0.0912032
0.741711 0.118105 0.106294
0.789319 0.124636 0.138125
0.835096 0.13106 0.174884
0.880064 0.138567 0.208728
0.922499 0.145281 0.239811
0.943038 0.149187 0.267491
0.945129 0.151293 0.293568
0.953689 0.153521 0.326314
0.953292 0.15816 0.362325
0.95227 0.16405 0.398352
0.950271 0.17145 0.43798
0.946487 0.177234 0.479973
0.0184329 0.22388 0.0345464
0.0183261 0.22295 0.0344091
0.0182498 0.221881 0.0342718
0.0181125 0.220539 0.0340734
0.0179904 0.218952 0.0338598
0.017792 0.217014 0.0335699
0.0336919 0.216464 0.0326696
0.0680247 0.218158 0.0301823
0.114382 0.217548 0.0304265
0.16202 0.213214 0.0346075
0.208408 0.209979 0.0361181
0.257023 0.204318 0.0333257
0.307271 0.199817 0.0336004
0.358053 0.197559 0.0367132
0.40708 0.194751 0.0432593
0.454109 0.191455 0.049958
0.500252 0.185214 0.0570993
0.547112 0.172763 0.06598
0.592355 0.150973 0.0750439
0.637903 0.120775 0.0824292
0.687022 0.109026 0.0902724
0.737301 0.117769 0.0990921
0.786145 0.125383 0.117205
0.831632 0.13167 0.155291
0.875715 0.138155 0.195209
0.918685 0.144564 0.229435
0.942367 0.148669 0.259525
0.944656 0.150774 0.287175
0.952819 0.152789 0.319203
0.953521 0.157397 0.35668
0.952407 0.163134 0.393515
0.950637 0.170855 0.433585
0.946838 0.17673 0.47628
0.0242008 0.253468 0.0387884
0.0240482 0.252659 0.0386664
0.0238499 0.251682 0.038529
0.023621 0.250507 0.0383612
0.023331 0.249104 0.0381628
0.0230106 0.247395 0.0379187
0.0226139 0.24535 0.0376287
0.0489509 0.246006 0.0360266
0.0914931 0.248981 0.0330663
0.144366 0.246937 0.0351263
0.19556 0.241901 0.0389563
0.247272 0.239612 0.037644
0.298253 0.232425 0.036347
0.352026 0.226978 0.0369116
0.40531 0.224613 0.0427253
0.455573 0.223194 0.0507515
0.503716 0.220295 0.05832
0.549935 0.214527 0.0657511
0.596963 0.203037 0.0741131
0.642451 0.18175 0.0832532
0.68542 0.147112 0.0911269
0.73164 0.116808 0.0981765
0.781399 0.1252 0.105745
0.828138 0.133013 0.130617
0.871031 0.138231 0.175799
0.913893 0.143786 0.215366
0.941558 0.148028 0.249104
0.943999 0.150103 0.278965
0.949645 0.152377 0.310552
0.95375 0.156435 0.34963
0.952575 0.162005 0.387533
0.950973 0.169863 0.428229
0.947265 0.176104 0.471763
0.029572 0.284886 0.0436713
0.0294499 0.284153 0.0435645
0.0292668 0.283238 0.0433967
0.029099 0.2822 0.0432441
0.0289158 0.280964 0.0430762
0.0286412 0.279423 0.0428168
0.0283513 0.277607 0.0425574
0.0290227 0.275502 0.0421759
0.067277 0.277913 0.0395361
0.120592 0.280827 0.0376898
0.177615 0.277485 0.0404212
0.233341 0.272572 0.0421912
0.289281 0.270497 0.0391546
0.342931 0.261845 0.0406653
0.39884 0.256474 0.0419318
0.453101 0.25539 0.0504311
0.505638 0.254231 0.0595865
0.554482 0.251484 0.067628
0.601419 0.245396 0.0751202
0.646418 0.234928 0.0821241
0.691341 0.214237 0.0905165
0.733089 0.178988 0.098558
0.775586 0.129229 0.104952
0.823148 0.133349 0.112596
0.867002 0.139483 0.146777
0.907973 0.143008 0.195865
0.940627 0.147356 0.235065
0.943099 0.149264 0.268238
0.945586 0.151797 0.299687
0.953902 0.155261 0.340597
0.952773 0.160815 0.380224
0.951308 0.168566 0.421637
0.947799 0.175341 0.466163
0.035523 0.318486 0.049012
0.0354162 0.317845 0.0489052
0.0352331 0.317006 0.0487373
0.0350652 0.316045 0.0485847
0.0348821 0.314931 0.0484169
0.0346532 0.313558 0.048188
0.0343328 0.31191 0.0479133
0.0340124 0.309941 0.0476234
0.0442054 0.308278 0.0469978
0.0919509 0.311894 0.0439002
0.153048 0.314473 0.043183
0.214664 0.310399 0.0457923
0.275807 0.307347 0.043061
0.334585 0.30515 0.0426642
0.390158 0.29485 0.0455024
0.44686 0.290349 0.0487678
0.502617 0.289265 0.0590677
0.556542 0.288441 0.0686809
0.605814 0.285237 0.0766766
0.651514 0.278569 0.0835889
0.695689 0.267185 0.0896468
0.738491 0.248173 0.0960403
0.778668 0.213413 0.105226
0.818067 0.158587 0.112398
0.861631 0.140261 0.118318
0.902815 0.143771 0.165072
0.939559 0.146731 0.215671
0.941924 0.148318 0.25388
0.944762 0.150896 0.288655
0.953719 0.153811 0.328573
0.953002 0.159472 0.371145
0.951782 0.166918 0.413352
0.948409 0.174411 0.459236
0.0421454 0.353765 0.0553292
0.0420386 0.353201 0.0552224
0.0418708 0.352453 0.0550546
0.0417182 0.351614 0.0549172
0.0415198 0.350591 0.0547189
0.0412757 0.349355 0.0544747
0.041001 0.347875 0.0542
0.0406806 0.346105 0.0538643
0.0402686 0.343969 0.0534524
0.0625772 0.342962 0.0526741
0.122362 0.347646 0.0499275
0.190768 0.350286 0.0492256
0.255421 0.346105 0.0509651
0.322179 0.345754 0.0437781
0.382086 0.343694 0.0482185
0.439872 0.332799 0.050782
0.497459 0.328237 0.0569314
0.553094 0.326192 0.0677501
0.606256 0.324987 0.0772106
0.655528 0.321126 0.0849622
0.700206 0.313085 0.0906539
0.742885 0.302113 0.0975509
0.782834 0.283528 0.102739
0.821363 0.248997 0.109804
0.857343 0.193027 0.117113
0.897154 0.145129 0.123903
0.933898 0.146319 0.186206
0.940581 0.147311 0.234409
0.943572 0.149706 0.273915
0.950652 0.152514 0.313268
0.953429 0.157748 0.35935
0.952132 0.164981 0.403265
0.949187 0.173205 0.450477
0.0493782 0.39057 0.0629587
0.0492714 0.390036 0.0628519
0.0491493 0.38941 0.0626993
0.0489967 0.388647 0.0625467
0.0487984 0.387717 0.0623178
0.0485847 0.386633 0.0621042
0.0482948 0.385306 0.061799
0.0479896 0.383734 0.0614633
0.0476081 0.381826 0.0610513
0.0471504 0.379553 0.0605325
0.0852522 0.380575 0.0584726
0.159762 0.386191 0.0569619
0.232395 0.388144 0.0567025
0.300435 0.38529 0.0565499
0.371252 0.387106 0.048127
0.432258 0.385168 0.0542611
0.491402 0.373953 0.0588846
0.548638 0.368353 0.0653239
0.60264 0.36553 0.0759136
0.654307 0.362661 0.0844282
0.702815 0.357916 0.090898
0.746059 0.350484 0.0981613
0.786954 0.337484 0.102922
0.825635 0.317601 0.105699
0.861692 0.284871 0.109728
0.894545 0.229313 0.117861
0.928222 0.147997 0.138415
0.939208 0.146578 0.206317
0.941955 0.148333 0.254246
0.945235 0.151415 0.295033
0.953948 0.155673 0.343984
0.952483 0.1626 0.390677
0.950164 0.171633 0.439292
0.057084 0.428489 0.0719921
0.0570077 0.428031 0.0719005
0.0568704 0.427466 0.0717632
0.056733 0.42681 0.0716259
0.0565652 0.426001 0.0714427
0.0563516 0.425025 0.0712291
0.0561227 0.423865 0.0709697
0.0558175 0.422461 0.0706493
0.0554665 0.420798 0.0702678
0.0550393 0.418769 0.069749
0.0545815 0.416419 0.0691997
0.119631 0.421973 0.0648508
0.202075 0.427924 0.0650034
0.276814 0.427314 0.0660868
0.349752 0.428275 0.0607004
0.421134 0.430716 0.0557717
0.483528 0.429557 0.0625162
0.543023 0.417762 0.068574
0.598276 0.410666 0.0734417
0.650965 0.40557 0.081178
0.700893 0.401129 0.0890669
0.746868 0.396918 0.0975967
0.788495 0.387289 0.102052
0.828107 0.372824 0.104509
0.865904 0.352361 0.106035
0.900084 0.322423 0.107836
0.930449 0.267979 0.116213
0.941878 0.177707 0.155993
0.940139 0.147066 0.226627
0.943679 0.149813 0.275105
0.953613 0.153033 0.322347
0.952926 0.159976 0.374563
0.951125 0.169253 0.425101
0.06598 0.469078 0.079881
0.0658732 0.46862 0.0797894
0.0657664 0.468101 0.0796979
0.0656138 0.467445 0.0795911
0.0654002 0.466651 0.0794385
0.0652018 0.465736 0.0792859
0.0649729 0.464652 0.079118
0.064683 0.463325 0.0789044
0.064332 0.461753 0.078645
0.0638895 0.459831 0.0783246
0.0634012 0.457572 0.0779736
0.0774701 0.456886 0.0764172
0.164034 0.46482 0.0737621
0.247547 0.47013 0.0742199
0.323003 0.468635 0.0752728
0.400992 0.473762 0.06598
0.471794 0.47718 0.0660105
0.534173 0.475349 0.0719005
0.593469 0.462379 0.0758984
0.646754 0.45388 0.0791638
0.696574 0.447044 0.0856031
0.743084 0.442344 0.0950637
0.78735 0.435218 0.100481
0.828641 0.424475 0.103075
0.866987 0.409522 0.10399
0.903456 0.389151 0.104891
0.935912 0.36022 0.105913
0.956695 0.308812 0.112184
0.945449 0.21973 0.177829
0.941466 0.147967 0.247761
0.945357 0.151537 0.296773
0.953628 0.156924 0.353292
0.952041 0.165667 0.406775
0.0759442 0.512657 0.0863966
0.0758068 0.512245 0.086305
0.0756695 0.511727 0.0861982
0.0755932 0.511193 0.0861524
0.0754101 0.510475 0.0860304
0.0752117 0.509606 0.0859083
0.0749981 0.508644 0.085771
0.0746929 0.507393 0.0855421
0.0743877 0.505989 0.0853742
0.0740063 0.504295 0.0851301
0.073518 0.502205 0.0848096
0.0729839 0.499794 0.0844892
0.113176 0.502266 0.0815747
0.210971 0.509285 0.082826
0.294148 0.511269 0.0847028
0.371649 0.513146 0.0825055
0.452415 0.520745 0.0740368
0.521752 0.523751 0.0740978
0.583856 0.522911 0.0785077
0.640848 0.508125 0.0822309
0.690517 0.499229 0.0876173
0.737392 0.490425 0.0920882
0.782528 0.483024 0.0968948
0.82562 0.474144 0.100496
0.866163 0.463142 0.101793
0.903166 0.448035 0.102159
0.937652 0.427466 0.102724
0.963958 0.395392 0.104417
0.960693 0.347234 0.107347
0.950118 0.261234 0.200092
0.943206 0.149355 0.269566
0.953658 0.153384 0.325216
0.952697 0.161364 0.383841
0.0855879 0.556802 0.0941634
0.0855268 0.556466 0.0941176
0.0854505 0.556039 0.0940261
0.0853132 0.555505 0.093904
0.0852064 0.55491 0.0937972
0.0850385 0.554192 0.0936294
0.0848554 0.553307 0.0934462
0.0846265 0.552254 0.0932326
0.0843671 0.551003 0.092958
0.0840314 0.549477 0.0926375
0.0836805 0.547723 0.0922866
0.0832074 0.545556 0.0918135
0.0826734 0.543038 0.0912795
0.16463 0.547692 0.0910048
0.259525 0.553506 0.0935683
0.341405 0.554116 0.0953536
0.421424 0.559899 0.0879835
0.502708 0.568017 0.0819257
0.569467 0.571618 0.0820478
0.629343 0.571878 0.0850843
0.682078 0.5561 0.0922866
0.730343 0.544839 0.0955673
0.775692 0.532601 0.0971237
0.819806 0.523491 0.098024
0.861509 0.51371 0.099321
0.900938 0.502861 0.099321
0.93669 0.487694 0.0994278
0.964752 0.464912 0.0995499
0.97293 0.429831 0.10248
0.965621 0.383078 0.105241
0.955413 0.303044 0.221759
0.946014 0.171405 0.292699
0.953536 0.157336 0.356176
0.0951705 0.600473 0.103517
0.0950637 0.600153 0.103426
0.0950179 0.599863 0.10338
0.0948348 0.599374 0.103197
0.0947127 0.598901 0.10309
0.0945754 0.598306 0.102953
0.0943465 0.597559 0.102739
0.0941329 0.596719 0.102541
0.0938582 0.595697 0.102266
0.0935225 0.594476 0.101961
0.0932021 0.592905 0.101656
0.0928359 0.591028 0.101289
0.0923629 0.588785 0.100832
0.105516 0.587472 0.0993515
0.217472 0.594064 0.101747
0.308583 0.596002 0.106126
0.390036 0.599069 0.104021
0.471946 0.607843 0.0935073
0.549889 0.615641 0.0906233
0.612696 0.619257 0.0908675
0.669139 0.61941 0.0939803
0.719844 0.603235 0.0999771
0.767407 0.589471 0.10074
0.811673 0.575235 0.100999
0.854231 0.564508 0.101228
0.894575 0.554101 0.101167
0.931563 0.54313 0.100938
0.959777 0.526207 0.100099
0.979934 0.499626 0.0987106
0.977279 0.465126 0.0997787
0.970962 0.420249 0.128801
0.961303 0.34641 0.242741
0.956924 0.227878 0.323293
0.10663 0.64004 0.11426
0.106538 0.639796 0.114183
0.106416 0.63946 0.114046
0.106355 0.639155 0.114
0.106233 0.638743 0.113893
0.10602 0.638193 0.113695
0.105837 0.637598 0.113527
0.105623 0.636881 0.113329
0.105379 0.636027 0.1131
0.105028 0.634974 0.112779
0.104677 0.633768 0.112444
0.104173 0.632273 0.112001
0.103639 0.630518 0.111482
0.102998 0.628458 0.110903
0.1635 0.630457 0.110338
0.272755 0.635706 0.115053
0.359335 0.639139 0.116762
0.440726 0.645838 0.1093
0.520912 0.655421 0.101228
0.593851 0.662547 0.0994888
0.651942 0.665339 0.0994278
0.705379 0.667384 0.102754
0.754833 0.650034 0.105608
0.801862 0.6336 0.105409
0.845228 0.61825 0.104631
0.886 0.605692 0.104585
0.924269 0.595026 0.104494
0.953429 0.582177 0.103914
0.978149 0.561364 0.102647
0.982238 0.534844 0.100862
0.980011 0.500847 0.0987869
0.975586 0.459113 0.1579
0.970367 0.390967 0.276066
0.118349 0.677592 0.125063
0.118288 0.677378 0.125002
0.118196 0.677119 0.124926
0.11812 0.676829 0.124849
0.118013 0.676493 0.124773
0.117861 0.676036 0.12462
0.117693 0.675502 0.124483
0.117494 0.674891 0.124315
0.11725 0.674144 0.124102
0.11696 0.673259 0.123842
0.116594 0.672145 0.123507
0.116213 0.670909 0.123171
0.115709 0.669367 0.122698
0.115175 0.667567 0.122194
0.114504 0.665446 0.121584
0.232532 0.673121 0.122591
0.328573 0.677546 0.126864
0.411276 0.682795 0.124941
0.491707 0.692241 0.112932
0.567651 0.701854 0.109422
0.634363 0.707881 0.108186
0.688914 0.710094 0.107698
0.73901 0.71339 0.110445
0.787961 0.696345 0.110643
0.832959 0.677317 0.110719
0.87541 0.660822 0.108843
0.914076 0.646555 0.108431
0.945586 0.63534 0.108156
0.97084 0.617761 0.107027
0.986068 0.596109 0.105409
0.984543 0.569619 0.103334
0.982391 0.536782 0.100999
0.979583 0.498329 0.190463
0.129747 0.714137 0.134966
0.129671 0.713939 0.134905
0.129595 0.713695 0.134829
0.129534 0.713436 0.134783
0.129427 0.7131 0.134676
0.12932 0.712703 0.134585
0.129168 0.71223 0.134463
0.12903 0.711696 0.13434
0.128801 0.710994 0.134142
0.128573 0.710201 0.133944
0.128313 0.70927 0.133715
0.127962 0.70811 0.13341
0.127596 0.706783 0.133089
0.127138 0.705196 0.132677
0.126513 0.703243 0.132143
0.186618 0.70576 0.131853
0.298268 0.713619 0.135058
0.385016 0.719753 0.136461
0.465126 0.729839 0.126589
0.540993 0.739437 0.11957
0.610574 0.747036 0.117632
0.672557 0.752255 0.116548
0.722591 0.753185 0.115709
0.769726 0.756527 0.117342
0.816175 0.74139 0.116182
0.861067 0.719966 0.11577
0.901183 0.702831 0.113878
0.935561 0.686595 0.11252
0.961364 0.673335 0.112032
0.985122 0.654368 0.110811
0.98764 0.631312 0.108614
0.986511 0.60441 0.106126
0.984665 0.571832 0.103502
0.132876 0.767056 0.135363
0.132845 0.766766 0.135363
0.13283 0.766461 0.135363
0.132815 0.766064 0.135393
0.132815 0.765637 0.135424
0.132769 0.765133 0.135424
0.132753 0.764477 0.13547
0.132723 0.763729 0.1355
0.132677 0.762829 0.135531
0.132616 0.761776 0.135561
0.132601 0.760403 0.135622
0.13257 0.758801 0.135668
0.13254 0.756802 0.135729
0.132509 0.754574 0.135805
0.132464 0.751797 0.135897
0.144244 0.749142 0.136049
0.266468 0.761563 0.133776
0.35938 0.766995 0.134218
0.439475 0.774609 0.131472
0.516197 0.783413 0.130037
0.586343 0.788998 0.12784
0.649439 0.79266 0.125811
0.707439 0.796048 0.124376
0.754147 0.79585 0.123659
0.7991 0.798154 0.124941
0.842786 0.784665 0.123201
0.887587 0.762219 0.120638
0.921965 0.744091 0.120638
0.949966 0.727062 0.118181
0.974166 0.709834 0.117128
0.988083 0.691081 0.114885
0.988098 0.667567 0.112169
0.98793 0.639551 0.109407
0.134157 0.812268 0.135439
0.134188 0.812116 0.135439
0.134157 0.811902 0.135393
0.134157 0.811673 0.135363
0.134157 0.811399 0.135332
0.134142 0.811078 0.135286
0.134142 0.810681 0.135256
0.134142 0.810224 0.13521
0.134127 0.809628 0.135119
0.134112 0.808942 0.135027
0.134081 0.808164 0.13492
0.134096 0.807202 0.134813
0.134051 0.806058 0.134646
0.13402 0.804746 0.134478
0.134005 0.803143 0.134264
0.133974 0.801297 0.134035
0.240528 0.8009 0.134554
0.337926 0.808133 0.13611
0.418952 0.819699 0.13817
0.495048 0.828901 0.138781
0.565545 0.833783 0.13756
0.629435 0.836194 0.135393
0.687404 0.837049 0.133242
0.740383 0.837324 0.131258
0.784344 0.835691 0.130907
0.826627 0.836164 0.131365
0.868116 0.824979 0.129076
0.911543 0.803006 0.126558
0.938643 0.784375 0.125795
0.962097 0.765972 0.124941
0.984192 0.748104 0.123293
0.987305 0.727275 0.120134
0.987884 0.703136 0.116487
0.138216 0.858015 0.141192
0.138201 0.857847 0.141176
0.13817 0.857542 0.141146
0.138155 0.857252 0.141131
0.138109 0.856901 0.14107
0.138048 0.856443 0.141009
0.137987 0.855848 0.140948
0.137896 0.855192 0.140841
0.137819 0.854429 0.140764
0.137713 0.853574 0.140658
0.137591 0.852476 0.14052
0.137438 0.851118 0.140352
